; generated by Slic3r 1.0.0RC3 on 2014-03-28 at 13:29:44

; layer_height = 0.25
; perimeters = 2
; top_solid_layers = 2
; bottom_solid_layers = 2
; fill_density = .3
; perimeter_speed = 30
; infill_speed = 60
; travel_speed = 110
; nozzle_diameter = 0.4
; filament_diameter = 1.7
; extrusion_multiplier = 1.05
; perimeters extrusion width = 0.40mm
; infill extrusion width = 0.53mm
; solid infill extrusion width = 0.53mm
; top infill extrusion width = 0.53mm
; first layer extrusion width = 0.50mm

G21 ; set units to millimeters
M107
M190 S65 ; wait for bed temperature to be reached
M104 S220 ; set temperature
G28 ; home all axes
G1 Z5 F5000 ; lift nozzle
M109 S220 ; wait for temperature to be reached
G90 ; use absolute coordinates
G92 E0
M82 ; use absolute distances for extrusion
G1 F2100.000 E-0.30000
G92 E0
G1 Z0.250 F6600.000
G1 X34.243 Y33.450 F6600.000
G1 E0.30000 F2100.000
G1 X35.373 Y32.520 E0.38099 F540.000
G1 X36.653 Y31.830 E0.46147
G1 X38.053 Y31.410 E0.54236
G1 X39.503 Y31.260 E0.62303
G1 X87.503 Y31.260 E3.27948
G1 X89.253 Y31.470 E3.37702
G1 X90.903 Y32.080 E3.47438
G1 X92.353 Y33.070 E3.57155
G1 X105.893 Y44.740 E4.56080
G1 X106.833 Y45.630 E4.63244
G1 X107.213 Y46.030 E4.66298
G1 X107.653 Y46.540 E4.70026
G1 X108.393 Y47.520 E4.76822
G1 X108.693 Y47.980 E4.79861
G1 X109.213 Y48.870 E4.85566
G1 X109.493 Y49.410 E4.88932
G1 X109.723 Y49.910 E4.91978
G1 X110.123 Y50.930 E4.98041
G1 X110.293 Y51.450 E5.01069
G1 X121.633 Y90.310 E7.25100
G1 X121.853 Y91.340 E7.30929
G1 X121.933 Y92.390 E7.36757
G1 X121.933 Y93.040 E7.40354
G1 X121.673 Y94.970 E7.51132
G1 X120.933 Y96.760 E7.61851
G1 X113.213 Y110.120 E8.47246
G1 X112.053 Y111.640 E8.57827
G1 X110.553 Y112.810 E8.68355
G1 X109.993 Y113.140 E8.71953
G1 X108.693 Y113.740 E8.79877
G1 X107.303 Y114.080 E8.87796
G1 X77.163 Y118.560 E10.56431
G1 X76.433 Y118.650 E10.60502
G1 X75.833 Y118.700 E10.63834
G1 X74.803 Y118.740 E10.69539
G1 X50.803 Y118.740 E12.02361
G1 X49.763 Y118.700 E12.08121
G1 X48.433 Y118.560 E12.15522
G1 X47.863 Y118.470 E12.18716
G1 X47.163 Y118.330 E12.22666
G1 X46.583 Y118.190 E12.25968
G1 X45.353 Y117.820 E12.33077
G1 X44.673 Y117.570 E12.37086
G1 X44.123 Y117.340 E12.40386
G1 X43.453 Y117.030 E12.44471
G1 X42.883 Y116.740 E12.48011
G1 X41.863 Y116.140 E12.54560
G1 X41.253 Y115.740 E12.58597
G1 X40.723 Y115.360 E12.62206
G1 X40.153 Y114.910 E12.66225
G1 X39.713 Y114.530 E12.69442
G1 X38.763 Y113.620 E12.76723
G1 X37.883 Y112.640 E12.84012
G1 X37.433 Y112.070 E12.88031
G1 X37.053 Y111.540 E12.91640
G1 X36.653 Y110.930 E12.95677
G1 X36.053 Y109.910 E13.02227
G1 X35.763 Y109.340 E13.05766
G1 X35.223 Y108.120 E13.13150
G1 X34.973 Y107.440 E13.17159
G1 X34.603 Y106.210 E13.24268
G1 X34.483 Y105.710 E13.27113
G1 X28.233 Y76.240 E14.93835
G1 X28.103 Y75.480 E14.98103
G1 X28.063 Y74.700 E15.02425
G1 X28.063 Y44.700 E16.68453
G1 X28.213 Y43.250 E16.76520
G1 X28.633 Y41.860 E16.84556
G1 X29.313 Y40.580 E16.92578
G1 X33.313 Y34.580 E17.32486
G1 X34.197 Y33.505 E17.40188
G1 X34.583 Y33.780 F6600.000
G1 X35.633 Y32.920 E17.47699 F540.000
G1 X36.833 Y32.270 E17.55252
G1 X38.143 Y31.880 E17.62817
G1 X39.503 Y31.740 E17.70383
G1 X87.503 Y31.740 E20.36027
G1 X89.133 Y31.940 E20.45116
G1 X90.683 Y32.510 E20.54256
G1 X92.043 Y33.430 E20.63343
G1 X105.583 Y45.100 E21.62268
G1 X106.483 Y45.960 E21.69158
G1 X107.283 Y46.830 E21.75699
G1 X107.623 Y47.260 E21.78732
G1 X108.293 Y48.240 E21.85302
G1 X108.793 Y49.110 E21.90856
G1 X109.053 Y49.610 E21.93974
G1 X109.483 Y50.590 E21.99897
G1 X109.833 Y51.580 E22.05708
G1 X121.173 Y90.440 E24.29740
G1 X121.383 Y91.410 E24.35232
G1 X121.453 Y92.390 E24.40670
G1 X121.453 Y93.040 E24.44267
G1 X121.213 Y94.840 E24.54317
G1 X120.513 Y96.520 E24.64389
G1 X112.793 Y109.880 E25.49783
G1 X111.713 Y111.300 E25.59657
G1 X110.303 Y112.390 E25.69520
G1 X109.743 Y112.720 E25.73117
G1 X108.533 Y113.290 E25.80519
G1 X107.233 Y113.610 E25.87929
G1 X77.273 Y118.060 E27.55554
G1 X75.813 Y118.220 E27.63682
G1 X74.803 Y118.260 E27.69276
G1 X50.803 Y118.260 E29.02099
G1 X49.783 Y118.220 E29.07748
G1 X49.243 Y118.180 E29.10745
G1 X48.493 Y118.090 E29.14925
G1 X47.263 Y117.860 E29.21850
G1 X46.713 Y117.730 E29.24978
G1 X45.523 Y117.370 E29.31859
G1 X44.843 Y117.120 E29.35868
G1 X44.323 Y116.900 E29.38993
G1 X43.123 Y116.320 E29.46369
G1 X42.133 Y115.740 E29.52719
G1 X41.523 Y115.340 E29.56756
G1 X41.023 Y114.980 E29.60166
G1 X40.453 Y114.530 E29.64185
G1 X40.033 Y114.170 E29.67246
G1 X39.123 Y113.300 E29.74214
G1 X38.263 Y112.340 E29.81347
G1 X37.813 Y111.770 E29.85366
G1 X37.453 Y111.270 E29.88776
G1 X37.053 Y110.660 E29.92813
G1 X36.473 Y109.670 E29.99162
G1 X36.203 Y109.140 E30.02454
G1 X35.673 Y107.950 E30.09664
G1 X35.263 Y106.780 E30.16525
G1 X35.063 Y106.080 E30.20554
G1 X34.943 Y105.610 E30.23238
G1 X28.693 Y76.140 E31.89961
G1 X28.583 Y75.430 E31.93937
G1 X28.543 Y74.700 E31.97983
G1 X28.543 Y44.700 E33.64011
G1 X28.683 Y43.350 E33.71522
G1 X29.073 Y42.040 E33.79086
G1 X29.713 Y40.840 E33.86613
G1 X33.713 Y34.840 E34.26521
G1 X34.537 Y33.835 E34.33713
G1 X34.923 Y34.120 F6600.000
G1 X35.903 Y33.320 E34.40714 F540.000
G1 X37.023 Y32.720 E34.47746
G1 X38.233 Y32.350 E34.54749
G1 X39.503 Y32.220 E34.61814
G1 X87.503 Y32.220 E37.27458
G1 X89.023 Y32.400 E37.35929
G1 X90.463 Y32.940 E37.44440
G1 X91.733 Y33.790 E37.52898
G1 X105.273 Y45.460 E38.51824
G1 X106.143 Y46.290 E38.58478
G1 X106.523 Y46.690 E38.61531
G1 X107.243 Y47.560 E38.67781
G1 X107.593 Y48.040 E38.71069
G1 X108.113 Y48.860 E38.76443
G1 X108.623 Y49.810 E38.82410
G1 X108.853 Y50.310 E38.85456
G1 X109.223 Y51.270 E38.91150
G1 X109.373 Y51.720 E38.93775
G1 X120.713 Y90.580 E41.17806
G1 X120.903 Y91.470 E41.22842
G1 X120.973 Y92.390 E41.27949
G1 X120.973 Y93.040 E41.31546
G1 X120.753 Y94.720 E41.40923
G1 X120.103 Y96.280 E41.50276
G1 X112.383 Y109.640 E42.35670
G1 X111.373 Y110.960 E42.44868
G1 X110.063 Y111.980 E42.54057
G1 X109.503 Y112.310 E42.57654
G1 X108.373 Y112.840 E42.64561
G1 X107.163 Y113.140 E42.71461
G1 X77.203 Y117.590 E44.39086
G1 X76.313 Y117.700 E44.44049
G1 X74.803 Y117.780 E44.52418
G1 X50.803 Y117.780 E45.85240
G1 X49.803 Y117.740 E45.90779
G1 X48.553 Y117.610 E45.97734
G1 X47.353 Y117.390 E46.04485
G1 X46.843 Y117.270 E46.07385
G1 X46.143 Y117.070 E46.11414
G1 X45.003 Y116.670 E46.18100
G1 X43.853 Y116.160 E46.25062
G1 X43.363 Y115.900 E46.28132
G1 X42.393 Y115.340 E46.34331
G1 X41.783 Y114.940 E46.38368
G1 X41.323 Y114.600 E46.41534
G1 X40.363 Y113.820 E46.48379
G1 X39.473 Y112.970 E46.55190
G1 X38.973 Y112.430 E46.59263
G1 X38.643 Y112.040 E46.62090
G1 X37.853 Y111.010 E46.69274
G1 X37.453 Y110.400 E46.73311
G1 X36.893 Y109.430 E46.79510
G1 X36.633 Y108.940 E46.82580
G1 X36.123 Y107.790 E46.89542
G1 X35.873 Y107.110 E46.93551
G1 X35.523 Y105.950 E47.00257
G1 X35.413 Y105.510 E47.02767
G1 X29.163 Y76.040 E48.69489
G1 X29.063 Y75.380 E48.73183
G1 X29.023 Y74.700 E48.76953
G1 X29.023 Y44.700 E50.42981
G1 X29.153 Y43.440 E50.49991
G1 X29.513 Y42.220 E50.57031
G1 X30.113 Y41.110 E50.64014
G1 X34.113 Y35.110 E51.03922
G1 X34.878 Y34.176 E51.10604
G1 F2100.000 E50.80604
G92 E0
G1 X37.828 Y38.006 F6600.000
G1 E0.30000 F2100.000
G1 X38.809 Y37.025 E0.37679 F540.000
G1 X46.067 Y37.025 E0.77844
G1 X47.048 Y38.006 E0.85523
G1 X47.048 Y40.875 E1.01398
G1 X47.328 Y41.155 E1.03592
G1 X49.678 Y41.155 E1.16595
G1 X49.958 Y40.875 E1.18789
G1 X49.958 Y38.006 E1.34665
G1 X50.939 Y37.025 E1.42344
G1 X70.067 Y37.025 E2.48200
G1 X71.048 Y38.006 E2.55879
G1 X71.048 Y40.875 E2.71754
G1 X71.328 Y41.155 E2.73948
G1 X73.678 Y41.155 E2.86952
G1 X73.958 Y40.875 E2.89146
G1 X73.958 Y38.006 E3.05021
G1 X74.939 Y37.025 E3.12700
G1 X88.197 Y37.025 E3.86070
G1 X89.178 Y38.006 E3.93749
G1 X89.178 Y45.264 E4.33914
G1 X88.197 Y46.245 E4.41593
G1 X85.328 Y46.245 E4.57469
G1 X85.048 Y46.525 E4.59663
G1 X85.048 Y48.875 E4.72666
G1 X85.328 Y49.155 E4.74860
G1 X88.197 Y49.155 E4.90735
G1 X89.325 Y50.283 E4.99563
G1 X89.754 Y50.258 E5.01942
G1 X89.928 Y50.041 E5.03481
G1 X90.346 Y49.589 E5.06887
G1 X90.894 Y49.082 E5.11019
G1 X91.431 Y48.663 E5.14789
G1 X91.942 Y48.321 E5.18195
G1 X92.594 Y47.956 E5.22329
G1 X93.214 Y47.673 E5.26098
G1 X93.791 Y47.460 E5.29504
G1 X94.510 Y47.257 E5.33638
G1 X95.178 Y47.127 E5.37408
G1 X95.790 Y47.054 E5.40813
G1 X96.536 Y47.025 E5.44947
G1 X97.216 Y47.054 E5.48715
G1 X97.827 Y47.127 E5.52122
G1 X98.496 Y47.257 E5.55891
G1 X99.215 Y47.460 E5.60023
G1 X99.853 Y47.698 E5.63796
G1 X100.471 Y47.986 E5.67569
G1 X101.063 Y48.321 E5.71333
G1 X101.628 Y48.701 E5.75099
G1 X102.111 Y49.082 E5.78505
G1 X102.614 Y49.542 E5.82277
G1 X103.078 Y50.041 E5.86051
G1 X103.541 Y50.628 E5.90187
G1 X103.916 Y51.195 E5.93947
G1 X104.217 Y51.732 E5.97354
G1 X104.530 Y52.411 E6.01494
G1 X104.763 Y53.049 E6.05251
G1 X104.931 Y53.641 E6.08658
G1 X105.077 Y54.377 E6.12809
G1 X105.153 Y55.052 E6.16567
G1 X105.178 Y55.666 E6.19972
G1 X105.148 Y56.412 E6.24103
G1 X105.066 Y57.089 E6.27873
G1 X104.946 Y57.693 E6.31285
G1 X104.763 Y58.351 E6.35064
G1 X104.505 Y59.050 E6.39186
G1 X104.217 Y59.668 E6.42962
G1 X103.916 Y60.205 E6.46368
G1 X103.541 Y60.772 E6.50128
G1 X103.078 Y61.359 E6.54264
G1 X102.614 Y61.858 E6.58038
G1 X102.161 Y62.276 E6.61447
G1 X101.628 Y62.699 E6.65217
G1 X101.265 Y62.944 E6.67637
G1 X101.265 Y63.456 E6.70468
G1 X101.628 Y63.701 E6.72889
G1 X102.161 Y64.124 E6.76659
G1 X102.661 Y64.589 E6.80434
G1 X103.121 Y65.092 E6.84206
G1 X103.541 Y65.628 E6.87977
G1 X103.916 Y66.195 E6.91737
G1 X104.247 Y66.791 E6.95511
G1 X104.530 Y67.411 E6.99284
G1 X104.763 Y68.049 E7.03041
G1 X104.946 Y68.707 E7.06821
G1 X105.066 Y69.311 E7.10232
G1 X105.148 Y69.988 E7.14002
G1 X105.178 Y70.666 E7.17762
G1 X105.153 Y71.348 E7.21538
G1 X105.077 Y72.023 E7.25296
G1 X104.946 Y72.693 E7.29075
G1 X104.763 Y73.351 E7.32854
G1 X104.530 Y73.989 E7.36611
G1 X104.247 Y74.609 E7.40384
G1 X103.916 Y75.205 E7.44158
G1 X103.541 Y75.772 E7.47918
G1 X103.121 Y76.308 E7.51689
G1 X102.661 Y76.811 E7.55462
G1 X102.161 Y77.276 E7.59237
G1 X101.628 Y77.699 E7.63007
G1 X101.008 Y78.113 E7.67134
G1 X100.412 Y78.444 E7.70902
G1 X99.792 Y78.727 E7.74674
G1 X99.152 Y78.961 E7.78445
G1 X98.496 Y79.143 E7.82214
G1 X97.827 Y79.273 E7.85984
G1 X97.216 Y79.346 E7.89391
G1 X96.794 Y79.365 E7.91729
G1 X96.557 Y79.924 E7.95092
G1 X97.001 Y80.427 E7.98803
G1 X97.337 Y80.898 E8.02004
G1 X97.665 Y81.511 E8.05851
G1 X97.825 Y81.965 E8.08515
G1 X98.118 Y83.282 E8.15981
G1 X98.885 Y83.282 E8.20225
G1 X99.245 Y81.733 E8.29028
G1 X99.408 Y81.354 E8.31309
G1 X99.668 Y80.891 E8.34250
G1 X99.993 Y80.436 E8.37342
G1 X100.269 Y80.106 E8.39721
G1 X100.842 Y79.529 E8.44226
G1 X101.304 Y79.139 E8.47567
G1 X102.143 Y78.549 E8.53246
G1 X102.656 Y78.251 E8.56532
G1 X103.165 Y77.988 E8.59699
G1 X103.808 Y77.703 E8.63592
G1 X104.452 Y77.460 E8.67403
G1 X105.096 Y77.258 E8.71140
G1 X106.122 Y76.996 E8.76996
G1 X106.771 Y77.086 E8.80622
G1 X107.901 Y77.738 E8.87847
G1 X108.304 Y78.256 E8.91476
G1 X108.578 Y79.231 E8.97077
G1 X108.745 Y79.981 E9.01333
G1 X108.854 Y80.659 E9.05136
G1 X108.922 Y81.312 E9.08767
G1 X108.949 Y81.884 E9.11934
G1 X108.947 Y82.467 E9.15163
G1 X108.904 Y83.103 E9.18690
G1 X108.773 Y83.976 E9.23575
G1 X108.662 Y84.461 E9.26328
G1 X108.427 Y85.187 E9.30550
G1 X108.153 Y85.799 E9.34263
G1 X107.788 Y86.389 E9.38103
G1 X107.536 Y86.692 E9.40285
G1 X106.486 Y87.662 E9.48197
G1 X106.869 Y88.327 E9.52445
G1 X108.242 Y87.901 E9.60401
G1 X108.625 Y87.836 E9.62548
G1 X109.316 Y87.815 E9.66375
G1 X109.984 Y87.884 E9.70089
G1 X110.729 Y88.043 E9.74308
G1 X111.205 Y88.189 E9.77060
G1 X112.091 Y88.541 E9.82340
G1 X112.599 Y88.793 E9.85478
G1 X113.067 Y89.059 E9.88458
G1 X113.587 Y89.392 E9.91874
G1 X114.119 Y89.778 E9.95511
G1 X114.651 Y90.211 E9.99309
G1 X115.218 Y90.731 E10.03567
G1 X115.925 Y91.457 E10.09172
G1 X116.172 Y92.063 E10.12798
G1 X116.172 Y93.369 E10.20021
G1 X115.925 Y93.975 E10.23646
G1 X115.218 Y94.701 E10.29251
G1 X114.651 Y95.221 E10.33509
G1 X114.156 Y95.626 E10.37051
G1 X113.627 Y96.012 E10.40673
G1 X113.067 Y96.373 E10.44361
G1 X112.525 Y96.677 E10.47800
G1 X111.592 Y97.104 E10.53479
G1 X111.093 Y97.280 E10.56411
G1 X110.371 Y97.475 E10.60547
G1 X109.879 Y97.563 E10.63311
G1 X109.228 Y97.620 E10.66930
G1 X108.795 Y97.611 E10.69323
G1 X108.386 Y97.563 E10.71602
G1 X106.854 Y97.097 E10.80465
G1 X106.471 Y97.761 E10.84706
G1 X107.541 Y98.746 E10.92757
G1 X107.834 Y99.109 E10.95338
G1 X108.110 Y99.554 E10.98235
G1 X108.388 Y100.148 E11.01866
G1 X108.536 Y100.551 E11.04241
G1 X108.749 Y101.339 E11.08761
G1 X108.846 Y101.861 E11.11698
G1 X108.943 Y102.882 E11.17372
G1 X108.950 Y103.503 E11.20811
G1 X108.918 Y104.168 E11.24496
G1 X108.848 Y104.819 E11.28116
G1 X108.736 Y105.500 E11.31936
G1 X108.589 Y106.158 E11.35668
G1 X108.304 Y107.176 E11.41518
G1 X107.901 Y107.694 E11.45148
G1 X106.771 Y108.346 E11.52373
G1 X106.122 Y108.436 E11.55999
G1 X105.141 Y108.187 E11.61599
G1 X104.406 Y107.956 E11.65861
G1 X103.808 Y107.729 E11.69403
G1 X103.210 Y107.465 E11.73021
G1 X102.617 Y107.160 E11.76708
G1 X102.152 Y106.888 E11.79689
G1 X101.679 Y106.573 E11.82836
G1 X100.932 Y105.983 E11.88104
G1 X100.519 Y105.593 E11.91249
G1 X99.999 Y105.005 E11.95592
G1 X99.603 Y104.435 E11.99431
G1 X99.284 Y103.803 E12.03349
G1 X99.175 Y103.467 E12.05304
G1 X98.882 Y102.150 E12.12770
G1 X98.115 Y102.150 E12.17014
G1 X97.798 Y103.561 E12.25020
G1 X97.632 Y103.996 E12.27596
G1 X97.384 Y104.458 E12.30498
G1 X97.007 Y104.996 E12.34132
G1 X96.731 Y105.326 E12.36511
G1 X96.158 Y105.903 E12.41016
G1 X95.754 Y106.248 E12.43957
G1 X94.917 Y106.843 E12.49638
G1 X94.383 Y107.160 E12.53077
G1 X93.790 Y107.465 E12.56763
G1 X93.192 Y107.729 E12.60382
G1 X92.548 Y107.972 E12.64193
G1 X91.904 Y108.174 E12.67930
G1 X90.878 Y108.436 E12.73786
G1 X90.229 Y108.346 E12.77412
G1 X89.099 Y107.694 E12.84637
G1 X88.696 Y107.176 E12.88266
G1 X88.411 Y106.158 E12.94116
G1 X88.264 Y105.500 E12.97849
G1 X88.152 Y104.819 E13.01669
G1 X88.078 Y104.120 E13.05557
G1 X88.051 Y103.548 E13.08725
G1 X88.053 Y102.965 E13.11953
G1 X88.096 Y102.329 E13.15480
G1 X88.227 Y101.456 E13.20365
G1 X88.338 Y100.971 E13.23118
G1 X88.573 Y100.245 E13.27341
G1 X88.847 Y99.633 E13.31053
G1 X89.212 Y99.043 E13.34893
G1 X89.464 Y98.740 E13.37075
G1 X90.514 Y97.770 E13.44987
G1 X90.131 Y97.105 E13.49235
G1 X88.758 Y97.531 E13.57191
G1 X88.375 Y97.596 E13.59338
G1 X87.798 Y97.620 E13.62533
G1 X87.109 Y97.562 E13.66364
G1 X86.339 Y97.406 E13.70708
G1 X85.795 Y97.243 E13.73850
G1 X85.255 Y97.031 E13.77065
G1 X84.811 Y97.482 E13.80570
G1 X85.231 Y98.577 E13.87059
G1 X85.482 Y99.470 E13.92191
G1 X85.638 Y100.251 E13.96597
G1 X85.741 Y101.106 E14.01366
G1 X85.778 Y102.033 E14.06499
G1 X85.747 Y102.828 E14.10905
G1 X85.648 Y103.684 E14.15673
G1 X85.482 Y104.530 E14.20443
G1 X85.231 Y105.423 E14.25575
G1 X84.930 Y106.230 E14.30344
G1 X84.597 Y106.953 E14.34750
G1 X84.178 Y107.706 E14.39519
G1 X83.701 Y108.424 E14.44288
G1 X83.127 Y109.153 E14.49421
G1 X82.540 Y109.784 E14.54190
G1 X81.956 Y110.324 E14.58596
G1 X81.227 Y110.898 E14.63729
G1 X80.565 Y111.340 E14.68134
G1 X79.815 Y111.764 E14.72903
G1 X78.973 Y112.152 E14.78036
G1 X78.163 Y112.448 E14.82805
G1 X77.333 Y112.679 E14.87575
G1 X76.487 Y112.845 E14.92344
G1 X75.631 Y112.944 E14.97113
G1 X74.819 Y112.975 E15.01609
G1 X50.787 Y112.975 E16.34613
G1 X49.974 Y112.944 E16.39115
G1 X49.093 Y112.840 E16.44021
G1 X48.209 Y112.664 E16.49011
G1 X47.380 Y112.428 E16.53781
G1 X46.573 Y112.127 E16.58550
G1 X45.791 Y111.764 E16.63319
G1 X45.097 Y111.375 E16.67724
G1 X44.379 Y110.898 E16.72493
G1 X43.700 Y110.367 E16.77262
G1 X43.066 Y109.784 E16.82032
G1 X42.436 Y109.103 E16.87164
G1 X41.905 Y108.424 E16.91933
G1 X41.428 Y107.706 E16.96703
G1 X41.039 Y107.012 E17.01108
G1 X40.676 Y106.230 E17.05877
G1 X40.355 Y105.360 E17.11010
G1 X40.124 Y104.530 E17.15779
G1 X39.968 Y103.749 E17.20184
G1 X39.865 Y102.894 E17.24954
G1 X39.828 Y101.967 E17.30087
G1 X39.865 Y101.106 E17.34855
G1 X39.958 Y100.316 E17.39261
G1 X40.139 Y99.406 E17.44394
G1 X40.375 Y98.577 E17.49163
G1 X40.651 Y97.831 E17.53568
G1 X41.039 Y96.988 E17.58701
G1 X41.428 Y96.294 E17.63106
