; generated by Slic3r 1.0.0RC3 on 2014-04-13 at 23:47:11

; layer_height = 0.25
; perimeters = 2
; top_solid_layers = 2
; bottom_solid_layers = 2
; fill_density = .4
; perimeter_speed = 30
; infill_speed = 60
; travel_speed = 110
; nozzle_diameter = 0.4
; filament_diameter = 1.7
; extrusion_multiplier = .96
; perimeters extrusion width = 0.40mm
; infill extrusion width = 0.53mm
; solid infill extrusion width = 0.53mm
; top infill extrusion width = 0.53mm
; first layer extrusion width = 0.50mm

G21 ; set units to millimeters
M107
M190 S65 ; wait for bed temperature to be reached
M104 S220 ; set temperature
G28 ; home all axes
G1 Z5 F5000 ; lift nozzle
M109 S220 ; wait for temperature to be reached
G90 ; use absolute coordinates
G92 E0
M82 ; use absolute distances for extrusion
G1 F2100.000 E-0.90000
G92 E0
G1 Z0.250 F6600.000
G1 X61.770 Y57.010 F6600.000
G1 E0.90000 F2100.000
G1 X62.490 Y56.290 E0.95152 F540.000
G1 X62.860 Y55.960 E0.97661
G1 X63.670 Y55.320 E1.02884
G1 X64.290 Y54.890 E1.06702
G1 X65.180 Y54.360 E1.11943
G1 X65.620 Y54.130 E1.14456
G1 X66.620 Y53.680 E1.20004
G1 X67.580 Y53.330 E1.25174
G1 X68.290 Y53.130 E1.28907
G1 X69.390 Y52.900 E1.34593
G1 X82.740 Y50.980 E2.02838
G1 X83.800 Y50.900 E2.08216
G1 X91.710 Y50.900 E2.48240
G1 X93.260 Y51.070 E2.56130
G1 X94.730 Y51.550 E2.63955
G1 X96.080 Y52.320 E2.71818
G1 X97.240 Y53.360 E2.79701
G1 X98.150 Y54.620 E2.87566
G1 X102.100 Y61.460 E3.27532
G1 X102.810 Y63.140 E3.36761
G1 X103.090 Y64.930 E3.45928
G1 X103.670 Y82.250 E4.33614
G1 X103.670 Y82.810 E4.36448
G1 X103.640 Y83.530 E4.40094
G1 X103.590 Y84.140 E4.43191
G1 X103.420 Y85.380 E4.49524
G1 X103.280 Y86.090 E4.53186
G1 X103.130 Y86.690 E4.56315
G1 X102.760 Y87.920 E4.62814
G1 X102.300 Y89.110 E4.69270
G1 X102.000 Y89.770 E4.72938
G1 X101.690 Y90.380 E4.76400
G1 X101.330 Y91.010 E4.80072
G1 X100.690 Y92.010 E4.86079
G1 X100.310 Y92.540 E4.89379
G1 X99.860 Y93.110 E4.93054
G1 X98.990 Y94.080 E4.99647
G1 X98.580 Y94.490 E5.02581
G1 X97.610 Y95.360 E5.09174
G1 X97.040 Y95.810 E5.12848
G1 X96.510 Y96.190 E5.16148
G1 X95.510 Y96.830 E5.22156
G1 X94.880 Y97.190 E5.25827
G1 X94.270 Y97.500 E5.29289
G1 X93.100 Y98.010 E5.35747
G1 X92.420 Y98.260 E5.39413
G1 X91.890 Y98.430 E5.42230
G1 X90.590 Y98.780 E5.49042
G1 X89.880 Y98.920 E5.52703
G1 X89.360 Y99.000 E5.55365
G1 X88.640 Y99.090 E5.59037
G1 X88.030 Y99.140 E5.62134
G1 X87.000 Y99.180 E5.67349
G1 X63.000 Y99.180 E6.88787
G1 X61.960 Y99.140 E6.94053
G1 X61.350 Y99.090 E6.97150
G1 X60.110 Y98.920 E7.03483
G1 X59.400 Y98.780 E7.07145
G1 X58.800 Y98.630 E7.10274
G1 X57.570 Y98.260 E7.16773
G1 X56.380 Y97.800 E7.23229
G1 X55.720 Y97.500 E7.26897
G1 X55.110 Y97.190 E7.30359
G1 X54.480 Y96.830 E7.34031
G1 X53.480 Y96.190 E7.40038
G1 X52.950 Y95.810 E7.43338
G1 X52.380 Y95.360 E7.47013
G1 X51.410 Y94.490 E7.53606
G1 X51.000 Y94.080 E7.56540
G1 X50.130 Y93.110 E7.63133
G1 X49.680 Y92.540 E7.66807
G1 X49.300 Y92.010 E7.70107
G1 X48.900 Y91.400 E7.73798
G1 X48.300 Y90.380 E7.79786
G1 X47.990 Y89.770 E7.83248
G1 X47.480 Y88.600 E7.89706
G1 X47.230 Y87.920 E7.93372
G1 X47.060 Y87.390 E7.96188
G1 X46.710 Y86.090 E8.03000
G1 X46.570 Y85.380 E8.06662
G1 X46.400 Y84.140 E8.12995
G1 X46.350 Y83.430 E8.16596
G1 X46.330 Y82.710 E8.20241
G1 X46.350 Y81.570 E8.26010
G1 X46.400 Y80.850 E8.29662
G1 X46.570 Y79.610 E8.35995
G1 X46.710 Y78.900 E8.39657
G1 X47.060 Y77.600 E8.46469
G1 X47.230 Y77.070 E8.49285
G1 X47.480 Y76.390 E8.52951
G1 X47.990 Y75.220 E8.59409
G1 X48.300 Y74.610 E8.62871
G1 X48.660 Y73.980 E8.66543
G1 X49.300 Y72.980 E8.72550
G1 X49.650 Y72.490 E8.75597
G1 X61.230 Y57.620 E9.70961
G1 X61.722 Y57.064 E9.74720
G1 X62.110 Y57.340 F6600.000
G1 X62.450 Y56.990 E9.77189 F540.000
G1 X63.180 Y56.320 E9.82203
G1 X63.960 Y55.700 E9.87245
G1 X64.540 Y55.290 E9.90839
G1 X64.960 Y55.030 E9.93338
G1 X65.840 Y54.550 E9.98410
G1 X66.800 Y54.120 E10.03733
G1 X67.740 Y53.780 E10.08791
G1 X68.390 Y53.600 E10.12203
G1 X69.460 Y53.370 E10.17741
G1 X82.810 Y51.450 E10.85986
G1 X83.800 Y51.380 E10.91007
G1 X91.710 Y51.380 E11.31031
G1 X93.160 Y51.530 E11.38407
G1 X94.540 Y51.980 E11.45752
G1 X95.800 Y52.710 E11.53120
G1 X96.880 Y53.680 E11.60465
G1 X97.730 Y54.860 E11.67824
G1 X101.680 Y61.700 E12.07790
G1 X102.350 Y63.270 E12.16427
G1 X102.610 Y64.950 E12.25029
G1 X103.190 Y82.270 E13.12715
G1 X103.190 Y82.790 E13.15346
G1 X103.160 Y83.510 E13.18993
G1 X103.110 Y84.080 E13.21888
G1 X102.950 Y85.290 E13.28064
G1 X102.810 Y86.000 E13.31725
G1 X102.670 Y86.560 E13.34646
G1 X102.310 Y87.750 E13.40937
G1 X102.060 Y88.430 E13.44603
G1 X101.860 Y88.910 E13.47234
G1 X101.560 Y89.570 E13.50902
G1 X101.270 Y90.140 E13.54138
G1 X100.690 Y91.130 E13.59944
G1 X100.290 Y91.740 E13.63635
G1 X99.930 Y92.240 E13.66752
G1 X99.130 Y93.220 E13.73153
G1 X98.250 Y94.140 E13.79595
G1 X97.310 Y94.980 E13.85974
G1 X96.740 Y95.430 E13.89649
G1 X96.240 Y95.790 E13.92766
G1 X95.270 Y96.410 E13.98591
G1 X94.640 Y96.770 E14.02263
G1 X94.070 Y97.060 E14.05499
G1 X92.930 Y97.560 E14.11797
G1 X91.760 Y97.970 E14.18070
G1 X90.500 Y98.310 E14.24674
G1 X89.790 Y98.450 E14.28335
G1 X89.300 Y98.520 E14.30840
G1 X88.010 Y98.660 E14.37406
G1 X87.000 Y98.700 E14.42520
G1 X63.000 Y98.700 E15.63958
G1 X61.980 Y98.660 E15.69123
G1 X61.410 Y98.610 E15.72018
G1 X60.200 Y98.450 E15.78194
G1 X59.490 Y98.310 E15.81855
G1 X58.230 Y97.970 E15.88459
G1 X57.060 Y97.560 E15.94732
G1 X56.580 Y97.360 E15.97363
G1 X55.920 Y97.060 E16.01031
G1 X55.350 Y96.770 E16.04267
G1 X54.360 Y96.190 E16.10073
G1 X53.750 Y95.790 E16.13764
G1 X53.250 Y95.430 E16.16881
G1 X52.680 Y94.980 E16.20556
G1 X51.740 Y94.140 E16.26935
G1 X51.350 Y93.750 E16.29725
G1 X50.860 Y93.220 E16.33378
G1 X50.060 Y92.240 E16.39779
G1 X49.700 Y91.740 E16.42896
G1 X49.300 Y91.130 E16.46587
G1 X48.720 Y90.140 E16.52393
G1 X48.430 Y89.570 E16.55629
G1 X47.930 Y88.430 E16.61928
G1 X47.520 Y87.260 E16.68201
G1 X47.180 Y86.000 E16.74804
G1 X47.040 Y85.290 E16.78466
G1 X46.880 Y84.080 E16.84642
G1 X46.830 Y83.410 E16.88041
G1 X46.810 Y82.690 E16.91686
G1 X46.830 Y81.580 E16.97303
G1 X46.880 Y80.910 E17.00703
G1 X47.040 Y79.700 E17.06878
G1 X47.180 Y78.990 E17.10540
G1 X47.520 Y77.730 E17.17144
G1 X47.930 Y76.560 E17.23417
G1 X48.430 Y75.420 E17.29715
G1 X48.720 Y74.850 E17.32951
G1 X49.080 Y74.220 E17.36623
G1 X49.700 Y73.250 E17.42448
G1 X50.030 Y72.790 E17.45312
G1 X61.610 Y57.920 E18.40677
G1 X62.063 Y57.394 E18.44188
G1 X62.450 Y57.680 F6600.000
G1 X63.130 Y57.010 E18.49019 F540.000
G1 X63.860 Y56.370 E18.53931
G1 X64.250 Y56.070 E18.56421
G1 X64.790 Y55.700 E18.59733
G1 X65.210 Y55.440 E18.62232
G1 X66.060 Y54.980 E18.67122
G1 X66.990 Y54.560 E18.72286
G1 X67.890 Y54.240 E18.77119
G1 X68.500 Y54.060 E18.80337
G1 X68.970 Y53.950 E18.82780
G1 X69.530 Y53.850 E18.85658
G1 X82.880 Y51.930 E19.53903
G1 X83.800 Y51.860 E19.58571
G1 X91.710 Y51.860 E19.98595
G1 X93.060 Y52.000 E20.05462
G1 X94.340 Y52.420 E20.12279
G1 X95.520 Y53.100 E20.19170
G1 X96.520 Y54.000 E20.25977
G1 X97.320 Y55.100 E20.32859
G1 X101.270 Y61.940 E20.72826
G1 X101.890 Y63.400 E20.80852
G1 X102.130 Y64.960 E20.88838
G1 X102.710 Y82.280 E21.76524
G1 X102.680 Y83.490 E21.82649
G1 X102.640 Y84.020 E21.85338
G1 X102.550 Y84.740 E21.89010
G1 X102.340 Y85.900 E21.94975
G1 X102.010 Y87.130 E22.01418
G1 X101.610 Y88.270 E22.07531
G1 X101.130 Y89.370 E22.13604
G1 X100.490 Y90.530 E22.20308
G1 X99.890 Y91.480 E22.25993
G1 X99.550 Y91.940 E22.28887
G1 X98.780 Y92.900 E22.35114
G1 X97.930 Y93.790 E22.41341
G1 X97.400 Y94.280 E22.44994
G1 X96.440 Y95.050 E22.51221
G1 X95.980 Y95.390 E22.54115
G1 X95.030 Y95.990 E22.59800
G1 X93.870 Y96.630 E22.66504
G1 X92.770 Y97.110 E22.72577
G1 X91.630 Y97.510 E22.78690
G1 X90.400 Y97.840 E22.85133
G1 X89.240 Y98.050 E22.91098
G1 X88.520 Y98.140 E22.94770
G1 X87.000 Y98.220 E23.02471
G1 X63.000 Y98.220 E24.23909
G1 X61.470 Y98.140 E24.31661
G1 X60.300 Y97.980 E24.37636
G1 X59.590 Y97.840 E24.41298
G1 X58.360 Y97.510 E24.47742
G1 X57.900 Y97.360 E24.50190
G1 X56.780 Y96.930 E24.56260
G1 X56.120 Y96.630 E24.59929
G1 X55.590 Y96.350 E24.62962
G1 X54.620 Y95.790 E24.68629
G1 X54.010 Y95.390 E24.72320
G1 X53.550 Y95.050 E24.75214
G1 X52.590 Y94.280 E24.81441
G1 X51.700 Y93.430 E24.87668
G1 X51.210 Y92.900 E24.91321
G1 X50.440 Y91.940 E24.97548
G1 X50.100 Y91.480 E25.00442
G1 X49.700 Y90.870 E25.04133
G1 X49.140 Y89.900 E25.09800
G1 X48.860 Y89.370 E25.12833
G1 X48.380 Y88.270 E25.18906
G1 X47.980 Y87.130 E25.25019
G1 X47.650 Y85.900 E25.31463
G1 X47.510 Y85.190 E25.35125
G1 X47.350 Y84.020 E25.41100
G1 X47.300 Y83.400 E25.44247
G1 X47.280 Y82.680 E25.47892
G1 X47.300 Y81.590 E25.53408
G1 X47.350 Y80.970 E25.56555
G1 X47.510 Y79.800 E25.62530
G1 X47.650 Y79.090 E25.66192
G1 X47.980 Y77.860 E25.72636
G1 X48.380 Y76.720 E25.78749
G1 X48.860 Y75.620 E25.84822
G1 X49.500 Y74.460 E25.91525
G1 X50.100 Y73.510 E25.97210
G1 X50.410 Y73.080 E25.99893
G1 X61.990 Y58.210 E26.95257
G1 X62.403 Y57.734 E26.98445
G1 F2100.000 E26.08445
G92 E0
G1 X65.099 Y60.485 F6600.000
G1 E0.90000 F2100.000
G1 X65.585 Y59.980 E0.93544 F540.000
G1 X66.108 Y59.511 E0.97101
G1 X66.757 Y59.023 E1.01208
G1 X67.356 Y58.650 E1.04779
G1 X67.886 Y58.371 E1.07812
G1 X68.632 Y58.053 E1.11915
G1 X69.303 Y57.834 E1.15483
G1 X69.982 Y57.666 E1.19026
G1 X70.299 Y57.628 E1.20637
G1 X73.077 Y57.628 E1.34698
G1 X73.394 Y57.666 E1.36310
G1 X74.073 Y57.834 E1.39852
G1 X74.744 Y58.053 E1.43420
G1 X75.394 Y58.326 E1.46990
G1 X76.020 Y58.650 E1.50556
G1 X76.705 Y59.083 E1.54658
G1 X77.185 Y59.443 E1.57692
G1 X77.716 Y59.908 E1.61264
G1 X78.277 Y60.485 E1.65336
G1 X78.469 Y60.740 E1.66951
G1 X78.649 Y61.053 E1.68779
G1 X79.202 Y61.053 E1.71575
G1 X81.880 Y56.414 E1.98678
G1 X83.102 Y55.709 E2.05815
G1 X92.418 Y55.709 E2.52956
G1 X93.640 Y56.414 E2.60093
G1 X98.298 Y64.483 E3.07235
G1 X98.298 Y65.893 E3.14372
G1 X94.288 Y72.840 E3.54956
G1 X94.355 Y73.190 E3.56761
G1 X94.749 Y73.506 E3.59316
G1 X95.432 Y74.142 E3.64041
G1 X95.995 Y74.751 E3.68235
G1 X96.574 Y75.480 E3.72948
G1 X97.095 Y76.253 E3.77660
G1 X97.554 Y77.063 E3.82373
G1 X97.949 Y77.909 E3.87095
G1 X98.307 Y78.880 E3.92336
G1 X98.532 Y79.679 E3.96532
G1 X98.718 Y80.592 E4.01250
G1 X98.840 Y81.621 E4.06490
G1 X98.872 Y82.449 E4.10685
G1 X98.840 Y83.379 E4.15394
G1 X98.733 Y84.308 E4.20122
G1 X98.532 Y85.321 E4.25352
G1 X98.307 Y86.120 E4.29548
G1 X97.988 Y86.995 E4.34264
G1 X97.554 Y87.937 E4.39511
G1 X97.149 Y88.660 E4.43705
G1 X96.635 Y89.436 E4.48415
G1 X95.995 Y90.249 E4.53649
G1 X95.358 Y90.931 E4.58370
G1 X94.671 Y91.562 E4.63091
G1 X93.936 Y92.135 E4.67804
G1 X93.159 Y92.649 E4.72520
G1 X92.344 Y93.102 E4.77239
G1 X91.495 Y93.488 E4.81956
G1 X90.717 Y93.775 E4.86151
G1 X89.822 Y94.032 E4.90866
G1 X88.908 Y94.218 E4.95586
G1 X87.983 Y94.331 E5.00298
G1 X87.026 Y94.372 E5.05147
G1 X62.974 Y94.372 E6.26846
G1 X62.017 Y94.331 E6.31695
G1 X61.092 Y94.218 E6.36407
G1 X60.279 Y94.056 E6.40603
G1 X59.381 Y93.807 E6.45320
G1 X58.409 Y93.449 E6.50559
G1 X57.564 Y93.055 E6.55277
G1 X56.841 Y92.649 E6.59473
G1 X56.064 Y92.135 E6.64189
G1 X55.251 Y91.494 E6.69425
G1 X54.568 Y90.858 E6.74150
G1 X54.005 Y90.249 E6.78344
G1 X53.426 Y89.520 E6.83057
G1 X52.905 Y88.747 E6.87769
G1 X52.446 Y87.937 E6.92482
G1 X52.012 Y86.995 E6.97730
G1 X51.693 Y86.120 E7.02445
G1 X51.443 Y85.220 E7.07169
G1 X51.267 Y84.308 E7.11871
G1 X51.160 Y83.379 E7.16599
G1 X51.128 Y82.449 E7.21308
G1 X51.160 Y81.621 E7.25503
G1 X51.267 Y80.692 E7.30231
G1 X51.443 Y79.780 E7.34933
G1 X51.725 Y78.782 E7.40178
G1 X52.051 Y77.909 E7.44899
G1 X52.446 Y77.063 E7.49621
G1 X52.905 Y76.253 E7.54333
G1 X53.426 Y75.480 E7.59046
G1 X54.005 Y74.751 E7.63758
G1 X54.641 Y74.069 E7.68480
G1 X55.329 Y73.438 E7.73201
G1 X56.064 Y72.865 E7.77914
G1 X56.841 Y72.351 E7.82630
G1 X57.656 Y71.898 E7.87349
G1 X58.505 Y71.512 E7.92065
G1 X59.381 Y71.193 E7.96783
G1 X60.279 Y70.944 E8.01500
G1 X61.194 Y70.766 E8.06217
G1 X62.120 Y70.661 E8.10931
G1 X62.922 Y70.629 E8.14995
G1 X63.690 Y70.628 E8.18877
G1 X63.966 Y70.149 E8.21673
G1 X63.517 Y69.373 E8.26212
G1 X63.392 Y69.079 E8.27827
G1 X63.198 Y68.406 E8.31373
G1 X63.053 Y67.717 E8.34935
G1 X62.963 Y67.019 E8.38493
G1 X62.931 Y66.312 E8.42077
G1 X62.955 Y65.609 E8.45633
G1 X63.036 Y64.906 E8.49218
G1 X63.198 Y64.114 E8.53305
G1 X63.392 Y63.441 E8.56850
G1 X63.517 Y63.147 E8.58465
G1 X64.907 Y60.740 E8.72529
G1 X65.056 Y60.542 E8.73782
G1 X65.464 Y60.796 F6600.000
G1 X65.923 Y60.319 E8.77131 F540.000
G1 X66.418 Y59.875 E8.80495
G1 X67.021 Y59.423 E8.84309
G1 X67.586 Y59.069 E8.87684
G1 X68.100 Y58.799 E8.90620
G1 X68.793 Y58.504 E8.94430
G1 X69.427 Y58.296 E8.97804
G1 X70.069 Y58.138 E9.01151
G1 X70.328 Y58.107 E9.02470
G1 X73.048 Y58.107 E9.16237
G1 X73.307 Y58.138 E9.17556
G1 X73.950 Y58.296 E9.20903
G1 X74.664 Y58.535 E9.24717
G1 X75.276 Y58.799 E9.28087
G1 X75.790 Y59.069 E9.31023
G1 X76.355 Y59.423 E9.34398
G1 X76.958 Y59.875 E9.38212
G1 X77.453 Y60.319 E9.41577
G1 X77.912 Y60.796 E9.44926
G1 X78.069 Y61.005 E9.46247
G1 X78.649 Y62.010 E9.52122
G1 X79.202 Y62.010 E9.54918
G1 X82.230 Y56.765 E9.85565
G1 X83.230 Y56.188 E9.91405
G1 X92.290 Y56.188 E10.37249
G1 X93.290 Y56.765 E10.43088
G1 X97.820 Y64.611 E10.88932
G1 X97.820 Y65.765 E10.94771
G1 X93.666 Y72.959 E11.36803
G1 X93.734 Y73.309 E11.38608
G1 X94.431 Y73.863 E11.43116
G1 X95.027 Y74.414 E11.47218
G1 X95.691 Y75.133 E11.52174
G1 X96.242 Y75.838 E11.56698
G1 X96.736 Y76.582 E11.61219
G1 X97.132 Y77.289 E11.65318
G1 X97.510 Y78.100 E11.69849
G1 X97.849 Y79.019 E11.74805
G1 X98.069 Y79.799 E11.78906
G1 X98.246 Y80.676 E11.83433
G1 X98.362 Y81.649 E11.88387
G1 X98.393 Y82.458 E11.92487
G1 X98.362 Y83.351 E11.97008
G1 X98.259 Y84.242 E12.01544
G1 X98.069 Y85.201 E12.06490
G1 X97.849 Y85.981 E12.10590
G1 X97.543 Y86.821 E12.15116
G1 X97.132 Y87.711 E12.20077
G1 X96.736 Y88.418 E12.24177
G1 X96.242 Y89.162 E12.28697
G1 X95.637 Y89.931 E12.33647
G1 X95.027 Y90.586 E12.38177
G1 X94.367 Y91.191 E12.42707
G1 X93.663 Y91.742 E12.47231
G1 X92.917 Y92.237 E12.51757
G1 X92.135 Y92.671 E12.56285
G1 X91.321 Y93.042 E12.60812
G1 X90.561 Y93.323 E12.64912
G1 X89.701 Y93.569 E12.69437
G1 X88.823 Y93.747 E12.73967
G1 X87.936 Y93.855 E12.78489
G1 X87.021 Y93.893 E12.83124
G1 X62.979 Y93.893 E14.04775
G1 X62.064 Y93.855 E14.09410
G1 X61.177 Y93.747 E14.13932
G1 X60.382 Y93.589 E14.18033
G1 X59.520 Y93.349 E14.22560
G1 X58.601 Y93.010 E14.27514
G1 X57.790 Y92.632 E14.32042
G1 X57.083 Y92.237 E14.36142
G1 X56.337 Y91.742 E14.40668
G1 X55.569 Y91.137 E14.45620
G1 X54.913 Y90.526 E14.50153
G1 X54.363 Y89.931 E14.54252
G1 X53.807 Y89.231 E14.58775
G1 X53.308 Y88.489 E14.63299
G1 X52.868 Y87.711 E14.67822
G1 X52.457 Y86.821 E14.72783
G1 X52.151 Y85.981 E14.77309
G1 X51.911 Y85.118 E14.81841
G1 X51.741 Y84.242 E14.86355
G1 X51.638 Y83.351 E14.90891
G1 X51.607 Y82.458 E14.95412
G1 X51.638 Y81.649 E14.99512
G1 X51.741 Y80.758 E15.04048
G1 X51.911 Y79.882 E15.08562
G1 X52.177 Y78.939 E15.13521
G1 X52.490 Y78.100 E15.18050
G1 X52.868 Y77.289 E15.22581
G1 X53.264 Y76.582 E15.26681
G1 X53.758 Y75.838 E15.31201
G1 X54.309 Y75.133 E15.35725
G1 X54.913 Y74.474 E15.40250
G1 X55.569 Y73.863 E15.44783
G1 X56.269 Y73.307 E15.49310
G1 X57.010 Y72.808 E15.53832
G1 X57.790 Y72.368 E15.58361
G1 X58.601 Y71.990 E15.62889
G1 X59.520 Y71.651 E15.67843
G1 X60.382 Y71.411 E15.72370
G1 X61.260 Y71.240 E15.76897
G1 X62.148 Y71.138 E15.81421
G1 X62.979 Y71.107 E15.85628
G1 X64.519 Y71.107 E15.93419
G1 X64.795 Y70.628 E15.96215
G1 X63.946 Y69.158 E16.04801
G1 X63.844 Y68.918 E16.06123
G1 X63.660 Y68.282 E16.09473
G1 X63.510 Y67.547 E16.13270
G1 X63.432 Y66.882 E16.16656
G1 X63.410 Y66.218 E16.20020
G1 X63.440 Y65.549 E16.23406
G1 X63.510 Y64.973 E16.26342
G1 X63.639 Y64.322 E16.29701
G1 X63.844 Y63.602 E16.33490
G1 X63.946 Y63.362 E16.34811
G1 X65.307 Y61.005 E16.48581
G1 X65.421 Y60.853 E16.49540
G1 X65.829 Y61.107 F6600.000
G1 X66.261 Y60.657 E16.52695 F540.000
G1 X66.728 Y60.240 E16.55865
G1 X67.285 Y59.822 E16.59387
G1 X67.817 Y59.488 E16.62566
G1 X68.314 Y59.228 E16.65404
G1 X68.954 Y58.955 E16.68922
G1 X69.550 Y58.759 E16.72101
G1 X70.155 Y58.610 E16.75253
