; generated by Slic3r 1.0.0RC3 on 2014-04-12 at 19:06:56

; layer_height = 0.25
; perimeters = 2
; top_solid_layers = 2
; bottom_solid_layers = 2
; fill_density = .4
; perimeter_speed = 30
; infill_speed = 60
; travel_speed = 110
; nozzle_diameter = 0.4
; filament_diameter = 1.7
; extrusion_multiplier = .96
; perimeters extrusion width = 0.40mm
; infill extrusion width = 0.53mm
; solid infill extrusion width = 0.53mm
; top infill extrusion width = 0.53mm
; first layer extrusion width = 0.50mm

G21 ; set units to millimeters
M107
M190 S65 ; wait for bed temperature to be reached
M104 S220 ; set temperature
G28 ; home all axes
G1 Z5 F5000 ; lift nozzle
M109 S220 ; wait for temperature to be reached
G90 ; use absolute coordinates
G92 E0
M82 ; use absolute distances for extrusion
G1 F2100.000 E-0.90000
G92 E0
G1 Z0.250 F6600.000
G1 X38.093 Y60.700 F6600.000
G1 E0.90000 F2100.000
G1 X67.413 Y41.970 E2.66043 F540.000
G1 X68.353 Y41.420 E2.71554
G1 X68.963 Y41.110 E2.75016
G1 X70.133 Y40.600 E2.81474
G1 X70.813 Y40.350 E2.85140
G1 X71.343 Y40.180 E2.87956
G1 X72.643 Y39.830 E2.94769
G1 X73.353 Y39.690 E2.98430
G1 X73.873 Y39.610 E3.01092
G1 X74.593 Y39.520 E3.04764
G1 X75.303 Y39.470 E3.08365
G1 X76.233 Y39.440 E3.13073
G1 X100.233 Y39.440 E4.34511
G1 X101.163 Y39.470 E4.39219
G1 X101.883 Y39.520 E4.42871
G1 X102.603 Y39.610 E4.46542
G1 X103.123 Y39.690 E4.49205
G1 X103.833 Y39.830 E4.52866
G1 X104.433 Y39.980 E4.55996
G1 X105.663 Y40.350 E4.62495
G1 X106.343 Y40.600 E4.66161
G1 X107.513 Y41.110 E4.72619
G1 X108.123 Y41.420 E4.76081
G1 X109.143 Y42.020 E4.82069
G1 X109.753 Y42.420 E4.85760
G1 X110.283 Y42.800 E4.89060
G1 X110.853 Y43.250 E4.92734
G1 X111.823 Y44.120 E4.99327
G1 X112.233 Y44.530 E5.02261
G1 X113.103 Y45.500 E5.08854
G1 X113.553 Y46.070 E5.12529
G1 X113.933 Y46.600 E5.15829
G1 X114.333 Y47.210 E5.19519
G1 X114.933 Y48.230 E5.25507
G1 X115.243 Y48.840 E5.28970
G1 X115.753 Y50.010 E5.35428
G1 X116.003 Y50.690 E5.39093
G1 X116.373 Y51.920 E5.45593
G1 X116.523 Y52.520 E5.48722
G1 X116.663 Y53.230 E5.52384
G1 X116.853 Y54.640 E5.59583
G1 X119.393 Y79.820 E6.87637
G1 X119.433 Y80.570 E6.91438
G1 X119.433 Y81.220 E6.94727
G1 X119.173 Y83.150 E7.04580
G1 X118.433 Y84.940 E7.14381
G1 X110.713 Y98.300 E7.92456
G1 X109.553 Y99.820 E8.02131
G1 X108.053 Y100.990 E8.11756
G1 X107.493 Y101.320 E8.15045
G1 X106.703 Y101.720 E8.19526
G1 X105.863 Y102.030 E8.24056
G1 X80.393 Y109.740 E9.58707
G1 X79.553 Y109.980 E9.63127
G1 X78.883 Y110.140 E9.66613
G1 X77.543 Y110.380 E9.73501
G1 X76.753 Y110.470 E9.77524
G1 X75.503 Y110.550 E9.83862
G1 X74.753 Y110.550 E9.87657
G1 X73.953 Y110.510 E9.91710
G1 X72.693 Y110.380 E9.98119
G1 X71.353 Y110.140 E10.05007
G1 X70.683 Y109.980 E10.08493
G1 X69.393 Y109.590 E10.15312
G1 X68.643 Y109.310 E10.19363
G1 X67.423 Y108.770 E10.26113
G1 X66.863 Y108.480 E10.29304
G1 X65.713 Y107.810 E10.36039
G1 X64.603 Y107.050 E10.42846
G1 X63.973 Y106.560 E10.46884
G1 X36.903 Y84.180 E12.24605
G1 X36.523 Y83.860 E12.27118
G1 X35.773 Y83.150 E12.32344
G1 X35.153 Y82.490 E12.36926
G1 X34.663 Y81.880 E12.40885
G1 X34.233 Y81.230 E12.44828
G1 X32.923 Y78.960 E12.58090
G1 X32.573 Y78.260 E12.62050
G1 X32.293 Y77.540 E12.65959
G1 X32.023 Y76.640 E12.70713
G1 X31.803 Y75.700 E12.75598
G1 X31.713 Y75.210 E12.78119
G1 X31.623 Y74.610 E12.81189
G1 X31.543 Y73.670 E12.85962
G1 X31.523 Y73.170 E12.88494
G1 X31.543 Y72.080 E12.94010
G1 X31.623 Y71.140 E12.98784
G1 X31.713 Y70.540 E13.01854
G1 X31.903 Y69.590 E13.06756
G1 X32.163 Y68.610 E13.11886
G1 X32.293 Y68.210 E13.14014
G1 X32.573 Y67.490 E13.17923
G1 X32.923 Y66.790 E13.21883
G1 X34.233 Y64.520 E13.35144
G1 X34.663 Y63.870 E13.39088
G1 X35.153 Y63.260 E13.43047
G1 X35.773 Y62.600 E13.47629
G1 X36.523 Y61.890 E13.52855
G1 X36.903 Y61.570 E13.55368
G1 X38.034 Y60.741 E13.62464
G1 X38.343 Y61.110 F6600.000
G1 X67.663 Y42.380 E15.38507 F540.000
G1 X68.593 Y41.840 E15.43949
G1 X69.163 Y41.550 E15.47185
G1 X70.303 Y41.050 E15.53483
G1 X71.473 Y40.640 E15.59756
G1 X72.733 Y40.300 E15.66360
G1 X73.443 Y40.160 E15.70022
G1 X74.653 Y40.000 E15.76197
G1 X75.323 Y39.950 E15.79597
G1 X76.233 Y39.920 E15.84204
G1 X100.233 Y39.920 E17.05642
G1 X101.153 Y39.950 E17.10299
G1 X101.823 Y40.000 E17.13699
G1 X102.543 Y40.090 E17.17370
G1 X103.033 Y40.160 E17.19875
G1 X103.743 Y40.300 E17.23536
G1 X104.303 Y40.440 E17.26457
G1 X105.003 Y40.640 E17.30141
G1 X106.173 Y41.050 E17.36414
G1 X107.313 Y41.550 E17.42713
G1 X107.883 Y41.840 E17.45948
G1 X108.873 Y42.420 E17.51754
G1 X109.483 Y42.820 E17.55445
G1 X109.983 Y43.180 E17.58563
G1 X110.963 Y43.980 E17.64964
G1 X111.493 Y44.470 E17.68616
G1 X111.883 Y44.860 E17.71407
G1 X112.723 Y45.800 E17.77785
G1 X113.173 Y46.370 E17.81460
G1 X113.533 Y46.870 E17.84577
G1 X113.933 Y47.480 E17.88268
G1 X114.513 Y48.470 E17.94074
G1 X114.803 Y49.040 E17.97310
G1 X115.303 Y50.180 E18.03609
G1 X115.553 Y50.860 E18.07275
G1 X115.713 Y51.350 E18.09883
G1 X116.053 Y52.610 E18.16486
G1 X116.193 Y53.320 E18.20148
G1 X116.373 Y54.690 E18.27140
G1 X118.913 Y79.870 E19.55194
G1 X118.953 Y80.570 E19.58742
G1 X118.953 Y81.220 E19.62031
G1 X118.713 Y83.020 E19.71219
G1 X118.013 Y84.700 E19.80429
G1 X110.293 Y98.060 E20.58503
G1 X109.213 Y99.480 E20.67530
G1 X107.803 Y100.570 E20.76548
G1 X107.243 Y100.900 E20.79837
G1 X106.503 Y101.280 E20.84046
G1 X105.733 Y101.570 E20.88209
G1 X80.263 Y109.280 E22.22860
G1 X79.413 Y109.520 E22.27329
G1 X78.793 Y109.670 E22.30557
G1 X77.493 Y109.900 E22.37237
G1 X76.703 Y109.990 E22.41260
G1 X75.473 Y110.070 E22.47497
G1 X74.773 Y110.070 E22.51039
G1 X73.973 Y110.030 E22.55092
G1 X72.743 Y109.900 E22.61350
G1 X71.443 Y109.670 E22.68030
G1 X70.823 Y109.520 E22.71258
G1 X69.563 Y109.140 E22.77917
G1 X68.813 Y108.860 E22.81968
G1 X67.623 Y108.330 E22.88559
G1 X67.103 Y108.070 E22.91501
G1 X65.973 Y107.410 E22.98122
G1 X65.313 Y106.970 E23.02136
G1 X64.273 Y106.180 E23.08744
G1 X37.213 Y83.810 E24.86393
G1 X36.463 Y83.160 E24.91415
G1 X36.103 Y82.810 E24.93956
G1 X35.513 Y82.170 E24.98360
G1 X35.043 Y81.600 E25.02098
G1 X34.643 Y80.990 E25.05789
G1 X33.333 Y78.720 E25.19051
G1 X33.003 Y78.070 E25.22739
G1 X32.743 Y77.390 E25.26423
G1 X32.483 Y76.530 E25.30969
G1 X32.363 Y76.050 E25.33472
G1 X32.183 Y75.130 E25.38216
G1 X32.103 Y74.560 E25.41128
G1 X32.023 Y73.650 E25.45750
G1 X32.003 Y73.150 E25.48282
G1 X32.023 Y72.100 E25.53596
G1 X32.103 Y71.190 E25.58219
G1 X32.183 Y70.620 E25.61131
G1 X32.363 Y69.700 E25.65874
G1 X32.483 Y69.220 E25.68378
G1 X32.743 Y68.360 E25.72924
G1 X33.003 Y67.680 E25.76608
G1 X33.333 Y67.030 E25.80296
G1 X34.643 Y64.760 E25.93557
G1 X35.043 Y64.150 E25.97248
G1 X35.513 Y63.580 E26.00987
G1 X36.103 Y62.940 E26.05391
G1 X36.463 Y62.590 E26.07932
G1 X37.213 Y61.940 E26.12953
G1 X38.284 Y61.151 E26.19685
G1 X38.603 Y61.510 F6600.000
G1 X67.923 Y42.780 E27.95728 F540.000
G1 X68.833 Y42.260 E28.01031
G1 X69.363 Y41.980 E28.04064
G1 X70.463 Y41.500 E28.10137
G1 X71.603 Y41.100 E28.16250
G1 X72.833 Y40.770 E28.22694
G1 X73.543 Y40.630 E28.26355
G1 X74.713 Y40.470 E28.32331
G1 X75.333 Y40.420 E28.35478
G1 X76.053 Y40.400 E28.39122
G1 X100.413 Y40.400 E29.62381
G1 X101.143 Y40.420 E29.66077
G1 X101.763 Y40.470 E29.69224
G1 X102.483 Y40.560 E29.72895
G1 X103.643 Y40.770 E29.78860
G1 X104.173 Y40.900 E29.81622
G1 X104.873 Y41.100 E29.85305
G1 X106.013 Y41.500 E29.91418
G1 X107.113 Y41.980 E29.97491
G1 X107.643 Y42.260 E30.00524
G1 X108.613 Y42.820 E30.06191
G1 X109.223 Y43.220 E30.09882
G1 X110.253 Y44.010 E30.16450
G1 X110.643 Y44.330 E30.19003
G1 X111.173 Y44.820 E30.22655
G1 X112.023 Y45.710 E30.28882
G1 X112.343 Y46.100 E30.31435
G1 X113.133 Y47.130 E30.38003
G1 X113.533 Y47.740 E30.41694
G1 X114.093 Y48.710 E30.47361
G1 X114.373 Y49.240 E30.50394
G1 X114.673 Y49.900 E30.54063
G1 X115.103 Y51.020 E30.60133
G1 X115.453 Y52.180 E30.66264
G1 X115.583 Y52.710 E30.69025
G1 X115.723 Y53.420 E30.72687
G1 X115.903 Y54.740 E30.79428
G1 X118.443 Y79.920 E32.07482
G1 X118.473 Y80.570 E32.10775
G1 X118.473 Y81.220 E32.14064
G1 X118.253 Y82.900 E32.22637
G1 X117.603 Y84.460 E32.31188
G1 X109.883 Y97.820 E33.09263
G1 X108.873 Y99.140 E33.17673
G1 X107.563 Y100.160 E33.26074
G1 X107.003 Y100.490 E33.29363
G1 X106.313 Y100.840 E33.33277
G1 X105.593 Y101.110 E33.37168
G1 X80.123 Y108.820 E34.71819
G1 X79.283 Y109.060 E34.76239
G1 X78.703 Y109.200 E34.79259
G1 X77.433 Y109.430 E34.85789
G1 X76.643 Y109.520 E34.89812
G1 X75.453 Y109.590 E34.95844
G1 X74.803 Y109.590 E34.99133
G1 X73.593 Y109.520 E35.05266
G1 X72.803 Y109.430 E35.09289
G1 X71.533 Y109.200 E35.15819
G1 X70.953 Y109.060 E35.18838
G1 X69.723 Y108.690 E35.25338
G1 X68.973 Y108.410 E35.29388
G1 X67.823 Y107.900 E35.35754
G1 X67.333 Y107.650 E35.38537
G1 X66.643 Y107.260 E35.42548
G1 X66.243 Y107.010 E35.44934
G1 X65.193 Y106.290 E35.51376
G1 X64.563 Y105.800 E35.55415
G1 X37.523 Y83.450 E37.32921
G1 X36.793 Y82.820 E37.37801
G1 X36.433 Y82.470 E37.40341
G1 X35.863 Y81.850 E37.44603
G1 X35.433 Y81.320 E37.48056
G1 X35.063 Y80.750 E37.51494
G1 X33.753 Y78.480 E37.64756
G1 X33.443 Y77.870 E37.68218
G1 X33.203 Y77.240 E37.71629
G1 X32.943 Y76.410 E37.76030
G1 X32.823 Y75.930 E37.78534
G1 X32.653 Y75.040 E37.83118
G1 X32.573 Y74.510 E37.85831
G1 X32.503 Y73.630 E37.90297
G1 X32.483 Y73.130 E37.92829
G1 X32.503 Y72.120 E37.97941
G1 X32.573 Y71.240 E38.02408
G1 X32.653 Y70.710 E38.05120
G1 X32.823 Y69.820 E38.09704
G1 X32.943 Y69.340 E38.12208
G1 X33.203 Y68.510 E38.16609
G1 X33.443 Y67.880 E38.20020
G1 X33.753 Y67.270 E38.23482
G1 X35.063 Y65.000 E38.36744
G1 X35.433 Y64.430 E38.40182
G1 X35.863 Y63.900 E38.43635
G1 X36.433 Y63.280 E38.47897
G1 X36.793 Y62.930 E38.50437
G1 X37.523 Y62.300 E38.55317
G1 X37.893 Y62.010 E38.57695
G1 X38.544 Y61.550 E38.61726
G1 F2100.000 E37.71726
G92 E0
G1 X40.668 Y64.765 F6600.000
G1 E0.90000 F2100.000
G1 X41.247 Y64.407 E0.93446 F540.000
G1 X41.767 Y64.131 E0.96427
G1 X42.474 Y63.816 E1.00338
G1 X43.027 Y63.615 E1.03319
G1 X43.681 Y63.424 E1.06765
G1 X44.358 Y63.277 E1.10269
G1 X44.632 Y63.248 E1.11665
G1 X47.540 Y63.248 E1.26379
G1 X47.814 Y63.277 E1.27774
G1 X48.402 Y63.402 E1.30814
G1 X49.057 Y63.586 E1.34260
G1 X49.994 Y63.936 E1.39320
G1 X50.399 Y63.702 E1.41682
G1 X50.552 Y62.806 E1.46282
G1 X50.720 Y62.147 E1.49726
G1 X50.905 Y61.575 E1.52765
G1 X51.017 Y61.323 E1.54162
G1 X52.471 Y58.805 E1.68876
G1 X52.633 Y58.582 E1.70271
G1 X53.035 Y58.135 E1.73310
G1 X53.523 Y57.660 E1.76757
G1 X54.043 Y57.220 E1.80203
G1 X54.592 Y56.817 E1.83649
G1 X55.168 Y56.453 E1.87094
G1 X55.767 Y56.131 E1.90541
G1 X56.474 Y55.816 E1.94452
G1 X57.027 Y55.615 E1.97433
G1 X57.681 Y55.424 E2.00878
G1 X58.358 Y55.277 E2.04383
G1 X58.632 Y55.248 E2.05778
G1 X61.540 Y55.248 E2.20492
G1 X61.814 Y55.277 E2.21888
G1 X62.491 Y55.424 E2.25392
G1 X63.145 Y55.615 E2.28838
G1 X63.970 Y55.926 E2.33301
G1 X64.387 Y55.656 E2.35815
G1 X64.412 Y55.137 E2.38446
G1 X64.509 Y54.314 E2.42640
G1 X64.687 Y53.399 E2.47356
G1 X64.936 Y52.501 E2.52073
G1 X65.255 Y51.624 E2.56791
G1 X65.688 Y50.684 E2.62029
G1 X66.148 Y49.873 E2.66746
G1 X66.669 Y49.100 E2.71462
G1 X67.249 Y48.371 E2.76179
G1 X67.885 Y47.689 E2.80896
G1 X68.572 Y47.059 E2.85614
G1 X69.307 Y46.485 E2.90330
G1 X70.084 Y45.970 E2.95047
G1 X70.899 Y45.518 E2.99764
G1 X71.747 Y45.132 E3.04479
G1 X72.624 Y44.813 E3.09197
G1 X73.522 Y44.564 E3.13915
G1 X74.437 Y44.386 E3.18631
G1 X75.363 Y44.281 E3.23347
G1 X76.217 Y44.248 E3.27672
G1 X100.269 Y44.248 E4.49371
G1 X101.226 Y44.289 E4.54219
G1 X102.151 Y44.402 E4.58936
G1 X102.964 Y44.564 E4.63129
G1 X103.961 Y44.845 E4.68370
G1 X104.834 Y45.172 E4.73085
G1 X105.679 Y45.565 E4.77803
G1 X106.490 Y46.025 E4.82520
G1 X107.263 Y46.546 E4.87235
G1 X107.914 Y47.059 E4.91429
G1 X108.601 Y47.689 E4.96147
G1 X109.304 Y48.449 E5.01388
G1 X109.878 Y49.184 E5.06103
G1 X110.392 Y49.961 E5.10820
G1 X110.798 Y50.684 E5.15014
G1 X111.191 Y51.529 E5.19731
G1 X111.550 Y52.501 E5.24971
G1 X111.799 Y53.399 E5.29688
G1 X111.977 Y54.314 E5.34403
G1 X112.074 Y55.137 E5.38597
G1 X112.115 Y56.068 E5.43315
G1 X112.074 Y57.103 E5.48555
G1 X111.977 Y57.926 E5.52749
G1 X111.799 Y58.841 E5.57464
G1 X111.550 Y59.739 E5.62182
G1 X111.191 Y60.711 E5.67421
G1 X110.798 Y61.556 E5.72138
G1 X110.392 Y62.279 E5.76332
G1 X109.878 Y63.056 E5.81049
G1 X109.304 Y63.791 E5.85764
G1 X108.674 Y64.478 E5.90482
G1 X107.914 Y65.181 E5.95723
G1 X107.263 Y65.694 E5.99917
G1 X106.857 Y65.971 E6.02403
G1 X106.749 Y66.262 E6.03975
G1 X107.020 Y67.233 E6.09073
G1 X107.173 Y67.917 E6.12622
G1 X107.295 Y68.653 E6.16397
G1 X107.377 Y69.433 E6.20364
G1 X107.407 Y70.102 E6.23752
G1 X107.401 Y70.745 E6.27008
G1 X107.353 Y71.405 E6.30354
G1 X107.217 Y72.317 E6.35022
G1 X107.089 Y72.881 E6.37947
G1 X106.828 Y73.690 E6.42251
G1 X106.425 Y74.593 E6.47251
G1 X106.671 Y75.020 E6.49749
G1 X107.509 Y75.100 E6.54005
G1 X108.377 Y75.273 E6.58484
G1 X109.036 Y75.471 E6.61968
G1 X109.997 Y75.854 E6.67202
G1 X110.560 Y76.134 E6.70385
G1 X111.112 Y76.451 E6.73603
G1 X111.616 Y76.775 E6.76635
G1 X112.251 Y77.237 E6.80608
G1 X112.825 Y77.708 E6.84366
G1 X113.394 Y78.234 E6.88287
G1 X114.241 Y79.103 E6.94426
G1 X114.629 Y80.056 E6.99635
G1 X114.629 Y81.736 E7.08134
G1 X114.241 Y82.689 E7.13343
G1 X113.394 Y83.558 E7.19482
G1 X112.825 Y84.084 E7.23403
G1 X112.251 Y84.555 E7.27161
G1 X111.680 Y84.974 E7.30745
G1 X111.112 Y85.341 E7.34166
G1 X110.444 Y85.718 E7.38044
G1 X109.541 Y86.134 E7.43079
G1 X108.964 Y86.347 E7.46190
G1 X107.990 Y86.609 E7.51290
G1 X107.490 Y86.694 E7.53859
G1 X106.671 Y86.772 E7.58020
G1 X106.425 Y87.199 E7.60517
G1 X106.809 Y88.052 E7.65252
G1 X106.976 Y88.531 E7.67816
G1 X107.179 Y89.292 E7.71799
G1 X107.307 Y90.004 E7.75462
G1 X107.398 Y90.994 E7.80495
G1 X107.407 Y91.690 E7.84016
G1 X107.371 Y92.435 E7.87790
G1 X107.295 Y93.139 E7.91371
G1 X107.173 Y93.875 E7.95146
G1 X107.002 Y94.628 E7.99053
G1 X106.674 Y95.795 E8.05187
G1 X106.042 Y96.609 E8.10401
G1 X104.587 Y97.449 E8.18902
G1 X103.567 Y97.590 E8.24111
G1 X102.392 Y97.291 E8.30246
G1 X101.652 Y97.061 E8.34167
G1 X100.956 Y96.799 E8.37929
G1 X100.239 Y96.481 E8.41902
G1 X99.645 Y96.172 E8.45286
G1 X99.089 Y95.844 E8.48552
G1 X98.544 Y95.474 E8.51887
G1 X97.820 Y94.900 E8.56562
G1 X97.319 Y94.426 E8.60050
G1 X96.827 Y93.877 E8.63781
G1 X96.247 Y93.076 E8.68785
G1 X95.753 Y93.076 E8.71281
G1 X95.275 Y93.748 E8.75453
G1 X94.948 Y94.140 E8.78036
G1 X94.239 Y94.848 E8.83105
G1 X93.766 Y95.242 E8.86222
G1 X92.953 Y95.817 E8.91258
G1 X92.294 Y96.206 E8.95131
G1 X91.691 Y96.514 E8.98557
G1 X91.044 Y96.799 E9.02136
G1 X90.348 Y97.061 E9.05899
G1 X89.608 Y97.291 E9.09819
G1 X88.433 Y97.590 E9.15954
G1 X87.297 Y97.433 E9.21757
G1 X87.008 Y97.606 E9.23463
G1 X86.885 Y97.928 E9.25206
G1 X86.509 Y98.743 E9.29749
G1 X86.023 Y99.619 E9.34816
G1 X85.409 Y100.537 E9.40405
G1 X84.786 Y101.321 E9.45471
G1 X84.103 Y102.054 E9.50538
G1 X83.366 Y102.730 E9.55603
G1 X82.660 Y103.286 E9.60148
G1 X81.830 Y103.846 E9.65215
G1 X80.958 Y104.339 E9.70280
G1 X80.051 Y104.762 E9.75347
G1 X79.113 Y105.112 E9.80414
G1 X78.050 Y105.412 E9.86003
G1 X77.067 Y105.603 E9.91069
G1 X76.072 Y105.717 E9.96135
G1 X75.071 Y105.752 E10.01202
G1 X74.071 Y105.709 E10.06268
G1 X73.179 Y105.603 E10.10812
G1 X72.196 Y105.412 E10.15878
G1 X71.232 Y105.144 E10.20945
G1 X70.195 Y104.762 E10.26534
G1 X69.288 Y104.339 E10.31600
G1 X68.504 Y103.900 E10.36144
G1 X67.586 Y103.286 E10.41733
G1 X66.880 Y102.730 E10.46277
G1 X66.143 Y102.054 E10.51343
G1 X65.460 Y101.321 E10.56409
G1 X64.837 Y100.537 E10.61476
G1 X64.223 Y99.619 E10.67065
G1 X63.737 Y98.743 E10.72131
G1 X63.322 Y97.832 E10.77198
G1 X62.979 Y96.891 E10.82264
G1 X62.735 Y96.027 E10.86808
G1 X62.536 Y95.046 E10.91874
G1 X62.406 Y93.949 E10.97463
G1 X62.371 Y93.052 E11.02007
G1 X62.406 Y92.051 E11.07073
G1 X62.536 Y90.954 E11.12662
G1 X62.793 Y89.731 E11.18985
G1 X62.425 Y89.353 E11.21655
G1 X61.814 Y89.483 E11.24815
G1 X61.540 Y89.512 E11.26211
G1 X58.632 Y89.512 E11.40925
G1 X58.358 Y89.483 E11.42321
G1 X57.681 Y89.336 E11.45825
G1 X57.114 Y89.174 E11.48807
G1 X56.474 Y88.944 E11.52252
G1 X55.767 Y88.629 E11.56163
G1 X55.168 Y88.307 E11.59609
