; generated by Slic3r 1.0.0RC3 on 2014-05-05 at 18:06:50

; layer_height = 0.2480
; perimeters = 2
; top_solid_layers = 2
; bottom_solid_layers = 2
; fill_density = .4
; perimeter_speed = 30
; infill_speed = 35
; travel_speed = 130
; nozzle_diameter = 0.4
; filament_diameter = 1.7
; extrusion_multiplier = .90
; perimeters extrusion width = 0.40mm
; infill extrusion width = 0.54mm
; solid infill extrusion width = 0.54mm
; top infill extrusion width = 0.54mm
; first layer extrusion width = 0.50mm

G21 ; set units to millimeters
M107
M190 S65 ; wait for bed temperature to be reached
M104 S200 ; set temperature
G28 ; home all axes
G1 Z5 F5000 ; lift nozzle
M92 Z4000 ;set 4000 steps_per_mm for prusa i3!
M203 Z1.0 ;set max z speed to 1 mm/s
M203 X300 Y300 ;set X and Y max speeds
M208 X150 Y300 Z110 ;set max travel!
M211 X150 Y300 Z110 ;set max travel!
M109 S200 ; wait for temperature to be reached
G90 ; use absolute coordinates
G92 E0
M82 ; use absolute distances for extrusion
G1 F2100.000 E-0.90000
G92 E0
G1 Z0.748 F7800.000
G1 X59.187 Y118.740 F7800.000
G1 E0.90000 F2100.000
G1 X59.697 Y118.490 E0.92655 F540.000
G1 X60.147 Y118.300 E0.94939
G1 X61.047 Y117.980 E0.99404
G1 X61.687 Y117.800 E1.02512
G1 X62.167 Y117.690 E1.04814
G1 X63.277 Y117.530 E1.10057
G1 X82.347 Y116.530 E1.99328
G1 X85.307 Y116.520 E2.13165
G1 X85.927 Y116.550 E2.16067
G1 X86.547 Y116.640 E2.18996
G1 X87.527 Y116.860 E2.23691
G1 X88.397 Y117.130 E2.27950
G1 X89.297 Y117.470 E2.32447
G1 X89.747 Y117.670 E2.34749
G1 X90.967 Y118.320 E2.41212
G1 X91.777 Y118.850 E2.45737
G1 X92.177 Y119.140 E2.48046
G1 X92.927 Y119.750 E2.52566
G1 X93.927 Y120.710 E2.59046
G1 X94.207 Y121.020 E2.60999
G1 X94.627 Y121.540 E2.64124
G1 X94.997 Y122.100 E2.67261
G1 X96.317 Y124.370 E2.79537
G1 X96.627 Y124.990 E2.82777
G1 X96.877 Y125.630 E2.85989
G1 X97.007 Y126.030 E2.87956
G1 X97.247 Y126.940 E2.92355
G1 X97.357 Y127.470 E2.94886
G1 X97.487 Y128.360 E2.99090
G1 X97.567 Y129.240 E3.03221
G1 X97.587 Y129.740 E3.05560
G1 X97.587 Y130.260 E3.07991
G1 X97.537 Y131.130 E3.12065
G1 X97.437 Y132.030 E3.16298
G1 X97.357 Y132.520 E3.18619
G1 X97.247 Y133.050 E3.21150
G1 X97.007 Y133.960 E3.25549
G1 X96.877 Y134.360 E3.27516
G1 X96.627 Y135.000 E3.30728
G1 X96.317 Y135.620 E3.33968
G1 X94.997 Y137.890 E3.46244
G1 X94.627 Y138.450 E3.49381
G1 X94.207 Y138.970 E3.52506
G1 X93.927 Y139.280 E3.54459
G1 X93.267 Y139.930 E3.58789
G1 X92.547 Y140.560 E3.63262
G1 X92.177 Y140.850 E3.65459
G1 X91.387 Y141.410 E3.69986
G1 X90.967 Y141.670 E3.72295
G1 X89.747 Y142.320 E3.78758
G1 X88.867 Y142.690 E3.83220
G1 X88.007 Y142.990 E3.87478
G1 X87.527 Y143.130 E3.89816
G1 X86.697 Y143.320 E3.93796
G1 X86.007 Y143.440 E3.97070
G1 X85.307 Y143.480 E4.00348
G1 X82.347 Y143.470 E4.14185
G1 X63.277 Y142.470 E5.03457
G1 X62.657 Y142.400 E5.06373
G1 X62.047 Y142.280 E5.09280
G1 X61.567 Y142.160 E5.11593
G1 X60.577 Y141.850 E5.16442
G1 X59.697 Y141.500 E5.20870
G1 X58.777 Y141.040 E5.25678
G1 X58.277 Y140.750 E5.28380
G1 X57.497 Y140.230 E5.32762
G1 X57.107 Y139.940 E5.35034
G1 X56.657 Y139.570 E5.37758
G1 X56.287 Y139.240 E5.40076
G1 X55.617 Y138.570 E5.44505
G1 X55.087 Y137.960 E5.48283
G1 X54.647 Y137.300 E5.51991
G1 X53.417 Y135.170 E5.63489
G1 X53.057 Y134.430 E5.67336
G1 X52.787 Y133.660 E5.71151
G1 X52.557 Y132.780 E5.75403
G1 X52.367 Y131.770 E5.80207
G1 X52.307 Y131.280 E5.82515
G1 X52.247 Y130.250 E5.87338
G1 X52.267 Y129.240 E5.92061
G1 X52.367 Y128.220 E5.96852
G1 X52.557 Y127.210 E6.01656
G1 X52.787 Y126.330 E6.05908
G1 X53.057 Y125.560 E6.09723
G1 X53.417 Y124.820 E6.13570
G1 X54.647 Y122.690 E6.25068
G1 X55.087 Y122.030 E6.28776
G1 X55.617 Y121.420 E6.32554
G1 X56.287 Y120.750 E6.36983
G1 X56.657 Y120.420 E6.39301
G1 X57.107 Y120.050 E6.42024
G1 X57.797 Y119.550 E6.46008
G1 X58.147 Y119.320 E6.47966
G1 X59.124 Y118.773 E6.53199
G1 F2100.000 E5.63199
G92 E0
G1 X90.152 Y128.236 F7800.000
G1 E0.90000 F2100.000
G1 X90.260 Y128.669 E0.92089 F360.000
G1 X90.338 Y129.109 E0.94177
G1 X90.385 Y129.554 E0.96265
G1 X90.400 Y130.000 E0.98354
G1 X90.385 Y130.446 E1.00442
G1 X90.338 Y130.891 E1.02530
G1 X90.260 Y131.331 E1.04619
G1 X90.152 Y131.764 E1.06707
G1 X90.053 Y132.069 E1.08203
G1 X88.818 Y134.208 E1.19752
G1 X88.604 Y134.446 E1.21250
G1 X88.283 Y134.756 E1.23337
G1 X87.940 Y135.043 E1.25426
G1 X87.591 Y135.297 E1.27444
G1 X87.200 Y135.543 E1.29602
G1 X86.806 Y135.752 E1.31691
G1 X86.398 Y135.934 E1.33779
G1 X85.978 Y136.087 E1.35867
G1 X85.563 Y136.206 E1.37886
G1 X85.235 Y136.277 E1.39452
G1 X82.765 Y136.277 E1.51001
G1 X82.452 Y136.210 E1.52497
G1 X82.022 Y136.087 E1.54586
G1 X81.602 Y135.934 E1.56674
G1 X81.194 Y135.752 E1.58762
G1 X80.800 Y135.543 E1.60851
G1 X80.421 Y135.306 E1.62939
G1 X80.060 Y135.043 E1.65027
G1 X79.718 Y134.756 E1.67115
G1 X79.396 Y134.446 E1.69204
G1 X79.182 Y134.208 E1.70701
G1 X77.947 Y132.068 E1.82250
G1 X77.848 Y131.764 E1.83745
G1 X77.740 Y131.331 E1.85834
G1 X77.662 Y130.891 E1.87922
G1 X77.615 Y130.446 E1.90011
G1 X77.600 Y130.000 E1.92099
G1 X77.615 Y129.554 E1.94188
G1 X77.662 Y129.109 E1.96276
G1 X77.740 Y128.669 E1.98365
G1 X77.848 Y128.236 E2.00453
G1 X77.947 Y127.931 E2.01950
G1 X79.182 Y125.792 E2.13498
G1 X79.396 Y125.554 E2.14995
G1 X79.717 Y125.244 E2.17083
G1 X80.060 Y124.957 E2.19172
G1 X80.421 Y124.694 E2.21259
G1 X80.800 Y124.457 E2.23348
G1 X81.194 Y124.248 E2.25436
G1 X81.602 Y124.066 E2.27525
G1 X82.022 Y123.913 E2.29613
G1 X82.452 Y123.790 E2.31701
G1 X82.765 Y123.723 E2.33198
G1 X85.235 Y123.723 E2.44747
G1 X85.548 Y123.790 E2.46243
G1 X85.978 Y123.913 E2.48332
G1 X86.398 Y124.066 E2.50420
G1 X86.806 Y124.248 E2.52508
G1 X87.200 Y124.457 E2.54597
G1 X87.546 Y124.673 E2.56501
G1 X87.940 Y124.957 E2.58773
G1 X88.282 Y125.244 E2.60861
G1 X88.604 Y125.554 E2.62950
G1 X88.818 Y125.792 E2.64446
G1 X90.053 Y127.931 E2.75995
G1 X90.130 Y128.168 E2.77158
G1 X90.600 Y128.075 F7800.000
G1 X90.726 Y128.570 E2.79548 F378.000
G1 X90.809 Y129.043 E2.81792
G1 X90.859 Y129.520 E2.84035
G1 X90.876 Y130.000 E2.86279
G1 X90.859 Y130.480 E2.88523
G1 X90.809 Y130.957 E2.90766
G1 X90.726 Y131.430 E2.93010
G1 X90.609 Y131.895 E2.95253
G1 X90.490 Y132.263 E2.97061
G1 X89.205 Y134.489 E3.09076
G1 X88.946 Y134.776 E3.10885
G1 X88.601 Y135.110 E3.13128
G1 X88.233 Y135.418 E3.15372
G1 X87.845 Y135.700 E3.17615
G1 X87.438 Y135.955 E3.19859
G1 X87.014 Y136.180 E3.22103
G1 X86.576 Y136.375 E3.24346
G1 X86.125 Y136.539 E3.26590
G1 X85.663 Y136.672 E3.28833
G1 X85.285 Y136.752 E3.30641
G1 X82.715 Y136.752 E3.42657
G1 X82.337 Y136.672 E3.44465
G1 X81.875 Y136.539 E3.46708
G1 X81.424 Y136.375 E3.48952
G1 X80.986 Y136.180 E3.51195
G1 X80.562 Y135.955 E3.53439
G1 X80.203 Y135.730 E3.55421
G1 X79.767 Y135.418 E3.57925
G1 X79.399 Y135.110 E3.60169
G1 X79.054 Y134.776 E3.62413
G1 X78.795 Y134.489 E3.64220
G1 X77.510 Y132.263 E3.76237
G1 X77.391 Y131.895 E3.78044
G1 X77.274 Y131.430 E3.80287
G1 X77.191 Y130.957 E3.82531
G1 X77.141 Y130.480 E3.84775
G1 X77.124 Y130.000 E3.87018
G1 X77.141 Y129.520 E3.89262
G1 X77.191 Y129.043 E3.91505
G1 X77.274 Y128.570 E3.93749
G1 X77.391 Y128.105 E3.95992
G1 X77.510 Y127.737 E3.97800
G1 X78.795 Y125.511 E4.09816
G1 X79.054 Y125.224 E4.11624
G1 X79.399 Y124.890 E4.13867
G1 X79.767 Y124.582 E4.16111
G1 X80.155 Y124.300 E4.18354
G1 X80.562 Y124.045 E4.20598
G1 X80.986 Y123.820 E4.22842
G1 X81.424 Y123.625 E4.25085
G1 X81.875 Y123.461 E4.27329
G1 X82.337 Y123.328 E4.29572
G1 X82.715 Y123.248 E4.31380
G1 X85.285 Y123.248 E4.43396
G1 X85.663 Y123.328 E4.45204
G1 X86.125 Y123.461 E4.47447
G1 X86.576 Y123.625 E4.49691
G1 X87.014 Y123.820 E4.51934
G1 X87.438 Y124.045 E4.54178
G1 X87.797 Y124.270 E4.56160
G1 X88.233 Y124.582 E4.58665
G1 X88.601 Y124.890 E4.60908
G1 X88.946 Y125.224 E4.63152
G1 X89.205 Y125.511 E4.64959
G1 X90.490 Y127.737 E4.76975
G1 X90.578 Y128.007 E4.78302
G1 X90.267 Y128.414 F7800.000
G1 X89.933 Y128.741 F7800.000
G1 X85.264 Y124.072 E5.09753 F630.000
G1 X84.565 Y124.058 E5.13081
G1 X90.047 Y129.539 E5.50001
G1 X90.057 Y130.235 E5.53314
G1 X83.880 Y124.058 E5.94918
G1 X83.195 Y124.058 E5.98181
G1 X90.003 Y130.865 E6.44032
G1 X89.889 Y131.437 E6.46807
G1 X82.561 Y124.109 E6.96165
G1 X82.033 Y124.265 E6.98790
G1 X89.729 Y131.961 E7.50628
G1 X89.478 Y132.396 E7.53016
G1 X81.542 Y124.459 E8.06473
G1 X81.083 Y124.686 E8.08909
G1 X89.227 Y132.830 E8.63766
G1 X88.977 Y133.264 E8.66154
G1 X80.655 Y124.942 E9.22206
G1 X80.256 Y125.229 E9.24544
G1 X88.726 Y133.698 E9.81594
G1 X88.452 Y134.110 E9.83947
G1 X79.890 Y125.548 E10.41620
G1 X79.548 Y125.890 E10.43927
G1 X88.110 Y134.452 E11.01599
G1 X87.744 Y134.771 E11.03911
G1 X79.274 Y126.302 E11.60961
G1 X79.023 Y126.736 E11.63349
G1 X87.345 Y135.058 E12.19402
G1 X86.917 Y135.314 E12.21780
G1 X78.773 Y127.170 E12.76637
G1 X78.522 Y127.604 E12.79025
G1 X86.458 Y135.540 E13.32480
G1 X85.967 Y135.735 E13.34993
G1 X78.271 Y128.039 E13.86832
G1 X78.111 Y128.563 E13.89445
G1 X85.439 Y135.891 E14.38803
G1 X84.805 Y135.942 E14.41833
G1 X77.997 Y129.135 E14.87685
G1 X77.943 Y129.765 E14.90698
G1 X84.120 Y135.942 E15.32303
G1 X83.435 Y135.942 E15.35566
G1 X77.953 Y130.461 E15.72486
G1 X78.067 Y131.259 E15.76327
G1 X82.736 Y135.928 E16.07778
G1 X81.757 Y135.634 E16.12647
G1 X78.527 Y132.404 E16.34405
G1 X79.509 Y134.071 F7800.000
G1 X79.964 Y134.527 E16.37472 F630.000
G1 X89.473 Y127.596 F7800.000
G1 X86.243 Y124.366 E16.59231 F630.000
G1 X88.036 Y125.473 F7800.000
G1 X88.491 Y125.929 E16.62297 F630.000
G1 F2100.000 E15.72297
G92 E0
G1 X69.171 Y129.444 F7800.000
G1 E0.90000 F2100.000
G1 X69.269 Y130.000 E0.92637 F360.000
G1 X69.002 Y131.513 E0.99819
G1 X68.234 Y132.843 E1.07001
G1 X67.057 Y133.831 E1.14182
G1 X65.613 Y134.356 E1.21364
G1 X64.077 Y134.356 E1.28546
G1 X62.634 Y133.831 E1.35728
G1 X61.457 Y132.843 E1.42910
G1 X60.688 Y131.538 E1.49993
G1 X60.289 Y130.023 E1.57315
G1 X60.440 Y128.421 E1.64837
G1 X60.545 Y128.201 E1.65976
G1 X61.348 Y127.035 E1.72594
G1 X62.634 Y126.125 E1.79962
G1 X63.047 Y126.019 E1.81955
G1 X64.077 Y125.644 E1.87079
G1 X65.613 Y125.644 E1.94260
G1 X67.057 Y126.169 E2.01442
G1 X68.234 Y127.157 E2.08624
G1 X69.002 Y128.487 E2.15806
G1 X69.159 Y129.374 E2.20017
G1 X69.618 Y129.607 F7800.000
G1 X69.225 Y132.967 F7800.000
G1 X68.846 Y133.624 E2.23564 F360.000
G1 X68.586 Y133.894 E2.25318
G1 X68.261 Y134.183 E2.27349
G1 X67.913 Y134.444 E2.29383
G1 X67.545 Y134.677 E2.31417
G1 X67.087 Y134.910 E2.33822
G1 X66.760 Y135.049 E2.35482
G1 X66.348 Y135.187 E2.37514
G1 X65.983 Y135.277 E2.39269
G1 X65.225 Y135.277 E2.42816
G1 X65.179 Y135.020 E2.44033
G1 X67.298 Y134.249 E2.54575
G1 X69.026 Y132.799 E2.65116
G1 X69.171 Y132.921 E2.66000
G1 X69.605 Y132.310 F7800.000
G1 X69.360 Y132.221 E2.67218 F360.000
G1 X69.752 Y130.000 E2.77758
G1 X69.360 Y127.779 E2.88300
G1 X69.605 Y127.690 E2.89517
G1 X69.984 Y128.347 E2.93064
G1 X70.088 Y128.708 E2.94817
G1 X70.175 Y129.134 E2.96851
G1 X70.228 Y129.566 E2.98884
G1 X70.245 Y130.000 E3.00916
G1 X70.228 Y130.435 E3.02949
G1 X70.175 Y130.866 E3.04982
G1 X70.088 Y131.292 E3.07014
G1 X69.984 Y131.653 E3.08769
G1 X69.640 Y132.248 E3.11982
G1 F2100.000 E2.21982
G92 E0
G1 X65.179 Y124.980 F7800.000
G1 E0.90000 F2100.000
G1 X65.225 Y124.723 E0.91217 F360.000
G1 X65.983 Y124.723 E0.94764
G1 X66.348 Y124.813 E0.96518
G1 X66.760 Y124.951 E0.98551
G1 X67.160 Y125.121 E1.00584
G1 X67.545 Y125.323 E1.02617
G1 X67.913 Y125.556 E1.04650
G1 X68.260 Y125.817 E1.06682
G1 X68.586 Y126.106 E1.08717
G1 X68.846 Y126.376 E1.10469
G1 X69.225 Y127.033 E1.14018
G1 X69.026 Y127.201 E1.15236
G1 X67.299 Y125.751 E1.25777
G1 X65.246 Y125.004 E1.35986
G1 X64.466 Y124.723 F7800.000
G1 X64.511 Y124.980 E1.37202 F360.000
G1 X62.902 Y125.565 E1.45205
G1 X62.432 Y125.685 E1.47476
G1 X61.192 Y126.568 E1.54589
G1 X60.922 Y126.199 E1.56725
G1 X61.777 Y125.556 E1.61726
G1 X61.765 Y125.523 E1.61891
G1 X62.145 Y125.323 E1.63901
G1 X62.516 Y125.089 E1.65950
G1 X62.536 Y125.119 E1.66119
G1 X62.930 Y124.951 E1.68123
G1 X63.343 Y124.813 E1.70155
G1 X63.707 Y124.723 E1.71910
G1 X64.394 Y124.723 E1.75122
G1 F2100.000 E0.85122
G92 E0
G1 X59.798 Y130.004 F7800.000
G1 E0.90000 F2100.000
G1 X60.368 Y132.195 E1.00583 F360.000
G1 X60.086 Y132.310 E1.02006
G1 X59.707 Y131.653 E1.05556
G1 X59.602 Y131.292 E1.07308
G1 X59.515 Y130.866 E1.09343
G1 X59.419 Y130.076 E1.13065
G1 X59.728 Y130.017 E1.14533
G1 X60.665 Y132.799 F7800.000
G1 X62.392 Y134.249 E1.25075 F360.000
G1 X64.511 Y135.020 E1.35617
G1 X64.466 Y135.277 E1.36834
G1 X63.707 Y135.277 E1.40381
G1 X63.343 Y135.187 E1.42134
G1 X62.930 Y135.049 E1.44168
G1 X62.645 Y134.927 E1.45619
G1 X62.145 Y134.677 E1.48232
G1 X61.778 Y134.444 E1.50265
G1 X61.430 Y134.183 E1.52297
G1 X61.104 Y133.894 E1.54332
G1 X60.845 Y133.624 E1.56085
G1 X60.465 Y132.967 E1.59633
G1 X60.610 Y132.845 E1.60518
G1 X60.034 Y133.170 F7800.000
G1 X59.266 Y131.840 E1.67695 F360.000
G1 X59.140 Y131.406 E1.69807
G1 X59.046 Y130.943 E1.72020
G1 X58.989 Y130.473 E1.74232
G1 X58.973 Y130.093 E1.76007
G1 X58.989 Y129.527 E1.78655
G1 X59.046 Y129.057 E1.80867
G1 X59.140 Y128.594 E1.83078
G1 X59.266 Y128.160 E1.85192
G1 X59.945 Y126.984 E1.91540
G1 X60.462 Y126.088 E1.96372
G1 X60.775 Y125.762 E1.98486
G1 X61.129 Y125.449 E2.00697
G1 X61.507 Y125.164 E2.02910
G1 X61.907 Y124.911 E2.05123
G1 X62.326 Y124.692 E2.07334
G1 X62.762 Y124.506 E2.09546
G1 X63.211 Y124.356 E2.11758
G1 X63.649 Y124.248 E2.13872
G1 X66.041 Y124.248 E2.25052
G1 X66.480 Y124.356 E2.27165
G1 X66.929 Y124.506 E2.29377
G1 X67.364 Y124.691 E2.31590
G1 X67.783 Y124.911 E2.33801
G1 X68.183 Y125.164 E2.36014
G1 X68.561 Y125.449 E2.38226
G1 X68.916 Y125.762 E2.40438
G1 X69.229 Y126.088 E2.42551
G1 X70.425 Y128.160 E2.53732
G1 X70.550 Y128.594 E2.55845
G1 X70.645 Y129.057 E2.58057
G1 X70.702 Y129.527 E2.60269
G1 X70.721 Y130.000 E2.62481
G1 X70.702 Y130.473 E2.64693
G1 X70.645 Y130.943 E2.66905
G1 X70.550 Y131.406 E2.69117
G1 X70.425 Y131.840 E2.71231
G1 X69.229 Y133.912 E2.82411
G1 X68.916 Y134.238 E2.84525
G1 X68.562 Y134.551 E2.86736
G1 X68.183 Y134.836 E2.88948
G1 X67.783 Y135.089 E2.91161
G1 X67.364 Y135.308 E2.93373
G1 X66.929 Y135.494 E2.95585
G1 X66.480 Y135.644 E2.97797
G1 X66.041 Y135.752 E2.99910
G1 X63.649 Y135.752 E3.11091
G1 X63.211 Y135.644 E3.13204
G1 X62.762 Y135.494 E3.15416
G1 X62.326 Y135.308 E3.17628
G1 X61.907 Y135.089 E3.19840
G1 X61.507 Y134.836 E3.22052
G1 X61.129 Y134.551 E3.24264
G1 X60.775 Y134.238 E3.26477
G1 X60.462 Y133.912 E3.28589
G1 X60.069 Y133.232 E3.32260
G1 X60.271 Y132.758 F7800.000
G1 X60.193 Y132.768 F7800.000
G1 X60.159 Y132.733 E3.32445 F360.000
G1 X60.476 Y132.504 E3.33933 F360.000
G1 X60.484 Y132.511 E3.33975 F360.000
G1 X60.719 Y132.404 F7800.000
G1 X60.808 Y132.493 E3.34274 F360.000
G1 X59.481 Y129.580 F7800.000
G1 X59.464 Y129.562 E3.34394 F360.000
G1 X59.880 Y129.297 E3.36734 F360.000
G1 X59.550 Y128.966 E3.38949 F360.000
G1 X59.939 Y128.675 E3.41256 F360.000
G1 X59.686 Y128.421 E3.42958 F360.000
G1 X60.060 Y128.113 E3.45252 F360.000
G1 X59.922 Y127.975 E3.46176 F360.000
G1 X60.319 Y127.691 E3.48491 F360.000
G1 X60.171 Y127.543 E3.49478 F360.000
G1 X60.597 Y127.287 E3.51831 F360.000
G1 X60.421 Y127.111 E3.53011 F360.000
G1 X60.723 Y126.733 E3.55308 F360.000
G1 X60.677 Y126.687 E3.55617 F360.000
G1 X64.597 Y125.307 F7800.000
G1 X65.076 Y125.290 E3.57268 F360.000
G1 X65.093 Y125.307 E3.57350 F360.000
G1 X64.845 Y124.935 F7800.000
G1 X64.833 Y124.923 E3.57400 F360.000
G1 X64.916 Y124.594 E3.58372 F360.000
G1 X64.897 Y124.575 E3.58448 F360.000
G1 X64.597 Y125.307 F7800.000
G1 X64.607 Y125.317 E3.58496 F360.000
G1 F2100.000 E2.68496
G92 E0
G1 X69.006 Y127.840 F7800.000
G1 E0.90000 F2100.000
G1 X69.034 Y127.868 E0.90092 F360.000
G1 X69.240 Y127.475 F7800.000
G1 X69.232 Y127.467 E0.90130 F360.000
G1 X69.497 Y127.232 E0.91363 F360.000
G1 X69.532 Y127.267 E0.91532 F360.000
G1 X69.033 Y132.132 F7800.000
G1 X69.042 Y132.141 E0.91590 F360.000
G1 X68.779 Y132.554 E0.93891 F360.000
G1 X68.793 Y132.568 E0.93987 F360.000
G1 X69.232 Y132.532 F7800.000
G1 X69.313 Y132.614 E0.94260 F360.000
G1 X65.093 Y134.693 F7800.000
G1 X65.083 Y134.683 E0.94309 F360.000
