; generated by Slic3r 1.0.0RC3 on 2014-04-16 at 16:14:33

; layer_height = 0.25
; perimeters = 2
; top_solid_layers = 2
; bottom_solid_layers = 2
; fill_density = .4
; perimeter_speed = 30
; infill_speed = 60
; travel_speed = 110
; nozzle_diameter = 0.4
; filament_diameter = 1.7
; extrusion_multiplier = .94
; perimeters extrusion width = 0.40mm
; infill extrusion width = 0.53mm
; solid infill extrusion width = 0.53mm
; top infill extrusion width = 0.53mm
; first layer extrusion width = 0.50mm

G21 ; set units to millimeters
M107
M190 S65 ; wait for bed temperature to be reached
M104 S220 ; set temperature
G28 ; home all axes
G1 Z5 F5000 ; lift nozzle
M109 S220 ; wait for temperature to be reached
G90 ; use absolute coordinates
G92 E0
M82 ; use absolute distances for extrusion
G1 F2100.000 E-0.90000
G92 E0
G1 Z0.250 F6600.000
G1 X53.904 Y46.450 F6600.000
G1 E0.90000 F2100.000
G1 X54.504 Y45.750 E0.94568 F540.000
G1 X55.224 Y45.030 E0.99613
G1 X55.594 Y44.700 E1.02069
G1 X56.404 Y44.060 E1.07184
G1 X56.974 Y43.650 E1.10662
G1 X57.324 Y43.430 E1.12711
G1 X58.314 Y42.890 E1.18298
G1 X59.354 Y42.420 E1.23952
G1 X60.314 Y42.070 E1.29015
G1 X61.024 Y41.870 E1.32669
G1 X61.494 Y41.760 E1.35061
G1 X62.144 Y41.640 E1.38336
G1 X62.814 Y41.570 E1.41673
G1 X82.734 Y40.570 E2.40491
G1 X85.734 Y40.560 E2.55354
G1 X86.454 Y40.600 E2.58927
G1 X87.154 Y40.700 E2.62430
G1 X88.264 Y40.950 E2.68068
G1 X89.144 Y41.230 E2.72643
G1 X90.044 Y41.570 E2.77409
G1 X90.504 Y41.770 E2.79895
G1 X91.424 Y42.230 E2.84991
G1 X92.004 Y42.570 E2.88322
G1 X92.764 Y43.070 E2.92829
G1 X93.594 Y43.690 E2.97962
G1 X93.974 Y44.010 E3.00423
G1 X94.724 Y44.720 E3.05540
G1 X95.344 Y45.380 E3.10026
G1 X95.834 Y45.990 E3.13903
G1 X96.264 Y46.640 E3.17764
G1 X97.574 Y48.910 E3.30749
G1 X97.924 Y49.610 E3.34627
G1 X98.204 Y50.330 E3.38454
G1 X98.474 Y51.230 E3.43110
G1 X98.694 Y52.170 E3.47893
G1 X98.874 Y53.260 E3.53366
G1 X98.954 Y54.200 E3.58040
G1 X98.984 Y54.990 E3.61957
G1 X98.984 Y94.990 E5.60136
G1 X98.924 Y96.230 E5.66287
G1 X98.874 Y96.730 E5.68777
G1 X98.694 Y97.820 E5.74250
G1 X98.474 Y98.760 E5.79033
G1 X98.204 Y99.660 E5.83689
G1 X97.924 Y100.380 E5.87516
G1 X97.574 Y101.080 E5.91394
G1 X96.264 Y103.350 E6.04379
G1 X95.834 Y104.000 E6.08240
G1 X95.344 Y104.610 E6.12117
G1 X95.064 Y104.920 E6.14186
G1 X94.364 Y105.620 E6.19091
G1 X93.594 Y106.300 E6.24181
G1 X93.164 Y106.630 E6.26866
G1 X92.764 Y106.920 E6.29314
G1 X92.004 Y107.420 E6.33821
G1 X91.424 Y107.760 E6.37152
G1 X90.504 Y108.220 E6.42248
G1 X89.614 Y108.590 E6.47024
G1 X88.734 Y108.900 E6.51646
G1 X88.264 Y109.040 E6.54076
G1 X87.324 Y109.260 E6.58859
G1 X86.534 Y109.390 E6.62826
G1 X85.734 Y109.440 E6.66797
G1 X82.734 Y109.430 E6.81661
G1 X62.814 Y108.430 E7.80478
G1 X62.074 Y108.350 E7.84166
G1 X61.344 Y108.200 E7.87858
G1 X60.314 Y107.920 E7.93146
G1 X59.354 Y107.570 E7.98209
G1 X58.354 Y107.120 E8.03642
G1 X57.914 Y106.890 E8.06102
G1 X57.024 Y106.360 E8.11234
G1 X56.404 Y105.930 E8.14972
G1 X55.594 Y105.290 E8.20087
G1 X54.844 Y104.590 E8.25170
G1 X54.504 Y104.240 E8.27587
G1 X53.904 Y103.540 E8.32155
G1 X53.394 Y102.780 E8.36690
G1 X52.164 Y100.650 E8.48876
G1 X51.744 Y99.800 E8.53573
G1 X51.434 Y98.910 E8.58243
G1 X51.194 Y97.980 E8.63001
G1 X51.094 Y97.500 E8.65430
G1 X50.994 Y96.880 E8.68542
G1 X50.884 Y95.790 E8.73970
G1 X50.854 Y94.990 E8.77936
G1 X50.854 Y54.990 E10.76115
G1 X50.884 Y54.200 E10.80032
G1 X50.934 Y53.600 E10.83015
G1 X51.094 Y52.490 E10.88572
G1 X51.304 Y51.550 E10.93344
G1 X51.434 Y51.080 E10.95760
G1 X51.744 Y50.190 E11.00429
G1 X52.164 Y49.340 E11.05126
G1 X53.394 Y47.210 E11.17312
G1 X53.864 Y46.510 E11.21491
G1 X54.284 Y46.730 F6600.000
G1 X54.844 Y46.080 E11.25742 F540.000
G1 X55.184 Y45.730 E11.28160
G1 X55.914 Y45.060 E11.33069
G1 X56.694 Y44.440 E11.38006
G1 X57.234 Y44.060 E11.41277
G1 X58.024 Y43.580 E11.45857
G1 X58.534 Y43.310 E11.48716
G1 X59.084 Y43.050 E11.51730
G1 X60.004 Y42.680 E11.56643
G1 X60.474 Y42.520 E11.59103
G1 X61.124 Y42.340 E11.62444
G1 X62.214 Y42.110 E11.67964
G1 X62.834 Y42.050 E11.71050
G1 X82.754 Y41.050 E12.69867
G1 X85.734 Y41.040 E12.84632
G1 X86.404 Y41.080 E12.87957
G1 X87.064 Y41.170 E12.91258
G1 X88.134 Y41.410 E12.96691
G1 X88.984 Y41.680 E13.01109
G1 X89.854 Y42.010 E13.05719
G1 X90.764 Y42.420 E13.10664
G1 X91.204 Y42.650 E13.13124
G1 X92.164 Y43.240 E13.18707
G1 X92.884 Y43.750 E13.23078
G1 X93.284 Y44.060 E13.25586
G1 X94.034 Y44.710 E13.30503
G1 X94.394 Y45.060 E13.32990
G1 X94.984 Y45.700 E13.37303
G1 X95.454 Y46.270 E13.40963
G1 X95.854 Y46.880 E13.44578
G1 X97.164 Y49.150 E13.57563
G1 X97.494 Y49.800 E13.61174
G1 X97.754 Y50.480 E13.64781
G1 X98.014 Y51.340 E13.69233
G1 X98.224 Y52.250 E13.73860
G1 X98.394 Y53.310 E13.79178
G1 X98.474 Y54.220 E13.83704
G1 X98.504 Y54.990 E13.87522
G1 X98.504 Y94.990 E15.85702
G1 X98.474 Y95.770 E15.89569
G1 X98.394 Y96.680 E15.94095
G1 X98.224 Y97.740 E15.99414
G1 X98.014 Y98.650 E16.04041
G1 X97.754 Y99.510 E16.08492
G1 X97.494 Y100.190 E16.12099
G1 X97.164 Y100.840 E16.15711
G1 X95.854 Y103.110 E16.28696
G1 X95.454 Y103.720 E16.32310
G1 X94.984 Y104.290 E16.35970
G1 X94.394 Y104.930 E16.40283
G1 X94.034 Y105.280 E16.42770
G1 X93.284 Y105.930 E16.47688
G1 X92.884 Y106.240 E16.50195
G1 X92.164 Y106.750 E16.54566
G1 X91.744 Y107.020 E16.57040
G1 X91.204 Y107.340 E16.60150
G1 X90.314 Y107.780 E16.65069
G1 X89.454 Y108.140 E16.69688
G1 X88.604 Y108.440 E16.74154
G1 X88.134 Y108.580 E16.76584
G1 X87.224 Y108.800 E16.81222
G1 X86.484 Y108.920 E16.84936
G1 X85.734 Y108.960 E16.88658
G1 X82.754 Y108.950 E17.03422
G1 X62.834 Y107.950 E18.02239
G1 X62.144 Y107.880 E18.05676
G1 X61.464 Y107.740 E18.09115
G1 X60.994 Y107.620 E18.11519
G1 X60.474 Y107.470 E18.14200
G1 X59.534 Y107.130 E18.19153
G1 X58.574 Y106.700 E18.24364
G1 X57.694 Y106.220 E18.29331
G1 X57.274 Y105.960 E18.31778
G1 X56.304 Y105.250 E18.37734
G1 X55.914 Y104.930 E18.40233
G1 X55.184 Y104.260 E18.45142
G1 X54.844 Y103.910 E18.47560
G1 X54.284 Y103.260 E18.51810
G1 X53.814 Y102.540 E18.56070
G1 X52.584 Y100.410 E18.68257
G1 X52.184 Y99.620 E18.72644
G1 X51.894 Y98.780 E18.77047
G1 X51.664 Y97.880 E18.81649
G1 X51.464 Y96.830 E18.86945
G1 X51.404 Y96.340 E18.89391
G1 X51.364 Y95.770 E18.92222
G1 X51.334 Y94.990 E18.96089
G1 X51.334 Y54.990 E20.94268
G1 X51.404 Y53.650 E21.00916
G1 X51.464 Y53.160 E21.03362
G1 X51.564 Y52.590 E21.06229
G1 X51.764 Y51.680 E21.10845
G1 X51.894 Y51.210 E21.13261
G1 X52.184 Y50.370 E21.17664
G1 X52.584 Y49.580 E21.22051
G1 X53.814 Y47.450 E21.34238
G1 X54.245 Y46.790 E21.38142
G1 X54.664 Y47.020 F6600.000
G1 X55.184 Y46.420 E21.42076 F540.000
G1 X55.524 Y46.070 E21.44493
G1 X56.594 Y45.110 E21.51616
G1 X56.984 Y44.810 E21.54053
G1 X57.484 Y44.470 E21.57049
G1 X58.254 Y44.000 E21.61519
G1 X58.764 Y43.730 E21.64378
G1 X59.274 Y43.490 E21.67170
G1 X60.154 Y43.140 E21.71862
G1 X61.234 Y42.800 E21.77472
G1 X62.284 Y42.580 E21.82787
G1 X62.864 Y42.530 E21.85671
G1 X82.784 Y41.530 E22.84489
G1 X85.734 Y41.520 E22.99105
G1 X86.354 Y41.550 E23.02180
G1 X86.974 Y41.640 E23.05284
G1 X87.994 Y41.870 E23.10465
G1 X88.814 Y42.130 E23.14727
G1 X89.664 Y42.450 E23.19226
G1 X90.544 Y42.850 E23.24016
G1 X90.984 Y43.080 E23.26476
G1 X91.484 Y43.370 E23.29339
G1 X92.204 Y43.840 E23.33599
G1 X92.974 Y44.420 E23.38375
G1 X93.704 Y45.050 E23.43153
G1 X94.064 Y45.400 E23.45640
G1 X94.634 Y46.020 E23.49813
G1 X95.064 Y46.550 E23.53195
G1 X95.434 Y47.120 E23.56561
G1 X96.744 Y49.390 E23.69546
G1 X97.054 Y50.000 E23.72937
G1 X97.294 Y50.630 E23.76277
G1 X97.554 Y51.460 E23.80586
G1 X97.754 Y52.340 E23.85057
G1 X97.924 Y53.360 E23.90180
G1 X97.994 Y54.240 E23.94554
G1 X98.024 Y54.990 E23.98273
G1 X98.024 Y94.990 E25.96452
G1 X97.974 Y96.130 E26.02106
G1 X97.924 Y96.630 E26.04595
G1 X97.844 Y97.160 E26.07251
G1 X97.674 Y98.050 E26.11740
G1 X97.554 Y98.530 E26.14192
G1 X97.294 Y99.360 E26.18501
G1 X97.054 Y99.990 E26.21841
G1 X96.744 Y100.600 E26.25231
G1 X95.434 Y102.870 E26.38216
G1 X95.064 Y103.440 E26.41583
G1 X94.634 Y103.970 E26.44964
G1 X94.064 Y104.590 E26.49137
G1 X93.704 Y104.940 E26.51625
G1 X92.974 Y105.570 E26.56402
G1 X92.604 Y105.860 E26.58731
G1 X92.204 Y106.150 E26.61179
G1 X91.484 Y106.620 E26.65439
G1 X90.984 Y106.910 E26.68303
G1 X90.124 Y107.340 E26.73067
G1 X89.284 Y107.690 E26.77575
G1 X88.464 Y107.980 E26.81884
G1 X87.994 Y108.120 E26.84314
G1 X87.124 Y108.330 E26.88748
G1 X86.434 Y108.440 E26.92210
G1 X85.734 Y108.480 E26.95684
G1 X82.784 Y108.470 E27.10300
G1 X62.864 Y107.470 E28.09117
G1 X62.214 Y107.410 E28.12351
G1 X61.584 Y107.280 E28.15538
G1 X61.114 Y107.160 E28.17942
G1 X60.624 Y107.010 E28.20481
G1 X59.724 Y106.690 E28.25213
G1 X58.794 Y106.270 E28.30269
G1 X57.944 Y105.810 E28.35057
G1 X57.524 Y105.550 E28.37505
G1 X56.984 Y105.180 E28.40748
G1 X56.594 Y104.880 E28.43186
G1 X55.524 Y103.920 E28.50308
G1 X55.184 Y103.570 E28.52725
G1 X54.664 Y102.970 E28.56659
G1 X54.224 Y102.300 E28.60631
G1 X52.994 Y100.170 E28.72817
G1 X52.624 Y99.430 E28.76916
G1 X52.364 Y98.660 E28.80942
G1 X52.134 Y97.780 E28.85449
G1 X51.944 Y96.770 E28.90541
G1 X51.844 Y95.750 E28.95618
G1 X51.814 Y94.990 E28.99387
G1 X51.814 Y54.990 E30.97566
G1 X51.884 Y53.710 E31.03917
G1 X52.034 Y52.690 E31.09025
G1 X52.134 Y52.210 E31.11454
G1 X52.364 Y51.330 E31.15961
G1 X52.624 Y50.560 E31.19987
G1 X52.994 Y49.820 E31.24086
G1 X54.224 Y47.690 E31.36273
G1 X54.625 Y47.080 E31.39888
G1 F2100.000 E30.49888
G92 E0
G1 X88.360 Y69.960 F6600.000
G1 E0.90000 F2100.000
G1 X88.702 Y70.247 E0.92212 F360.000
G1 X89.024 Y70.557 E0.94424
G1 X89.234 Y70.791 E0.95983
G1 X90.474 Y72.938 E1.08265
G1 X90.571 Y73.237 E1.09824
G1 X90.679 Y73.670 E1.12036
G1 X90.756 Y74.110 E1.14248
G1 X90.803 Y74.554 E1.16460
G1 X90.819 Y75.000 E1.18672
G1 X90.803 Y75.446 E1.20884
G1 X90.756 Y75.890 E1.23095
G1 X90.679 Y76.330 E1.25307
G1 X90.571 Y76.763 E1.27519
G1 X90.474 Y77.062 E1.29078
G1 X89.234 Y79.209 E1.41360
G1 X89.024 Y79.443 E1.42920
G1 X88.702 Y79.753 E1.45131
G1 X88.360 Y80.040 E1.47343
G1 X87.999 Y80.303 E1.49555
G1 X87.621 Y80.539 E1.51767
G1 X87.226 Y80.749 E1.53979
G1 X86.819 Y80.930 E1.56190
G1 X86.399 Y81.083 E1.58403
G1 X85.970 Y81.206 E1.60615
G1 X85.662 Y81.271 E1.62174
G1 X83.183 Y81.271 E1.74456
G1 X82.875 Y81.206 E1.76015
G1 X82.446 Y81.083 E1.78227
G1 X82.027 Y80.930 E1.80439
G1 X81.619 Y80.749 E1.82651
G1 X81.225 Y80.539 E1.84863
G1 X80.846 Y80.303 E1.87075
G1 X80.485 Y80.040 E1.89286
G1 X80.143 Y79.753 E1.91498
G1 X79.822 Y79.443 E1.93710
G1 X79.611 Y79.209 E1.95269
G1 X78.372 Y77.062 E2.07551
G1 X78.274 Y76.763 E2.09111
G1 X78.166 Y76.330 E2.11323
G1 X78.089 Y75.890 E2.13534
G1 X78.042 Y75.446 E2.15746
G1 X78.027 Y75.000 E2.17958
G1 X78.042 Y74.569 E2.20096
G1 X78.089 Y74.110 E2.22382
G1 X78.166 Y73.670 E2.24594
G1 X78.274 Y73.237 E2.26805
G1 X78.372 Y72.938 E2.28365
G1 X79.611 Y70.791 E2.40647
G1 X79.822 Y70.557 E2.42206
G1 X80.143 Y70.247 E2.44418
G1 X80.485 Y69.960 E2.46630
G1 X80.846 Y69.697 E2.48842
G1 X81.225 Y69.461 E2.51053
G1 X81.619 Y69.251 E2.53265
G1 X82.027 Y69.070 E2.55477
G1 X82.446 Y68.917 E2.57689
G1 X82.875 Y68.794 E2.59901
G1 X83.183 Y68.729 E2.61460
G1 X85.662 Y68.729 E2.73742
G1 X85.970 Y68.794 E2.75302
G1 X86.675 Y69.017 E2.78966
G1 X87.226 Y69.251 E2.81934
G1 X87.621 Y69.461 E2.84145
G1 X87.999 Y69.697 E2.86357
G1 X88.302 Y69.918 E2.88214
G1 X88.593 Y69.537 F6600.000
G1 X89.023 Y69.891 E2.90974 F378.000
G1 X89.368 Y70.224 E2.93352
G1 X89.623 Y70.508 E2.95243
G1 X90.913 Y72.742 E3.08023
G1 X91.031 Y73.105 E3.09915
G1 X91.147 Y73.571 E3.12292
G1 X91.231 Y74.043 E3.14669
G1 X91.281 Y74.520 E3.17047
G1 X91.297 Y75.000 E3.19424
G1 X91.281 Y75.480 E3.21802
G1 X91.231 Y75.957 E3.24179
G1 X91.147 Y76.429 E3.26557
G1 X91.031 Y76.895 E3.28934
G1 X90.913 Y77.258 E3.30825
G1 X89.623 Y79.492 E3.43606
G1 X89.368 Y79.776 E3.45497
G1 X89.023 Y80.109 E3.47875
G1 X88.655 Y80.417 E3.50252
G1 X88.267 Y80.700 E3.52629
G1 X87.860 Y80.954 E3.55007
G1 X87.436 Y81.179 E3.57384
G1 X86.998 Y81.374 E3.59761
G1 X86.547 Y81.538 E3.62139
G1 X86.086 Y81.671 E3.64517
G1 X85.712 Y81.750 E3.66408
G1 X83.133 Y81.750 E3.79188
G1 X82.759 Y81.671 E3.81080
G1 X82.298 Y81.538 E3.83457
G1 X81.847 Y81.374 E3.85835
G1 X81.409 Y81.179 E3.88212
G1 X80.985 Y80.954 E3.90590
G1 X80.578 Y80.700 E3.92967
G1 X80.190 Y80.417 E3.95344
G1 X79.822 Y80.109 E3.97722
G1 X79.477 Y79.776 E4.00099
G1 X79.222 Y79.492 E4.01991
G1 X77.932 Y77.258 E4.14771
G1 X77.814 Y76.895 E4.16662
G1 X77.698 Y76.429 E4.19040
G1 X77.615 Y75.957 E4.21417
G1 X77.565 Y75.480 E4.23795
G1 X77.548 Y75.000 E4.26172
G1 X77.565 Y74.520 E4.28550
G1 X77.615 Y74.043 E4.30927
G1 X77.698 Y73.571 E4.33304
G1 X77.814 Y73.105 E4.35682
G1 X77.932 Y72.742 E4.37573
G1 X79.222 Y70.508 E4.50354
G1 X79.477 Y70.224 E4.52245
G1 X79.822 Y69.891 E4.54622
G1 X80.190 Y69.583 E4.57000
G1 X80.578 Y69.300 E4.59377
G1 X80.985 Y69.046 E4.61755
G1 X81.409 Y68.821 E4.64132
G1 X81.847 Y68.626 E4.66509
G1 X82.298 Y68.462 E4.68887
G1 X82.759 Y68.329 E4.71264
G1 X83.133 Y68.250 E4.73156
G1 X85.712 Y68.250 E4.85936
G1 X86.086 Y68.329 E4.87827
G1 X86.547 Y68.462 E4.90205
G1 X86.998 Y68.626 E4.92582
G1 X87.436 Y68.821 E4.94960
G1 X87.860 Y69.046 E4.97337
G1 X88.267 Y69.300 E4.99715
G1 X88.534 Y69.495 E5.01353
G1 X88.523 Y70.011 F6600.000
G1 F2100.000 E4.11353
G92 E0
G1 X68.898 Y73.464 F6600.000
G1 E0.90000 F2100.000
G1 X69.154 Y75.000 E0.97716 F360.000
G1 X68.898 Y76.536 E1.05434
G1 X68.156 Y77.906 E1.13150
G1 X67.011 Y78.961 E1.20867
G1 X65.584 Y79.587 E1.28584
G1 X64.032 Y79.715 E1.36301
G1 X62.609 Y79.355 E1.43575
G1 X62.522 Y79.333 E1.44018
G1 X61.218 Y78.481 E1.51735
G1 X60.261 Y77.252 E1.59452
G1 X59.758 Y75.808 E1.67029
G1 X59.603 Y74.225 E1.74908
G1 X59.652 Y74.019 E1.75959
G1 X60.249 Y72.708 E1.83093
G1 X60.459 Y72.495 E1.84576
G1 X61.218 Y71.519 E1.90703
G1 X62.522 Y70.667 E1.98420
G1 X64.032 Y70.285 E2.06137
G1 X65.584 Y70.413 E2.13853
G1 X67.011 Y71.039 E2.21570
G1 X68.156 Y72.094 E2.29286
G1 X68.864 Y73.401 E2.36649
G1 X69.362 Y73.581 F6600.000
G1 X70.121 Y73.575 F6600.000
G1 X70.221 Y74.058 E2.39092 F360.000
G1 X70.278 Y74.527 E2.41436
G1 X70.297 Y75.000 E2.43780
G1 X70.278 Y75.473 E2.46124
G1 X70.221 Y75.942 E2.48468
G1 X70.127 Y76.406 E2.50812
G1 X70.002 Y76.836 E2.53031
G1 X68.803 Y78.914 E2.64918
G1 X68.492 Y79.237 E2.67137
G1 X68.079 Y79.595 E2.69846
G1 X67.760 Y79.835 E2.71824
G1 X67.360 Y80.088 E2.74168
G1 X66.849 Y80.347 E2.77006
G1 X66.506 Y80.493 E2.78855
G1 X66.057 Y80.643 E2.81199
G1 X65.622 Y80.750 E2.83417
G1 X63.223 Y80.750 E2.95305
G1 X62.788 Y80.643 E2.97523
G1 X62.339 Y80.493 E2.99867
G1 X61.904 Y80.308 E3.02212
G1 X61.485 Y80.088 E3.04556
G1 X61.085 Y79.835 E3.06900
G1 X60.707 Y79.551 E3.09244
G1 X60.353 Y79.237 E3.11588
G1 X60.043 Y78.914 E3.13806
G1 X58.843 Y76.836 E3.25695
G1 X58.719 Y76.406 E3.27912
G1 X58.624 Y75.942 E3.30257
G1 X58.567 Y75.473 E3.32601
G1 X58.552 Y75.094 E3.34478
G1 X58.567 Y74.527 E3.37287
G1 X58.624 Y74.058 E3.39631
G1 X58.719 Y73.594 E3.41975
G1 X58.843 Y73.164 E3.44193
G1 X59.524 Y71.984 E3.50942
G1 X60.043 Y71.086 E3.56081
G1 X60.353 Y70.763 E3.58300
G1 X60.707 Y70.449 E3.60644
G1 X61.085 Y70.165 E3.62988
G1 X61.485 Y69.912 E3.65332
G1 X61.886 Y69.702 E3.67576
G1 X62.339 Y69.507 E3.70020
G1 X62.788 Y69.357 E3.72364
G1 X63.223 Y69.250 E3.74582
G1 X65.622 Y69.250 E3.86470
G1 X66.057 Y69.357 E3.88688
G1 X66.506 Y69.507 E3.91032
G1 X66.941 Y69.692 E3.93377
G1 X67.360 Y69.912 E3.95721
G1 X67.760 Y70.165 E3.98065
G1 X68.138 Y70.449 E4.00409
G1 X68.492 Y70.763 E4.02753
G1 X68.802 Y71.086 E4.04971
G1 X70.002 Y73.164 E4.16860
G1 X70.101 Y73.506 E4.18622
G1 X69.772 Y73.902 F6600.000
G1 F2100.000 E3.28622
G92 E0
G1 X78.958 Y77.404 F6600.000
G1 E0.90000 F2100.000
G1 X82.182 Y80.628 E1.12839 F900.000
G1 X83.160 Y80.922 E1.17954
G1 X78.496 Y76.258 E1.50998
G1 X78.382 Y75.460 E1.55034
G1 X83.857 Y80.935 E1.93815
G1 X84.541 Y80.935 E1.97243
G1 X78.372 Y74.765 E2.40947
G1 X78.426 Y74.136 E2.44113
G1 X85.225 Y80.935 E2.92278
G1 X85.860 Y80.885 E2.95467
G1 X78.540 Y73.565 E3.47325
G1 X78.701 Y73.041 E3.50068
G1 X86.388 Y80.729 E4.04525
G1 X86.878 Y80.535 E4.07167
