; generated by Slic3r 1.0.0RC3 on 2014-05-16 at 14:06:17

; layer_height = 0.3
; perimeters = 2
; top_solid_layers = 2
; bottom_solid_layers = 2
; fill_density = .4
; perimeter_speed = 30
; infill_speed = 35
; travel_speed = 130
; nozzle_diameter = 0.4
; filament_diameter = 1.75
; extrusion_multiplier = .95
; perimeters extrusion width = 0.40mm
; infill extrusion width = 0.42mm
; solid infill extrusion width = 0.42mm
; top infill extrusion width = 0.42mm
; first layer extrusion width = 0.60mm

G21 ; set units to millimeters
M107
M190 S65 ; wait for bed temperature to be reached
M104 S200 ; set temperature
G28 ; home all axes
G1 Z5 F5000 ; lift nozzle
M92 Z4000 ;set 4000 steps_per_mm for prusa i3!
M203 Z1.0 ;set max z speed to 1 mm/s
M203 X300 Y300 ;set X and Y max speeds
M208 X150 Y300 Z110 ;set max travel!
M211 X150 Y300 Z110 ;set max travel!
M109 S200 ; wait for temperature to be reached
G90 ; use absolute coordinates
G92 E0
M82 ; use absolute distances for extrusion
G1 F2100.000 E-0.90000
G92 E0
G1 Z1.300 F7800.000
G1 X56.027 Y97.620 F7800.000
G1 E0.90000 F2100.000
G1 X56.467 Y97.370 E0.93340 F540.000
G1 X57.317 Y96.940 E0.99628
G1 X57.767 Y96.740 E1.02879
G1 X58.497 Y96.460 E1.08040
G1 X59.487 Y96.170 E1.14849
G1 X59.867 Y96.080 E1.17427
G1 X60.677 Y95.930 E1.22864
G1 X61.507 Y95.890 E1.28349
G1 X86.177 Y95.890 E2.91191
G1 X87.027 Y95.940 E2.96811
G1 X87.857 Y96.090 E3.02379
G1 X88.707 Y96.310 E3.08174
G1 X89.177 Y96.460 E3.11431
G1 X89.857 Y96.720 E3.16236
G1 X90.317 Y96.920 E3.19547
G1 X91.217 Y97.370 E3.26189
G1 X92.077 Y97.880 E3.32789
G1 X92.677 Y98.290 E3.37586
G1 X93.067 Y98.590 E3.40833
G1 X93.837 Y99.250 E3.47528
G1 X94.487 Y99.900 E3.53595
G1 X95.047 Y100.550 E3.59259
G1 X95.517 Y101.270 E3.64934
G1 X96.857 Y103.580 E3.82562
G1 X97.277 Y104.410 E3.88702
G1 X97.577 Y105.290 E3.94839
G1 X97.677 Y105.660 E3.97369
G1 X97.877 Y106.590 E4.03648
G1 X98.047 Y107.770 E4.11517
G1 X100.207 Y128.770 E5.50865
G1 X100.257 Y129.700 E5.57013
G1 X100.237 Y130.770 E5.64077
G1 X100.157 Y131.700 E5.70238
G1 X100.077 Y132.280 E5.74103
G1 X99.987 Y132.770 E5.77391
G1 X99.777 Y133.660 E5.83427
G1 X99.547 Y134.430 E5.88732
G1 X99.277 Y135.140 E5.93746
G1 X98.937 Y135.810 E5.98705
G1 X97.497 Y138.300 E6.17692
G1 X97.077 Y138.940 E6.22745
G1 X96.397 Y139.750 E6.29726
G1 X95.737 Y140.410 E6.35887
G1 X94.977 Y141.070 E6.42531
G1 X94.177 Y141.680 E6.49172
G1 X93.347 Y142.210 E6.55672
G1 X92.427 Y142.720 E6.62615
G1 X91.567 Y143.120 E6.68876
G1 X90.747 Y143.440 E6.74686
G1 X90.067 Y143.670 E6.79425
G1 X89.047 Y143.930 E6.86373
G1 X88.237 Y144.070 E6.91799
G1 X87.427 Y144.110 E6.97152
G1 X62.557 Y144.110 E8.61314
G1 X61.717 Y144.060 E8.66868
G1 X60.887 Y143.920 E8.72424
G1 X59.927 Y143.670 E8.78972
G1 X59.247 Y143.440 E8.83711
G1 X58.477 Y143.140 E8.89165
G1 X57.557 Y142.720 E8.95841
G1 X57.117 Y142.490 E8.99118
G1 X56.567 Y142.170 E9.03318
G1 X55.817 Y141.680 E9.09232
G1 X55.417 Y141.390 E9.12493
G1 X54.697 Y140.810 E9.18596
G1 X54.247 Y140.410 E9.22570
G1 X53.587 Y139.750 E9.28731
G1 X52.897 Y138.930 E9.35805
G1 X52.477 Y138.280 E9.40913
G1 X51.047 Y135.790 E9.59867
G1 X50.757 Y135.230 E9.64030
G1 X50.417 Y134.360 E9.70195
G1 X50.207 Y133.660 E9.75019
G1 X49.977 Y132.630 E9.81986
G1 X49.837 Y131.700 E9.88193
G1 X49.787 Y131.200 E9.91510
G1 X49.737 Y130.270 E9.97658
G1 X49.577 Y109.050 E11.37731
G1 X49.597 Y108.220 E11.43211
G1 X49.707 Y107.150 E11.50311
G1 X49.897 Y106.100 E11.57354
G1 X50.157 Y105.120 E11.64047
G1 X50.437 Y104.340 E11.69517
G1 X50.807 Y103.600 E11.74978
G1 X52.137 Y101.290 E11.92573
G1 X52.617 Y100.560 E11.98340
G1 X53.187 Y99.900 E12.04096
G1 X53.837 Y99.250 E12.10164
G1 X54.207 Y98.920 E12.13436
G1 X55.077 Y98.240 E12.20725
G1 X55.956 Y97.664 E12.27662
G1 X56.317 Y98.090 F7800.000
G1 X57.167 Y97.630 E12.34041 F540.000
G1 X57.997 Y97.250 E12.40067
G1 X58.667 Y96.990 E12.44811
G1 X59.137 Y96.840 E12.48067
G1 X59.997 Y96.620 E12.53927
G1 X60.747 Y96.490 E12.58951
G1 X61.507 Y96.440 E12.63979
G1 X86.177 Y96.440 E14.26820
G1 X86.957 Y96.490 E14.31980
G1 X87.727 Y96.630 E14.37145
G1 X88.537 Y96.840 E14.42669
G1 X89.007 Y96.990 E14.45925
G1 X89.627 Y97.230 E14.50314
G1 X90.517 Y97.630 E14.56755
G1 X91.367 Y98.090 E14.63134
G1 X91.787 Y98.350 E14.66395
G1 X92.337 Y98.730 E14.70807
G1 X92.727 Y99.030 E14.74055
G1 X93.087 Y99.340 E14.77191
G1 X93.817 Y100.010 E14.83732
G1 X94.087 Y100.290 E14.86299
G1 X94.597 Y100.890 E14.91497
G1 X95.037 Y101.550 E14.96733
G1 X96.377 Y103.860 E15.14360
G1 X96.757 Y104.630 E15.20028
G1 X97.037 Y105.440 E15.25685
G1 X97.137 Y105.810 E15.28215
G1 X97.327 Y106.700 E15.34222
G1 X97.417 Y107.210 E15.37641
G1 X97.477 Y107.700 E15.40899
G1 X99.647 Y128.830 E16.81108
G1 X99.697 Y129.720 E16.86992
G1 X99.677 Y130.750 E16.93792
G1 X99.597 Y131.640 E16.99690
G1 X99.527 Y132.170 E17.03219
G1 X99.357 Y133.040 E17.09070
G1 X99.237 Y133.530 E17.12400
G1 X99.017 Y134.260 E17.17433
G1 X98.767 Y134.910 E17.22030
G1 X98.457 Y135.530 E17.26605
G1 X97.017 Y138.020 E17.45592
G1 X96.627 Y138.610 E17.50260
G1 X95.987 Y139.370 E17.56819
G1 X95.347 Y140.010 E17.62793
G1 X94.617 Y140.650 E17.69201
G1 X93.847 Y141.230 E17.75564
G1 X93.057 Y141.740 E17.81771
G1 X92.167 Y142.230 E17.88478
G1 X91.027 Y142.740 E17.96721
G1 X90.557 Y142.920 E18.00043
G1 X89.917 Y143.130 E18.04489
G1 X88.917 Y143.390 E18.11310
G1 X88.177 Y143.510 E18.16258
G1 X87.427 Y143.560 E18.21220
G1 X62.557 Y143.560 E19.85381
G1 X61.787 Y143.510 E19.90475
G1 X61.017 Y143.370 E19.95641
G1 X60.077 Y143.130 E20.02044
G1 X59.437 Y142.920 E20.06490
G1 X58.967 Y142.740 E20.09813
G1 X57.817 Y142.230 E20.18116
G1 X56.867 Y141.710 E20.25265
G1 X56.447 Y141.440 E20.28561
G1 X55.747 Y140.940 E20.34239
G1 X55.047 Y140.380 E20.40156
G1 X54.637 Y140.010 E20.43802
G1 X53.997 Y139.370 E20.49776
G1 X53.347 Y138.600 E20.56428
G1 X52.957 Y138.010 E20.61096
G1 X51.527 Y135.520 E20.80050
G1 X51.267 Y135.000 E20.83887
G1 X50.937 Y134.180 E20.89722
G1 X50.747 Y133.530 E20.94192
G1 X50.627 Y133.040 E20.97522
G1 X50.447 Y132.050 E21.04164
G1 X50.347 Y131.140 E21.10206
G1 X50.287 Y130.040 E21.17478
G1 X50.127 Y109.050 E22.56033
G1 X50.157 Y108.240 E22.61383
G1 X50.257 Y107.210 E22.68214
G1 X50.347 Y106.700 E22.71632
G1 X50.577 Y105.650 E22.78727
G1 X50.687 Y105.280 E22.81275
G1 X50.957 Y104.560 E22.86351
G1 X51.297 Y103.880 E22.91369
G1 X52.627 Y101.570 E23.08964
G1 X53.067 Y100.900 E23.14255
G1 X53.587 Y100.290 E23.19546
G1 X53.857 Y100.010 E23.22113
G1 X54.587 Y99.340 E23.28654
G1 X55.017 Y98.980 E23.32356
G1 X55.417 Y98.680 E23.35656
G1 X56.246 Y98.134 E23.42208
G1 F2100.000 E22.52208
G92 E0
G1 X68.526 Y134.371 F7800.000
G1 E0.90000 F2100.000
G1 X68.210 Y134.676 E0.92899 F360.000
G1 X67.874 Y134.958 E0.95798
G1 X67.519 Y135.217 E0.98697
G1 X67.146 Y135.449 E1.01596
G1 X66.758 Y135.656 E1.04495
G1 X66.357 Y135.834 E1.07394
G1 X65.944 Y135.984 E1.10294
G1 X65.346 Y136.143 E1.14379
G1 X62.654 Y136.143 E1.32150
G1 X62.478 Y136.105 E1.33339
G1 X62.056 Y135.984 E1.36238
G1 X61.643 Y135.834 E1.39137
G1 X61.242 Y135.656 E1.42036
G1 X60.854 Y135.449 E1.44935
G1 X60.481 Y135.217 E1.47834
G1 X60.126 Y134.958 E1.50734
G1 X59.606 Y134.499 E1.55315
G1 X59.353 Y134.237 E1.57716
G1 X58.007 Y131.906 E1.75487
G1 X57.845 Y131.308 E1.79573
G1 X57.769 Y130.876 E1.82472
G1 X57.723 Y130.439 E1.85371
G1 X57.708 Y130.000 E1.88270
G1 X57.723 Y129.561 E1.91169
G1 X57.769 Y129.124 E1.94068
G1 X57.845 Y128.692 E1.96968
G1 X58.007 Y128.094 E2.01053
G1 X59.353 Y125.763 E2.18824
G1 X59.474 Y125.629 E2.20013
G1 X59.790 Y125.324 E2.22912
G1 X60.126 Y125.042 E2.25811
G1 X60.481 Y124.783 E2.28710
G1 X60.854 Y124.551 E2.31609
G1 X61.242 Y124.344 E2.34508
G1 X61.643 Y124.166 E2.37407
G1 X62.056 Y124.016 E2.40306
G1 X62.654 Y123.857 E2.44392
G1 X65.346 Y123.857 E2.62163
G1 X65.522 Y123.895 E2.63352
G1 X65.944 Y124.016 E2.66251
G1 X66.357 Y124.166 E2.69150
G1 X66.758 Y124.344 E2.72049
G1 X67.081 Y124.516 E2.74463
G1 X67.519 Y124.783 E2.77846
G1 X67.874 Y125.042 E2.80745
G1 X68.210 Y125.324 E2.83644
G1 X68.647 Y125.763 E2.87730
G1 X69.993 Y128.094 E3.05501
G1 X70.155 Y128.692 E3.09587
G1 X70.231 Y129.124 E3.12486
G1 X70.277 Y129.561 E3.15385
G1 X70.292 Y130.000 E3.18284
G1 X70.277 Y130.439 E3.21183
G1 X70.231 Y130.876 E3.24082
G1 X70.155 Y131.308 E3.26982
G1 X69.993 Y131.906 E3.31067
G1 X68.647 Y134.237 E3.48838
G1 X68.582 Y134.309 E3.49475
G1 X69.035 Y134.639 F7800.000
G1 X68.583 Y135.090 E3.53691 F378.000
G1 X68.217 Y135.398 E3.56847
G1 X67.830 Y135.679 E3.60003
G1 X67.425 Y135.932 E3.63159
G1 X67.003 Y136.157 E3.66315
G1 X66.566 Y136.351 E3.69471
G1 X66.117 Y136.515 E3.72627
G1 X65.405 Y136.700 E3.77483
G1 X62.595 Y136.700 E3.96028
G1 X62.343 Y136.646 E3.97731
G1 X61.883 Y136.515 E4.00887
G1 X61.434 Y136.351 E4.04043
G1 X61.066 Y136.193 E4.06683
G1 X60.575 Y135.932 E4.10356
G1 X60.170 Y135.679 E4.13512
G1 X59.783 Y135.398 E4.16668
G1 X59.417 Y135.090 E4.19824
G1 X58.900 Y134.567 E4.24681
G1 X57.495 Y132.133 E4.43225
G1 X57.300 Y131.424 E4.48082
G1 X57.217 Y130.953 E4.51237
G1 X57.167 Y130.478 E4.54393
G1 X57.150 Y130.000 E4.57549
G1 X57.167 Y129.522 E4.60705
G1 X57.217 Y129.047 E4.63861
G1 X57.300 Y128.576 E4.67017
G1 X57.495 Y127.867 E4.71873
G1 X58.900 Y125.433 E4.90418
G1 X59.073 Y125.242 E4.92121
G1 X59.417 Y124.910 E4.95277
G1 X59.783 Y124.602 E4.98433
G1 X60.170 Y124.321 E5.01589
G1 X60.575 Y124.068 E5.04745
G1 X60.997 Y123.843 E5.07901
G1 X61.434 Y123.649 E5.11057
G1 X61.883 Y123.485 E5.14213
G1 X62.595 Y123.300 E5.19069
G1 X65.405 Y123.300 E5.37614
G1 X65.657 Y123.354 E5.39317
G1 X66.117 Y123.485 E5.42473
G1 X66.566 Y123.649 E5.45629
G1 X67.003 Y123.843 E5.48785
G1 X67.425 Y124.068 E5.51940
G1 X67.830 Y124.321 E5.55096
G1 X68.217 Y124.602 E5.58252
G1 X68.583 Y124.910 E5.61408
G1 X69.100 Y125.433 E5.66265
G1 X70.505 Y127.867 E5.84809
G1 X70.700 Y128.576 E5.89666
G1 X70.783 Y129.047 E5.92822
G1 X70.833 Y129.522 E5.95978
G1 X70.850 Y130.000 E5.99133
G1 X70.833 Y130.478 E6.02289
G1 X70.783 Y130.953 E6.05445
G1 X70.700 Y131.424 E6.08601
G1 X70.505 Y132.133 E6.13458
G1 X69.091 Y134.577 E6.32090
G1 X68.487 Y134.541 F7800.000
G1 X69.826 Y129.094 F7800.000
G1 X64.982 Y124.251 E6.77539 F630.000
G1 X64.191 Y124.251 E6.82794
G1 X69.897 Y129.957 E7.36340
G1 X69.853 Y130.705 E7.41313
G1 X63.399 Y124.251 E8.01879
G1 X62.627 Y124.272 E8.06999
G1 X69.729 Y131.373 E8.73640
G1 X69.513 Y131.949 E8.77721
G1 X62.014 Y124.450 E9.48093
G1 X61.453 Y124.681 E9.52116
G1 X69.223 Y132.451 E10.25027
G1 X68.933 Y132.953 E10.28874
G1 X60.941 Y124.961 E11.03874
G1 X60.468 Y125.280 E11.07659
G1 X68.643 Y133.455 E11.84375
G1 X68.354 Y133.958 E11.88222
G1 X60.040 Y125.644 E12.66230
G1 X59.646 Y126.042 E12.69946
G1 X67.960 Y134.356 E13.47955
G1 X67.532 Y134.720 E13.51682
G1 X59.357 Y126.544 E14.28398
G1 X59.067 Y127.047 E14.32245
G1 X67.059 Y135.039 E15.07245
G1 X66.547 Y135.319 E15.11118
G1 X58.777 Y127.549 E15.84029
G1 X58.487 Y128.051 E15.87876
G1 X65.986 Y135.550 E16.58247
G1 X65.373 Y135.728 E16.62487
G1 X58.268 Y128.624 E17.29156
G1 X58.147 Y129.295 E17.33681
G1 X64.601 Y135.749 E17.94244
G1 X63.810 Y135.749 E17.99499
G1 X58.103 Y130.043 E18.53045
G1 X58.174 Y130.906 E18.58789
G1 X63.018 Y135.749 E19.04239
G1 X62.034 Y135.557 E19.10888
G1 X58.570 Y132.094 E19.43389
G1 X59.652 Y133.968 F7800.000
G1 X60.144 Y134.460 E19.48005 F630.000
G1 X69.429 Y127.906 F7800.000
G1 X65.966 Y124.443 E19.80505 F630.000
G1 X67.856 Y125.540 F7800.000
G1 X68.348 Y126.032 E19.85120 F630.000
G1 F2100.000 E18.95120
G92 E0
G1 X90.647 Y125.763 F7800.000
G1 E0.90000 F2100.000
G1 X91.993 Y128.094 E1.07771 F360.000
G1 X92.155 Y128.692 E1.11857
G1 X92.231 Y129.124 E1.14756
G1 X92.277 Y129.561 E1.17655
G1 X92.292 Y130.000 E1.20554
G1 X92.277 Y130.439 E1.23453
G1 X92.231 Y130.876 E1.26352
G1 X92.155 Y131.308 E1.29252
G1 X91.993 Y131.906 E1.33337
G1 X90.647 Y134.237 E1.51108
G1 X90.210 Y134.676 E1.55194
G1 X89.874 Y134.958 E1.58093
G1 X89.519 Y135.217 E1.60992
G1 X89.146 Y135.449 E1.63891
G1 X88.758 Y135.656 E1.66790
G1 X88.357 Y135.834 E1.69689
G1 X87.962 Y135.978 E1.72466
G1 X87.522 Y136.105 E1.75487
G1 X87.346 Y136.143 E1.76676
G1 X84.654 Y136.143 E1.94447
G1 X84.056 Y135.984 E1.98533
G1 X83.643 Y135.834 E2.01432
G1 X83.242 Y135.656 E2.04331
G1 X82.854 Y135.449 E2.07230
G1 X82.481 Y135.217 E2.10129
G1 X82.126 Y134.958 E2.13028
G1 X81.790 Y134.676 E2.15927
G1 X81.474 Y134.371 E2.18826
G1 X81.353 Y134.237 E2.20015
G1 X80.007 Y131.906 E2.37786
G1 X79.845 Y131.308 E2.41872
G1 X79.769 Y130.876 E2.44770
G1 X79.723 Y130.439 E2.47670
G1 X79.708 Y130.000 E2.50569
G1 X79.722 Y129.580 E2.53345
G1 X79.769 Y129.124 E2.56367
G1 X79.845 Y128.692 E2.59266
G1 X80.007 Y128.094 E2.63351
G1 X81.353 Y125.763 E2.81123
G1 X81.790 Y125.324 E2.85208
G1 X82.126 Y125.042 E2.88107
G1 X82.481 Y124.783 E2.91006
G1 X82.854 Y124.551 E2.93905
G1 X83.242 Y124.344 E2.96804
G1 X83.643 Y124.166 E2.99703
G1 X84.056 Y124.016 E3.02603
G1 X84.478 Y123.895 E3.05502
G1 X84.654 Y123.857 E3.06690
G1 X87.346 Y123.857 E3.24462
G1 X87.944 Y124.016 E3.28547
G1 X88.357 Y124.166 E3.31446
G1 X88.758 Y124.344 E3.34345
G1 X89.146 Y124.551 E3.37244
G1 X89.519 Y124.783 E3.40143
G1 X89.874 Y125.042 E3.43043
G1 X90.210 Y125.324 E3.45942
G1 X90.591 Y125.701 E3.49476
G1 X91.018 Y125.343 F7800.000
G1 X91.100 Y125.433 E3.50281 F378.000
G1 X92.505 Y127.867 E3.68825
G1 X92.700 Y128.576 E3.73682
G1 X92.783 Y129.047 E3.76838
G1 X92.833 Y129.522 E3.79994
G1 X92.850 Y130.000 E3.83150
G1 X92.833 Y130.478 E3.86306
G1 X92.783 Y130.953 E3.89462
G1 X92.700 Y131.424 E3.92618
G1 X92.505 Y132.133 E3.97474
G1 X91.100 Y134.567 E4.16018
G1 X90.583 Y135.090 E4.20875
G1 X90.217 Y135.398 E4.24031
G1 X89.830 Y135.679 E4.27187
G1 X89.425 Y135.932 E4.30343
G1 X89.003 Y136.157 E4.33499
G1 X88.566 Y136.351 E4.36654
G1 X88.117 Y136.515 E4.39810
G1 X87.657 Y136.646 E4.42966
G1 X87.405 Y136.700 E4.44670
G1 X84.595 Y136.700 E4.63214
G1 X83.883 Y136.515 E4.68071
G1 X83.434 Y136.351 E4.71227
G1 X83.066 Y136.193 E4.73866
G1 X82.575 Y135.932 E4.77540
G1 X82.170 Y135.679 E4.80696
G1 X81.783 Y135.398 E4.83852
G1 X81.417 Y135.090 E4.87008
G1 X81.073 Y134.758 E4.90163
G1 X80.900 Y134.567 E4.91867
G1 X79.495 Y132.133 E5.10411
G1 X79.300 Y131.424 E5.15268
G1 X79.217 Y130.953 E5.18424
G1 X79.167 Y130.478 E5.21580
G1 X79.150 Y130.000 E5.24735
G1 X79.166 Y129.560 E5.27640
G1 X79.217 Y129.047 E5.31047
G1 X79.300 Y128.576 E5.34203
G1 X79.495 Y127.867 E5.39059
G1 X80.900 Y125.433 E5.57604
G1 X81.417 Y124.910 E5.62460
G1 X81.783 Y124.602 E5.65616
G1 X82.170 Y124.321 E5.68772
G1 X82.575 Y124.068 E5.71928
G1 X82.997 Y123.843 E5.75084
G1 X83.434 Y123.649 E5.78240
G1 X83.883 Y123.485 E5.81396
G1 X84.343 Y123.354 E5.84551
G1 X84.595 Y123.300 E5.86255
G1 X87.405 Y123.300 E6.04799
G1 X88.117 Y123.485 E6.09656
G1 X88.566 Y123.649 E6.12812
G1 X89.003 Y123.843 E6.15968
G1 X89.425 Y124.068 E6.19123
G1 X89.830 Y124.321 E6.22279
G1 X90.217 Y124.602 E6.25435
G1 X90.583 Y124.910 E6.28591
G1 X90.963 Y125.281 E6.32093
G1 X90.983 Y125.460 F7800.000
G1 X90.348 Y126.032 F7800.000
G1 X89.856 Y125.540 E6.36708 F630.000
G1 X87.966 Y124.443 F7800.000
G1 X91.429 Y127.906 E6.69208 F630.000
G1 X91.826 Y129.094 F7800.000
G1 X86.982 Y124.251 E7.14658 F630.000
G1 X86.191 Y124.251 E7.19913
G1 X91.897 Y129.957 E7.73458
G1 X91.853 Y130.705 E7.78431
G1 X85.399 Y124.251 E8.38998
G1 X84.627 Y124.272 E8.44117
G1 X91.729 Y131.373 E9.10759
G1 X91.513 Y131.949 E9.14840
G1 X84.014 Y124.450 E9.85211
G1 X83.453 Y124.681 E9.89235
G1 X91.223 Y132.451 E10.62146
G1 X90.933 Y132.953 E10.65992
G1 X82.941 Y124.961 E11.40992
G1 X82.468 Y125.280 E11.44777
G1 X90.643 Y133.455 E12.21494
G1 X90.354 Y133.958 E12.25340
G1 X82.040 Y125.644 E13.03349
G1 X81.646 Y126.042 E13.07065
G1 X89.960 Y134.356 E13.85073
G1 X89.532 Y134.720 E13.88801
G1 X81.357 Y126.544 E14.65517
G1 X81.067 Y127.047 E14.69364
G1 X89.059 Y135.039 E15.44364
G1 X88.547 Y135.319 E15.48237
G1 X80.777 Y127.549 E16.21148
G1 X80.487 Y128.051 E16.24995
G1 X87.986 Y135.550 E16.95366
G1 X87.373 Y135.728 E16.99606
G1 X80.268 Y128.624 E17.66274
G1 X80.147 Y129.295 E17.70799
G1 X86.601 Y135.749 E18.31363
G1 X85.810 Y135.749 E18.36618
