; generated by Slic3r 1.0.0RC3 on 2014-04-14 at 13:06:39

; layer_height = 0.25
; perimeters = 2
; top_solid_layers = 2
; bottom_solid_layers = 2
; fill_density = .4
; perimeter_speed = 30
; infill_speed = 60
; travel_speed = 110
; nozzle_diameter = 0.4
; filament_diameter = 1.7
; extrusion_multiplier = .96
; perimeters extrusion width = 0.40mm
; infill extrusion width = 0.53mm
; solid infill extrusion width = 0.53mm
; top infill extrusion width = 0.53mm
; first layer extrusion width = 0.50mm

G21 ; set units to millimeters
M107
M190 S65 ; wait for bed temperature to be reached
M104 S220 ; set temperature
G28 ; home all axes
G1 Z5 F5000 ; lift nozzle
M109 S220 ; wait for temperature to be reached
G90 ; use absolute coordinates
G92 E0
M82 ; use absolute distances for extrusion
G1 F2100.000 E-0.90000
G92 E0
G1 Z0.250 F6600.000
G1 X55.636 Y64.702 F6600.000
G1 E0.90000 F2100.000
G1 X56.446 Y64.062 E0.95223 F540.000
G1 X57.016 Y63.652 E0.98776
G1 X57.846 Y63.162 E1.03653
G1 X58.356 Y62.892 E1.06573
G1 X58.946 Y62.612 E1.09878
G1 X59.886 Y62.232 E1.15008
G1 X60.356 Y62.072 E1.17520
G1 X61.386 Y61.792 E1.22921
G1 X62.116 Y61.642 E1.26692
G1 X62.856 Y61.562 E1.30458
G1 X80.116 Y60.692 E2.17902
G1 X88.426 Y60.682 E2.59950
G1 X89.976 Y60.852 E2.67840
G1 X91.446 Y61.332 E2.75665
G1 X92.796 Y62.102 E2.83529
G1 X93.946 Y63.142 E2.91374
G1 X94.866 Y64.402 E2.99268
G1 X98.836 Y71.272 E3.39416
G1 X99.466 Y72.692 E3.47277
G1 X99.786 Y74.212 E3.55136
G1 X99.796 Y75.772 E3.63030
G1 X99.466 Y77.292 E3.70900
G1 X98.836 Y78.712 E3.78761
G1 X94.866 Y85.592 E4.18953
G1 X93.956 Y86.842 E4.26776
G1 X92.796 Y87.882 E4.34659
G1 X91.446 Y88.662 E4.42548
G1 X89.976 Y89.142 E4.50373
G1 X88.426 Y89.312 E4.58263
G1 X80.106 Y89.302 E5.00361
G1 X62.846 Y88.422 E5.87808
G1 X62.186 Y88.352 E5.91166
G1 X61.536 Y88.232 E5.94511
G1 X61.066 Y88.122 E5.96953
G1 X60.356 Y87.922 E6.00686
G1 X59.886 Y87.762 E6.03198
G1 X58.946 Y87.382 E6.08328
G1 X57.956 Y86.892 E6.13917
G1 X57.376 Y86.552 E6.17319
G1 X56.536 Y86.002 E6.22400
G1 X56.146 Y85.712 E6.24859
G1 X55.266 Y84.962 E6.30709
G1 X54.546 Y84.242 E6.35861
G1 X53.946 Y83.542 E6.40526
G1 X53.436 Y82.782 E6.45157
G1 X52.206 Y80.652 E6.57603
G1 X51.786 Y79.802 E6.62400
G1 X51.476 Y78.912 E6.67169
G1 X51.346 Y78.442 E6.69636
G1 X51.136 Y77.502 E6.74510
G1 X51.036 Y76.882 E6.77688
G1 X50.926 Y75.792 E6.83231
G1 X50.906 Y74.692 E6.88798
G1 X50.966 Y73.702 E6.93816
G1 X51.016 Y73.242 E6.96157
G1 X51.136 Y72.472 E7.00101
G1 X51.246 Y71.962 E7.02741
G1 X51.476 Y71.082 E7.07343
G1 X51.786 Y70.192 E7.12111
G1 X52.206 Y69.342 E7.16909
G1 X53.436 Y67.212 E7.29354
G1 X53.946 Y66.452 E7.33985
G1 X54.546 Y65.752 E7.38650
G1 X55.266 Y65.032 E7.43803
G1 X55.582 Y64.750 E7.45948
G1 X55.956 Y65.062 F6600.000
G1 X56.736 Y64.442 E7.50990 F540.000
G1 X57.276 Y64.062 E7.54331
G1 X58.066 Y63.582 E7.59008
G1 X58.576 Y63.312 E7.61928
G1 X59.576 Y62.862 E7.67476
G1 X60.516 Y62.522 E7.72534
G1 X61.506 Y62.252 E7.77727
G1 X62.186 Y62.112 E7.81239
G1 X62.876 Y62.042 E7.84749
G1 X80.136 Y61.172 E8.72193
G1 X88.426 Y61.162 E9.14140
G1 X89.876 Y61.312 E9.21516
G1 X91.256 Y61.762 E9.28860
G1 X92.516 Y62.492 E9.36229
G1 X93.596 Y63.462 E9.43574
G1 X94.446 Y64.642 E9.50932
G1 X98.416 Y71.512 E9.91081
G1 X99.016 Y72.842 E9.98463
G1 X99.316 Y74.262 E10.05807
G1 X99.316 Y75.722 E10.13194
G1 X99.016 Y77.142 E10.20538
G1 X98.426 Y78.472 E10.27900
G1 X94.456 Y85.352 E10.68092
G1 X93.596 Y86.522 E10.75440
G1 X92.516 Y87.502 E10.82819
G1 X91.256 Y88.232 E10.90187
G1 X89.876 Y88.672 E10.97516
G1 X88.426 Y88.832 E11.04897
G1 X80.136 Y88.822 E11.46844
G1 X62.876 Y87.942 E12.34291
G1 X62.256 Y87.882 E12.37443
G1 X61.636 Y87.762 E12.40638
G1 X60.516 Y87.472 E12.46492
G1 X60.046 Y87.312 E12.49004
G1 X59.126 Y86.942 E12.54022
G1 X58.176 Y86.472 E12.59385
G1 X57.636 Y86.152 E12.62561
G1 X56.826 Y85.612 E12.67487
G1 X55.956 Y84.932 E12.73074
G1 X55.226 Y84.262 E12.78088
G1 X54.886 Y83.912 E12.80557
G1 X54.326 Y83.262 E12.84898
G1 X53.856 Y82.542 E12.89248
G1 X52.626 Y80.412 E13.01694
G1 X52.226 Y79.622 E13.06174
G1 X51.936 Y78.782 E13.10671
G1 X51.806 Y78.312 E13.13138
G1 X51.606 Y77.402 E13.17853
G1 X51.506 Y76.832 E13.20781
G1 X51.446 Y76.342 E13.23279
G1 X51.406 Y75.772 E13.26170
G1 X51.386 Y74.712 E13.31534
G1 X51.436 Y73.752 E13.36399
G1 X51.486 Y73.292 E13.38740
G1 X51.606 Y72.572 E13.42433
G1 X51.716 Y72.062 E13.45073
G1 X51.936 Y71.212 E13.49516
G1 X52.226 Y70.372 E13.54012
G1 X52.626 Y69.582 E13.58493
G1 X53.856 Y67.452 E13.70938
G1 X54.326 Y66.732 E13.75289
G1 X54.886 Y66.082 E13.79630
G1 X55.226 Y65.732 E13.82099
G1 X55.902 Y65.110 E13.86750
G1 X56.276 Y65.422 F6600.000
G1 X56.636 Y65.112 E13.89153 F540.000
G1 X57.026 Y64.812 E13.91643
G1 X57.526 Y64.472 E13.94702
G1 X58.296 Y64.002 E13.99267
G1 X58.806 Y63.732 E14.02187
G1 X59.766 Y63.302 E14.07509
G1 X60.666 Y62.982 E14.12343
G1 X61.626 Y62.712 E14.17389
G1 X62.256 Y62.582 E14.20643
G1 X62.896 Y62.522 E14.23896
G1 X80.486 Y61.642 E15.13011
G1 X88.426 Y61.642 E15.53186
G1 X89.776 Y61.782 E15.60054
G1 X91.056 Y62.202 E15.66870
G1 X92.236 Y62.882 E15.73762
G1 X93.236 Y63.782 E15.80569
G1 X94.036 Y64.882 E15.87451
G1 X98.006 Y71.752 E16.27599
G1 X98.556 Y72.992 E16.34463
G1 X98.836 Y74.312 E16.41291
G1 X98.836 Y75.672 E16.48172
G1 X98.556 Y76.992 E16.55000
G1 X98.006 Y78.232 E16.61864
G1 X94.036 Y85.112 E17.02056
G1 X93.246 Y86.202 E17.08867
G1 X92.236 Y87.112 E17.15746
G1 X91.066 Y87.792 E17.22593
G1 X89.776 Y88.212 E17.29458
G1 X88.426 Y88.352 E17.36325
G1 X80.156 Y88.342 E17.78171
G1 X62.896 Y87.462 E18.65618
G1 X62.316 Y87.402 E18.68568
G1 X61.746 Y87.302 E18.71497
G1 X61.276 Y87.192 E18.73939
G1 X60.196 Y86.852 E18.79668
G1 X59.316 Y86.502 E18.84460
G1 X58.396 Y86.042 E18.89665
G1 X57.896 Y85.752 E18.92589
G1 X57.106 Y85.232 E18.97375
G1 X56.716 Y84.942 E18.99834
G1 X55.906 Y84.242 E19.05251
G1 X55.226 Y83.572 E19.10081
G1 X54.706 Y82.972 E19.14099
G1 X54.266 Y82.302 E19.18154
G1 X53.036 Y80.172 E19.30600
G1 X52.666 Y79.432 E19.34786
G1 X52.406 Y78.662 E19.38899
G1 X52.176 Y77.782 E19.43501
G1 X51.986 Y76.772 E19.48701
G1 X51.926 Y76.282 E19.51199
G1 X51.866 Y75.252 E19.56419
G1 X51.866 Y74.732 E19.59050
G1 X51.916 Y73.802 E19.63763
G1 X51.966 Y73.342 E19.66104
G1 X52.076 Y72.672 E19.69540
G1 X52.186 Y72.162 E19.72180
G1 X52.406 Y71.332 E19.76524
G1 X52.666 Y70.562 E19.80637
G1 X53.036 Y69.822 E19.84823
G1 X54.266 Y67.692 E19.97268
G1 X54.706 Y67.022 E20.01324
G1 X55.226 Y66.422 E20.05342
G1 X55.566 Y66.072 E20.07811
G1 X56.222 Y65.470 E20.12318
G1 F2100.000 E19.22318
G92 E0
G1 X58.885 Y68.250 F6600.000
G1 E0.90000 F2100.000
G1 X59.438 Y67.829 E0.93519 F540.000
G1 X59.945 Y67.495 E0.96592
G1 X60.662 Y67.111 E1.00707
G1 X61.408 Y66.793 E1.04812
G1 X62.079 Y66.574 E1.08380
G1 X62.759 Y66.406 E1.11924
G1 X63.075 Y66.368 E1.13535
G1 X65.853 Y66.368 E1.27594
G1 X66.169 Y66.406 E1.29205
G1 X66.850 Y66.574 E1.32749
G1 X67.619 Y66.831 E1.36853
G1 X68.170 Y67.066 E1.39886
G1 X68.797 Y67.390 E1.43455
G1 X69.482 Y67.823 E1.47558
G1 X70.044 Y68.250 E1.51128
G1 X70.492 Y68.648 E1.54160
G1 X71.054 Y69.226 E1.58239
G1 X71.245 Y69.481 E1.59850
G1 X72.634 Y71.887 E1.73910
G1 X72.759 Y72.180 E1.75521
G1 X72.979 Y72.956 E1.79601
G1 X73.099 Y73.543 E1.82634
G1 X73.185 Y74.216 E1.86065
G1 X73.861 Y74.354 E1.89553
G1 X78.569 Y66.199 E2.37197
G1 X79.790 Y65.494 E2.44334
G1 X89.138 Y65.494 E2.91633
G1 X90.360 Y66.199 E2.98770
G1 X95.034 Y74.295 E3.46070
G1 X95.034 Y75.705 E3.53207
G1 X90.360 Y83.801 E4.00506
G1 X89.138 Y84.506 E4.07643
G1 X79.790 Y84.506 E4.54943
G1 X78.569 Y83.801 E4.62080
G1 X73.861 Y75.646 E5.09723
G1 X73.185 Y75.784 E5.13212
G1 X73.099 Y76.457 E5.16643
G1 X72.979 Y77.044 E5.19675
G1 X72.759 Y77.820 E5.23756
G1 X72.634 Y78.113 E5.25367
G1 X71.245 Y80.519 E5.39426
G1 X71.054 Y80.774 E5.41037
G1 X70.492 Y81.352 E5.45117
G1 X69.961 Y81.817 E5.48686
G1 X69.482 Y82.177 E5.51718
G1 X68.797 Y82.610 E5.55822
G1 X68.170 Y82.934 E5.59391
G1 X67.619 Y83.169 E5.62423
G1 X66.951 Y83.396 E5.65991
G1 X66.169 Y83.594 E5.70071
G1 X65.853 Y83.632 E5.71682
G1 X63.075 Y83.632 E5.85742
G1 X62.759 Y83.594 E5.87353
G1 X62.079 Y83.426 E5.90897
G1 X61.408 Y83.207 E5.94465
G1 X60.662 Y82.889 E5.98570
G1 X60.040 Y82.557 E6.02138
G1 X59.446 Y82.177 E6.05706
G1 X58.885 Y81.750 E6.09275
G1 X58.436 Y81.352 E6.12307
G1 X57.875 Y80.774 E6.16387
G1 X57.683 Y80.519 E6.17998
G1 X56.294 Y78.113 E6.32057
G1 X56.169 Y77.820 E6.33668
G1 X55.974 Y77.147 E6.37212
G1 X55.812 Y76.352 E6.41317
G1 X55.731 Y75.652 E6.44885
G1 X55.707 Y74.947 E6.48454
G1 X55.740 Y74.243 E6.52021
G1 X55.824 Y73.582 E6.55391
G1 X55.973 Y72.856 E6.59143
G1 X56.169 Y72.180 E6.62703
G1 X56.294 Y71.887 E6.64313
G1 X57.683 Y69.481 E6.78373
G1 X57.875 Y69.226 E6.79984
G1 X58.360 Y68.721 E6.83528
G1 X58.831 Y68.298 E6.86732
G1 X59.195 Y68.615 F6600.000
G1 X59.719 Y68.216 E6.90065 F540.000
G1 X60.197 Y67.901 E6.92962
G1 X60.876 Y67.539 E6.96854
G1 X61.488 Y67.275 E7.00228
G1 X62.203 Y67.036 E7.04040
G1 X62.845 Y66.878 E7.07388
G1 X63.104 Y66.847 E7.08706
G1 X65.824 Y66.847 E7.22473
G1 X66.083 Y66.878 E7.23791
G1 X66.726 Y67.036 E7.27140
G1 X67.359 Y67.244 E7.30513
G1 X67.974 Y67.502 E7.33886
G1 X68.566 Y67.809 E7.37260
G1 X69.131 Y68.162 E7.40633
G1 X69.666 Y68.560 E7.44007
G1 X70.168 Y69.000 E7.47380
G1 X70.688 Y69.537 E7.51167
G1 X70.845 Y69.745 E7.52485
G1 X72.205 Y72.101 E7.66252
G1 X72.307 Y72.341 E7.67570
G1 X72.512 Y73.061 E7.71357
G1 X72.642 Y73.715 E7.74731
G1 X72.719 Y74.377 E7.78104
G1 X72.743 Y74.957 E7.81038
G1 X72.719 Y75.623 E7.84412
G1 X72.642 Y76.285 E7.87785
G1 X72.512 Y76.939 E7.91159
G1 X72.307 Y77.659 E7.94946
G1 X72.205 Y77.899 E7.96264
G1 X70.845 Y80.255 E8.10031
G1 X70.688 Y80.463 E8.11349
G1 X70.230 Y80.940 E8.14698
G1 X69.733 Y81.385 E8.18071
G1 X69.131 Y81.838 E8.21883
G1 X68.566 Y82.191 E8.25256
G1 X68.052 Y82.461 E8.28191
G1 X67.440 Y82.725 E8.31565
G1 X66.726 Y82.964 E8.35376
G1 X66.083 Y83.122 E8.38725
G1 X65.824 Y83.153 E8.40043
G1 X63.104 Y83.153 E8.53810
G1 X62.845 Y83.122 E8.55128
G1 X62.203 Y82.964 E8.58476
G1 X61.569 Y82.756 E8.61850
G1 X60.954 Y82.498 E8.65223
G1 X60.362 Y82.191 E8.68597
G1 X59.797 Y81.838 E8.71970
G1 X59.262 Y81.440 E8.75343
G1 X58.761 Y81.000 E8.78717
G1 X58.240 Y80.463 E8.82504
G1 X58.083 Y80.255 E8.83822
G1 X56.723 Y77.899 E8.97588
G1 X56.621 Y77.659 E8.98906
G1 X56.416 Y76.939 E9.02694
G1 X56.286 Y76.285 E9.06068
G1 X56.209 Y75.623 E9.09440
G1 X56.186 Y75.043 E9.12375
G1 X56.209 Y74.377 E9.15749
G1 X56.282 Y73.747 E9.18956
G1 X56.414 Y73.068 E9.22457
G1 X56.621 Y72.341 E9.26283
G1 X56.723 Y72.101 E9.27601
G1 X58.083 Y69.745 E9.41367
G1 X58.240 Y69.537 E9.42685
G1 X58.698 Y69.060 E9.46034
G1 X59.141 Y68.663 E9.49044
G1 X59.505 Y68.980 F6600.000
G1 X60.000 Y68.604 E9.52190 F540.000
G1 X60.449 Y68.308 E9.54910
G1 X61.090 Y67.968 E9.58580
G1 X61.667 Y67.719 E9.61759
G1 X62.326 Y67.499 E9.65278
G1 X62.932 Y67.350 E9.68432
G1 X63.133 Y67.325 E9.69457
G1 X65.796 Y67.325 E9.82930
G1 X65.997 Y67.350 E9.83956
G1 X66.602 Y67.499 E9.87109
G1 X67.198 Y67.695 E9.90287
G1 X67.777 Y67.939 E9.93466
G1 X68.335 Y68.228 E9.96644
G1 X68.867 Y68.562 E9.99823
G1 X69.371 Y68.937 E10.03001
G1 X69.843 Y69.351 E10.06180
G1 X70.323 Y69.848 E10.09674
G1 X70.445 Y70.010 E10.10699
G1 X71.776 Y72.316 E10.24173
G1 X71.856 Y72.502 E10.25198
G1 X72.045 Y73.166 E10.28693
G1 X72.168 Y73.782 E10.31871
G1 X72.241 Y74.406 E10.35049
G1 X72.264 Y74.966 E10.37886
G1 X72.241 Y75.594 E10.41065
G1 X72.168 Y76.218 E10.44243
G1 X72.045 Y76.834 E10.47421
G1 X71.856 Y77.498 E10.50916
G1 X71.776 Y77.684 E10.51941
G1 X70.445 Y79.990 E10.65415
G1 X70.323 Y80.152 E10.66440
G1 X69.892 Y80.602 E10.69594
G1 X69.423 Y81.020 E10.72771
G1 X68.867 Y81.438 E10.76291
G1 X68.393 Y81.738 E10.79128
G1 X67.838 Y82.032 E10.82307
G1 X67.261 Y82.281 E10.85485
G1 X66.602 Y82.501 E10.89005
G1 X65.997 Y82.650 E10.92158
G1 X65.796 Y82.675 E10.93183
G1 X63.133 Y82.675 E11.06657
G1 X62.932 Y82.650 E11.07682
G1 X62.326 Y82.501 E11.10835
G1 X61.730 Y82.305 E11.14014
G1 X61.151 Y82.061 E11.17192
G1 X60.593 Y81.772 E11.20371
G1 X60.061 Y81.438 E11.23549
G1 X59.557 Y81.063 E11.26727
G1 X59.085 Y80.649 E11.29906
G1 X58.605 Y80.152 E11.33400
G1 X58.483 Y79.990 E11.34425
G1 X57.152 Y77.684 E11.47899
G1 X57.072 Y77.498 E11.48924
G1 X56.883 Y76.834 E11.52419
G1 X56.760 Y76.218 E11.55598
G1 X56.692 Y75.661 E11.58435
G1 X56.664 Y75.034 E11.61612
G1 X56.687 Y74.406 E11.64791
G1 X56.756 Y73.814 E11.67806
G1 X56.881 Y73.172 E11.71118
G1 X57.072 Y72.502 E11.74642
G1 X57.152 Y72.316 E11.75667
G1 X58.483 Y70.010 E11.89141
G1 X58.605 Y69.848 E11.90166
G1 X59.037 Y69.398 E11.93320
G1 X59.451 Y69.027 E11.96134
G1 X59.815 Y69.344 F6600.000
G1 X60.282 Y68.991 E11.99095 F540.000
G1 X60.702 Y68.715 E12.01638
G1 X61.304 Y68.396 E12.05086
G1 X61.890 Y68.146 E12.08313
G1 X62.450 Y67.961 E12.11296
G1 X63.018 Y67.821 E12.14254
G1 X63.162 Y67.804 E12.14987
G1 X65.767 Y67.804 E12.28167
G1 X65.910 Y67.821 E12.28900
G1 X66.478 Y67.961 E12.31858
G1 X67.038 Y68.146 E12.34841
G1 X67.581 Y68.375 E12.37825
G1 X68.104 Y68.647 E12.40808
G1 X68.603 Y68.961 E12.43791
G1 X69.076 Y69.314 E12.46775
G1 X69.518 Y69.703 E12.49758
G1 X69.958 Y70.158 E12.52960
G1 X70.045 Y70.274 E12.53692
G1 X71.348 Y72.530 E12.66873
G1 X71.404 Y72.663 E12.67605
G1 X71.578 Y73.271 E12.70807
G1 X71.695 Y73.849 E12.73791
G1 X71.764 Y74.435 E12.76773
G1 X71.785 Y74.976 E12.79513
G1 X71.764 Y75.565 E12.82497
G1 X71.695 Y76.151 E12.85480
G1 X71.578 Y76.729 E12.88463
G1 X71.404 Y77.337 E12.91665
G1 X71.348 Y77.470 E12.92398
G1 X70.045 Y79.726 E13.05578
G1 X69.958 Y79.842 E13.06311
G1 X69.553 Y80.263 E13.09269
G1 X69.113 Y80.656 E13.12252
G1 X68.603 Y81.039 E13.15479
G1 X68.146 Y81.328 E13.18219
G1 X67.625 Y81.604 E13.21202
G1 X67.083 Y81.837 E13.24186
G1 X66.478 Y82.039 E13.27412
G1 X65.910 Y82.179 E13.30370
G1 X65.767 Y82.196 E13.31103
G1 X63.162 Y82.196 E13.44283
G1 X63.018 Y82.179 E13.45016
G1 X62.450 Y82.039 E13.47974
G1 X61.890 Y81.854 E13.50957
G1 X61.347 Y81.625 E13.53941
G1 X60.824 Y81.353 E13.56924
G1 X60.325 Y81.039 E13.59907
G1 X59.852 Y80.686 E13.62891
G1 X59.410 Y80.297 E13.65874
G1 X58.970 Y79.842 E13.69076
G1 X58.883 Y79.726 E13.69808
G1 X57.581 Y77.470 E13.82989
G1 X57.524 Y77.337 E13.83721
G1 X57.350 Y76.729 E13.86923
G1 X57.234 Y76.151 E13.89907
G1 X57.165 Y75.565 E13.92889
G1 X57.143 Y75.024 E13.95629
G1 X57.165 Y74.435 E13.98613
G1 X57.230 Y73.881 E14.01436
G1 X57.349 Y73.275 E14.04558
G1 X57.524 Y72.663 E14.07781
G1 X57.581 Y72.530 E14.08513
G1 X58.883 Y70.274 E14.21694
G1 X58.970 Y70.158 E14.22426
G1 X59.375 Y69.737 E14.25384
G1 X59.761 Y69.392 E14.28004
G1 X60.125 Y69.709 F6600.000
G1 X60.563 Y69.378 E14.30779 F540.000
G1 X60.954 Y69.122 E14.33146
G1 X61.518 Y68.824 E14.36371
G1 X62.024 Y68.607 E14.39159
G1 X62.574 Y68.423 E14.42094
G1 X63.191 Y68.282 E14.45293
G1 X65.738 Y68.282 E14.58181
G1 X66.354 Y68.423 E14.61380
G1 X66.877 Y68.597 E14.64169
G1 X67.385 Y68.812 E14.66957
G1 X67.873 Y69.067 E14.69746
G1 X68.339 Y69.360 E14.72534
G1 X68.781 Y69.690 E14.75322
G1 X69.194 Y70.055 E14.78111
G1 X69.593 Y70.469 E14.81020
G1 X70.953 Y72.824 E14.94780
G1 X71.112 Y73.376 E14.97689
G1 X71.221 Y73.917 E15.00477
G1 X71.284 Y74.435 E15.03119
G1 X71.307 Y74.986 E15.05908
G1 X71.286 Y75.536 E15.08696
G1 X71.221 Y76.083 E15.11484
G1 X71.112 Y76.624 E15.14273
G1 X70.919 Y77.256 E15.17618
G1 X69.645 Y79.462 E15.30506
G1 X69.215 Y79.925 E15.33706
G1 X68.803 Y80.291 E15.36494
G1 X68.339 Y80.640 E15.39428
G1 X67.873 Y80.933 E15.42217
G1 X67.411 Y81.176 E15.44859
G1 X66.877 Y81.403 E15.47794
G1 X66.354 Y81.577 E15.50582
G1 X65.738 Y81.718 E15.53781
G1 X63.191 Y81.718 E15.66669
G1 X62.574 Y81.577 E15.69869
G1 X62.051 Y81.403 E15.72657
G1 X61.544 Y81.188 E15.75445
G1 X61.055 Y80.933 E15.78234
G1 X60.589 Y80.640 E15.81022
G1 X60.148 Y80.310 E15.83810
G1 X59.734 Y79.945 E15.86599
G1 X59.335 Y79.531 E15.89508
G1 X57.976 Y77.176 E16.03268
G1 X57.817 Y76.624 E16.06177
G1 X57.708 Y76.083 E16.08966
G1 X57.645 Y75.565 E16.11608
G1 X57.621 Y75.014 E16.14396
G1 X57.642 Y74.464 E16.17184
G1 X57.708 Y73.921 E16.19953
G1 X57.816 Y73.379 E16.22748
