; generated by Slic3r 1.0.0RC3 on 2014-04-14 at 19:33:12

; layer_height = 0.25
; perimeters = 2
; top_solid_layers = 2
; bottom_solid_layers = 2
; fill_density = .4
; perimeter_speed = 30
; infill_speed = 60
; travel_speed = 110
; nozzle_diameter = 0.4
; filament_diameter = 1.7
; extrusion_multiplier = .96
; perimeters extrusion width = 0.40mm
; infill extrusion width = 0.53mm
; solid infill extrusion width = 0.53mm
; top infill extrusion width = 0.53mm
; first layer extrusion width = 0.50mm

G21 ; set units to millimeters
M107
M190 S65 ; wait for bed temperature to be reached
M104 S220 ; set temperature
G28 ; home all axes
G1 Z5 F5000 ; lift nozzle
M109 S220 ; wait for temperature to be reached
G90 ; use absolute coordinates
G92 E0
M82 ; use absolute distances for extrusion
G1 F2100.000 E-0.90000
G92 E0
G1 Z0.250 F6600.000
G1 X55.266 Y58.032 F6600.000
G1 E0.90000 F2100.000
G1 X56.056 Y57.362 E0.95241 F540.000
G1 X57.016 Y56.652 E1.01283
G1 X57.366 Y56.432 E1.03375
G1 X58.356 Y55.892 E1.09081
G1 X59.396 Y55.422 E1.14855
G1 X60.356 Y55.072 E1.20026
G1 X61.386 Y54.792 E1.25427
G1 X62.116 Y54.642 E1.29197
G1 X62.856 Y54.562 E1.32964
G1 X80.126 Y53.692 E2.20459
G1 X88.426 Y53.682 E2.62456
G1 X89.976 Y53.852 E2.70346
G1 X91.446 Y54.332 E2.78170
G1 X92.796 Y55.102 E2.86034
G1 X93.946 Y56.142 E2.93880
G1 X94.866 Y57.402 E3.01774
G1 X98.836 Y64.272 E3.41922
G1 X99.576 Y66.062 E3.51723
G1 X99.836 Y67.992 E3.61577
G1 X99.836 Y81.992 E4.32415
G1 X99.576 Y83.912 E4.42219
G1 X98.836 Y85.712 E4.52066
G1 X94.866 Y92.592 E4.92258
G1 X93.956 Y93.842 E5.00082
G1 X92.796 Y94.882 E5.07965
G1 X91.446 Y95.662 E5.15854
G1 X89.976 Y96.142 E5.23678
G1 X88.426 Y96.312 E5.31568
G1 X80.116 Y96.302 E5.73616
G1 X62.846 Y95.422 E6.61114
G1 X62.186 Y95.352 E6.64472
G1 X61.536 Y95.232 E6.67816
G1 X61.066 Y95.122 E6.70259
G1 X60.356 Y94.922 E6.73991
G1 X59.396 Y94.572 E6.79161
G1 X58.396 Y94.122 E6.84710
G1 X57.956 Y93.892 E6.87222
G1 X57.376 Y93.552 E6.90624
G1 X56.536 Y93.002 E6.95704
G1 X56.146 Y92.712 E6.98164
G1 X55.266 Y91.962 E7.04014
G1 X54.546 Y91.242 E7.09166
G1 X53.946 Y90.542 E7.13831
G1 X53.436 Y89.782 E7.18462
G1 X52.206 Y87.652 E7.30908
G1 X51.786 Y86.802 E7.35705
G1 X51.476 Y85.912 E7.40474
G1 X51.346 Y85.442 E7.42941
G1 X51.136 Y84.502 E7.47815
G1 X50.976 Y83.392 E7.53489
G1 X50.926 Y82.792 E7.56536
G1 X50.896 Y81.992 E7.60587
G1 X50.896 Y67.992 E8.31425
G1 X50.926 Y67.202 E8.35425
G1 X50.966 Y66.702 E8.37963
G1 X51.016 Y66.242 E8.40305
G1 X51.136 Y65.472 E8.44248
G1 X51.346 Y64.552 E8.49023
G1 X51.476 Y64.082 E8.51490
G1 X51.786 Y63.192 E8.56259
G1 X52.206 Y62.342 E8.61056
G1 X53.436 Y60.212 E8.73501
G1 X53.946 Y59.452 E8.78133
G1 X54.546 Y58.752 E8.82798
G1 X55.214 Y58.082 E8.87587
G1 X55.586 Y58.392 F6600.000
G1 X56.346 Y57.742 E8.92647 F540.000
G1 X57.276 Y57.062 E8.98476
G1 X58.066 Y56.582 E9.03153
G1 X58.576 Y56.312 E9.06073
G1 X59.126 Y56.052 E9.09152
G1 X60.046 Y55.682 E9.14169
G1 X61.036 Y55.372 E9.19418
G1 X61.506 Y55.252 E9.21873
G1 X62.186 Y55.112 E9.25385
G1 X62.876 Y55.042 E9.28895
G1 X80.146 Y54.172 E10.16390
G1 X88.426 Y54.162 E10.58286
G1 X89.876 Y54.312 E10.65662
G1 X91.256 Y54.762 E10.73006
G1 X92.516 Y55.492 E10.80375
G1 X93.596 Y56.462 E10.87720
G1 X94.446 Y57.642 E10.95078
G1 X98.416 Y64.512 E11.35227
G1 X99.116 Y66.192 E11.44436
G1 X99.356 Y67.992 E11.53624
G1 X99.356 Y81.992 E12.24463
G1 X99.116 Y83.792 E12.33651
G1 X98.426 Y85.472 E12.42841
G1 X94.456 Y92.352 E12.83033
G1 X93.596 Y93.522 E12.90380
G1 X92.516 Y94.502 E12.97759
G1 X91.256 Y95.232 E13.05127
G1 X89.876 Y95.672 E13.12456
G1 X88.426 Y95.832 E13.19838
G1 X80.146 Y95.822 E13.61734
G1 X62.876 Y94.942 E14.49231
G1 X62.256 Y94.882 E14.52383
G1 X61.166 Y94.652 E14.58020
G1 X60.516 Y94.472 E14.61433
G1 X59.576 Y94.132 E14.66490
G1 X58.616 Y93.702 E14.71813
G1 X58.176 Y93.472 E14.74325
G1 X57.636 Y93.152 E14.77501
G1 X56.826 Y92.612 E14.82427
G1 X55.956 Y91.932 E14.88014
G1 X55.586 Y91.602 E14.90523
G1 X54.886 Y90.912 E14.95496
G1 X54.326 Y90.262 E14.99837
G1 X53.856 Y89.542 E15.04188
G1 X52.626 Y87.412 E15.16634
G1 X52.226 Y86.622 E15.21114
G1 X51.936 Y85.782 E15.25611
G1 X51.806 Y85.312 E15.28078
G1 X51.606 Y84.402 E15.32792
G1 X51.506 Y83.832 E15.35721
G1 X51.446 Y83.342 E15.38218
G1 X51.376 Y81.992 E15.45059
G1 X51.376 Y67.992 E16.15897
G1 X51.436 Y66.752 E16.22179
G1 X51.486 Y66.292 E16.24520
G1 X51.606 Y65.572 E16.28213
G1 X51.806 Y64.682 E16.32829
G1 X51.936 Y64.212 E16.35296
G1 X52.226 Y63.372 E16.39793
G1 X52.626 Y62.582 E16.44273
G1 X53.856 Y60.452 E16.56719
G1 X54.326 Y59.732 E16.61069
G1 X54.886 Y59.082 E16.65411
G1 X55.534 Y58.441 E16.70021
G1 X55.906 Y58.752 F6600.000
G1 X56.636 Y58.112 E16.74933 F540.000
G1 X57.026 Y57.812 E16.77423
G1 X57.526 Y57.472 E16.80482
G1 X58.296 Y57.002 E16.85047
G1 X58.806 Y56.732 E16.87967
G1 X59.316 Y56.492 E16.90819
G1 X60.196 Y56.142 E16.95611
G1 X61.156 Y55.832 E17.00715
G1 X61.626 Y55.712 E17.03170
G1 X62.256 Y55.582 E17.06425
G1 X62.896 Y55.522 E17.09677
G1 X80.166 Y54.652 E17.97172
G1 X88.426 Y54.642 E18.38967
G1 X89.776 Y54.782 E18.45835
G1 X91.056 Y55.202 E18.52651
G1 X92.236 Y55.882 E18.59542
G1 X93.236 Y56.782 E18.66350
G1 X94.036 Y57.882 E18.73232
G1 X98.006 Y64.752 E19.13380
G1 X98.656 Y66.312 E19.21931
G1 X98.876 Y67.992 E19.30504
G1 X98.876 Y81.992 E20.01343
G1 X98.656 Y83.672 E20.09916
G1 X98.006 Y85.232 E20.18467
G1 X94.036 Y92.112 E20.58659
G1 X93.246 Y93.202 E20.65471
G1 X92.236 Y94.112 E20.72350
G1 X91.066 Y94.792 E20.79197
G1 X89.776 Y95.212 E20.86062
G1 X88.426 Y95.352 E20.92929
G1 X80.166 Y95.342 E21.34724
G1 X62.896 Y94.462 E22.22222
G1 X62.316 Y94.402 E22.25172
G1 X61.746 Y94.302 E22.28100
G1 X61.276 Y94.192 E22.30543
G1 X60.196 Y93.852 E22.36272
G1 X59.316 Y93.502 E22.41064
G1 X58.396 Y93.042 E22.46268
G1 X57.476 Y92.482 E22.51718
G1 X56.716 Y91.942 E22.56435
G1 X55.906 Y91.242 E22.61852
G1 X55.226 Y90.572 E22.66683
G1 X54.706 Y89.972 E22.70700
G1 X54.266 Y89.302 E22.74756
G1 X53.036 Y87.172 E22.87201
G1 X52.666 Y86.432 E22.91388
G1 X52.406 Y85.662 E22.95500
G1 X52.176 Y84.782 E23.00102
G1 X52.076 Y84.302 E23.02583
G1 X51.926 Y83.282 E23.07800
G1 X51.856 Y81.992 E23.14336
G1 X51.856 Y67.992 E23.85175
G1 X51.916 Y66.802 E23.91204
G1 X51.966 Y66.342 E23.93545
G1 X52.076 Y65.672 E23.96981
G1 X52.186 Y65.162 E23.99621
G1 X52.406 Y64.332 E24.03965
G1 X52.666 Y63.562 E24.08078
G1 X53.036 Y62.822 E24.12264
G1 X54.266 Y60.692 E24.24709
G1 X54.706 Y60.022 E24.28765
G1 X55.226 Y59.422 E24.32783
G1 X55.854 Y58.801 E24.37250
G1 F2100.000 E23.47250
G92 E0
G1 X58.436 Y61.648 F6600.000
G1 E0.90000 F2100.000
G1 X58.967 Y61.183 E0.93569 F540.000
G1 X59.508 Y60.780 E0.96986
G1 X60.053 Y60.431 E1.00261
G1 X60.662 Y60.111 E1.03739
G1 X61.408 Y59.793 E1.07844
G1 X62.079 Y59.574 E1.11412
G1 X62.759 Y59.406 E1.14956
G1 X63.075 Y59.368 E1.16567
G1 X65.853 Y59.368 E1.30626
G1 X66.169 Y59.406 E1.32238
G1 X66.850 Y59.574 E1.35781
G1 X67.520 Y59.793 E1.39350
G1 X68.266 Y60.111 E1.43455
G1 X68.797 Y60.390 E1.46487
G1 X69.395 Y60.763 E1.50055
G1 X70.044 Y61.250 E1.54160
G1 X70.568 Y61.721 E1.57727
G1 X71.054 Y62.226 E1.61271
G1 X71.245 Y62.481 E1.62883
G1 X72.634 Y64.887 E1.76942
G1 X72.759 Y65.180 E1.78553
G1 X72.979 Y65.956 E1.82633
G1 X73.099 Y66.543 E1.85666
G1 X73.186 Y67.219 E1.89115
G1 X73.861 Y67.357 E1.92603
G1 X78.570 Y59.201 E2.40255
G1 X79.791 Y58.496 E2.47392
G1 X89.137 Y58.496 E2.94679
G1 X90.358 Y59.201 E3.01816
G1 X95.031 Y67.295 E3.49103
G1 X95.031 Y68.705 E3.56240
G1 X91.471 Y74.872 E3.92269
G1 X91.471 Y75.128 E3.93567
G1 X95.031 Y81.295 E4.29596
G1 X95.031 Y82.705 E4.36733
G1 X90.358 Y90.799 E4.84020
G1 X89.137 Y91.504 E4.91157
G1 X79.791 Y91.504 E5.38444
G1 X78.570 Y90.799 E5.45581
G1 X73.861 Y82.643 E5.93232
G1 X73.186 Y82.781 E5.96721
G1 X73.099 Y83.457 E6.00170
G1 X72.979 Y84.044 E6.03202
G1 X72.759 Y84.820 E6.07283
G1 X72.634 Y85.113 E6.08894
G1 X71.245 Y87.519 E6.22953
G1 X71.054 Y87.774 E6.24564
G1 X70.568 Y88.279 E6.28108
G1 X70.044 Y88.750 E6.31676
G1 X69.395 Y89.237 E6.35781
G1 X68.797 Y89.610 E6.39349
G1 X68.266 Y89.889 E6.42381
G1 X67.520 Y90.207 E6.46486
G1 X66.850 Y90.426 E6.50054
G1 X66.169 Y90.594 E6.53598
G1 X65.853 Y90.632 E6.55209
G1 X63.075 Y90.632 E6.69269
G1 X62.759 Y90.594 E6.70880
G1 X62.079 Y90.426 E6.74424
G1 X61.408 Y90.207 E6.77992
G1 X60.662 Y89.889 E6.82097
G1 X60.040 Y89.557 E6.85665
G1 X59.446 Y89.177 E6.89233
G1 X58.885 Y88.750 E6.92802
G1 X58.436 Y88.352 E6.95834
G1 X57.875 Y87.774 E6.99913
G1 X57.683 Y87.519 E7.01525
G1 X56.294 Y85.113 E7.15584
G1 X56.169 Y84.820 E7.17195
G1 X55.974 Y84.147 E7.20739
G1 X55.829 Y83.457 E7.24308
G1 X55.740 Y82.757 E7.27876
G1 X55.707 Y82.053 E7.31444
G1 X55.731 Y81.348 E7.35013
G1 X55.824 Y80.582 E7.38917
G1 X55.973 Y79.856 E7.42670
G1 X56.169 Y79.180 E7.46229
G1 X56.294 Y78.887 E7.47840
G1 X57.683 Y76.481 E7.61900
G1 X57.875 Y76.226 E7.63511
G1 X58.360 Y75.721 E7.67055
G1 X58.924 Y75.215 E7.70890
G1 X58.924 Y74.785 E7.73069
G1 X58.360 Y74.279 E7.76904
G1 X57.875 Y73.774 E7.80448
G1 X57.683 Y73.519 E7.82059
G1 X56.294 Y71.113 E7.96119
G1 X56.169 Y70.820 E7.97729
G1 X55.974 Y70.147 E8.01273
G1 X55.829 Y69.457 E8.04843
G1 X55.740 Y68.757 E8.08411
G1 X55.707 Y68.053 E8.11978
G1 X55.731 Y67.348 E8.15548
G1 X55.824 Y66.582 E8.19452
G1 X55.973 Y65.856 E8.23204
G1 X56.169 Y65.180 E8.26764
G1 X56.294 Y64.887 E8.28375
G1 X57.683 Y62.481 E8.42434
G1 X57.875 Y62.226 E8.44045
G1 X58.384 Y61.698 E8.47762
G1 F2100.000 E7.57762
G92 E0
G1 X73.186 Y68.781 F6600.000
G1 E0.90000 F2100.000
G1 X73.861 Y68.643 E0.93489 F540.000
G1 X77.457 Y74.872 E1.29882
G1 X77.457 Y75.128 E1.31179
G1 X73.861 Y81.357 E1.67572
G1 X73.186 Y81.219 E1.71061
G1 X73.099 Y80.543 E1.74510
G1 X72.979 Y79.956 E1.77542
G1 X72.759 Y79.180 E1.81623
G1 X72.634 Y78.887 E1.83234
G1 X71.245 Y76.481 E1.97293
G1 X71.054 Y76.226 E1.98905
G1 X70.568 Y75.721 E2.02448
G1 X70.004 Y75.215 E2.06283
G1 X70.004 Y74.785 E2.08463
G1 X70.568 Y74.279 E2.12298
G1 X71.054 Y73.774 E2.15841
G1 X71.245 Y73.519 E2.17453
G1 X72.634 Y71.113 E2.31512
G1 X72.759 Y70.820 E2.33123
G1 X72.979 Y70.044 E2.37204
G1 X73.099 Y69.457 E2.40236
G1 X73.177 Y68.852 E2.43322
G1 X72.712 Y68.709 F6600.000
G1 X72.628 Y69.371 E2.46695 F540.000
G1 X72.512 Y69.939 E2.49630
G1 X72.307 Y70.659 E2.53418
G1 X72.205 Y70.899 E2.54736
G1 X70.845 Y73.255 E2.68502
G1 X70.688 Y73.463 E2.69820
G1 X70.168 Y74.000 E2.73607
G1 X69.733 Y74.385 E2.76542
G1 X69.239 Y74.761 E2.79685
G1 X69.239 Y75.239 E2.82104
G1 X69.733 Y75.615 E2.85247
G1 X70.168 Y76.000 E2.88181
G1 X70.688 Y76.537 E2.91968
G1 X70.845 Y76.745 E2.93287
G1 X72.205 Y79.101 E3.07053
G1 X72.307 Y79.341 E3.08371
G1 X72.492 Y79.977 E3.11720
G1 X72.642 Y80.715 E3.15532
G1 X72.719 Y81.377 E3.18905
G1 X72.743 Y81.957 E3.21840
G1 X72.719 Y82.623 E3.25214
G1 X72.628 Y83.371 E3.29025
G1 X72.492 Y84.023 E3.32399
G1 X72.307 Y84.659 E3.35748
G1 X72.205 Y84.899 E3.37065
G1 X70.845 Y87.255 E3.50832
G1 X70.688 Y87.463 E3.52150
G1 X70.230 Y87.940 E3.55499
G1 X69.733 Y88.385 E3.58872
G1 X69.202 Y88.788 E3.62246
G1 X68.641 Y89.148 E3.65619
G1 X68.052 Y89.461 E3.68992
G1 X67.440 Y89.725 E3.72366
G1 X66.809 Y89.940 E3.75739
G1 X66.083 Y90.122 E3.79526
G1 X65.824 Y90.153 E3.80844
G1 X63.104 Y90.153 E3.94611
G1 X62.845 Y90.122 E3.95929
G1 X62.119 Y89.940 E3.99716
G1 X61.488 Y89.725 E4.03089
G1 X60.876 Y89.461 E4.06463
G1 X60.287 Y89.148 E4.09836
G1 X59.726 Y88.788 E4.13210
G1 X59.195 Y88.385 E4.16584
G1 X58.698 Y87.940 E4.19956
G1 X58.240 Y87.463 E4.23305
G1 X58.083 Y87.255 E4.24623
G1 X56.723 Y84.899 E4.38390
G1 X56.621 Y84.659 E4.39708
G1 X56.416 Y83.939 E4.43495
G1 X56.300 Y83.371 E4.46430
G1 X56.216 Y82.709 E4.49804
G1 X56.186 Y81.957 E4.53616
G1 X56.209 Y81.377 E4.56550
G1 X56.282 Y80.747 E4.59757
G1 X56.436 Y79.979 E4.63722
G1 X56.621 Y79.341 E4.67084
G1 X56.723 Y79.101 E4.68402
G1 X58.083 Y76.745 E4.82168
G1 X58.240 Y76.537 E4.83487
G1 X58.761 Y76.000 E4.87273
G1 X59.195 Y75.615 E4.90208
G1 X59.689 Y75.239 E4.93351
G1 X59.689 Y74.761 E4.95770
G1 X59.195 Y74.385 E4.98913
G1 X58.761 Y74.000 E5.01848
G1 X58.240 Y73.463 E5.05634
G1 X58.083 Y73.255 E5.06953
G1 X56.723 Y70.899 E5.20719
G1 X56.621 Y70.659 E5.22037
G1 X56.437 Y70.023 E5.25386
G1 X56.286 Y69.285 E5.29198
G1 X56.209 Y68.623 E5.32571
G1 X56.186 Y68.043 E5.35506
G1 X56.209 Y67.377 E5.38880
G1 X56.295 Y66.667 E5.42500
G1 X56.436 Y65.979 E5.46052
G1 X56.621 Y65.341 E5.49413
G1 X56.723 Y65.101 E5.50731
G1 X58.083 Y62.745 E5.64498
G1 X58.240 Y62.537 E5.65816
G1 X58.761 Y62.000 E5.69603
G1 X59.262 Y61.560 E5.72976
G1 X59.777 Y61.176 E5.76226
G1 X60.286 Y60.849 E5.79287
G1 X60.954 Y60.502 E5.83098
G1 X61.569 Y60.244 E5.86471
G1 X62.203 Y60.036 E5.89845
G1 X62.845 Y59.878 E5.93193
G1 X63.104 Y59.847 E5.94512
G1 X65.824 Y59.847 E6.08278
G1 X66.083 Y59.878 E6.09596
G1 X66.726 Y60.036 E6.12945
G1 X67.440 Y60.275 E6.16756
G1 X67.974 Y60.502 E6.19691
G1 X68.566 Y60.809 E6.23065
G1 X69.202 Y61.212 E6.26877
G1 X69.733 Y61.615 E6.30251
G1 X70.168 Y62.000 E6.33185
G1 X70.688 Y62.537 E6.36972
G1 X70.845 Y62.745 E6.38290
G1 X72.205 Y65.101 E6.52057
G1 X72.307 Y65.341 E6.53375
G1 X72.512 Y66.061 E6.57162
G1 X72.642 Y66.715 E6.60536
G1 X72.719 Y67.377 E6.63909
G1 X72.743 Y67.957 E6.66843
G1 X72.718 Y68.638 E6.70292
G1 X72.241 Y68.594 F6600.000
G1 X72.158 Y69.284 E6.73811 F540.000
G1 X72.029 Y69.899 E6.76990
G1 X71.856 Y70.498 E6.80144
G1 X71.776 Y70.684 E6.81169
G1 X70.445 Y72.990 E6.94642
G1 X70.323 Y73.152 E6.95668
G1 X69.892 Y73.602 E6.98821
G1 X69.423 Y74.020 E7.01999
G1 X68.923 Y74.400 E7.05178
G1 X68.396 Y74.736 E7.08341
G1 X68.396 Y75.264 E7.11008
G1 X68.923 Y75.600 E7.14171
G1 X69.423 Y75.980 E7.17350
G1 X69.892 Y76.398 E7.20528
G1 X70.323 Y76.848 E7.23681
G1 X70.445 Y77.010 E7.24706
G1 X71.776 Y79.316 E7.38180
G1 X71.856 Y79.502 E7.39205
G1 X72.029 Y80.101 E7.42358
G1 X72.158 Y80.716 E7.45537
G1 X72.241 Y81.406 E7.49056
G1 X72.264 Y82.034 E7.52235
G1 X72.236 Y82.661 E7.55413
G1 X72.168 Y83.218 E7.58250
G1 X72.029 Y83.899 E7.61770
G1 X71.856 Y84.498 E7.64923
G1 X71.776 Y84.684 E7.65949
G1 X70.445 Y86.990 E7.79422
G1 X70.323 Y87.152 E7.80447
G1 X69.892 Y87.602 E7.83601
G1 X69.423 Y88.020 E7.86779
G1 X68.923 Y88.400 E7.89958
G1 X68.393 Y88.738 E7.93136
G1 X67.838 Y89.032 E7.96314
G1 X67.261 Y89.281 E7.99493
G1 X66.667 Y89.483 E8.02671
G1 X65.997 Y89.650 E8.06165
G1 X65.796 Y89.675 E8.07191
G1 X63.133 Y89.675 E8.20664
G1 X62.932 Y89.650 E8.21689
G1 X62.262 Y89.483 E8.25184
G1 X61.667 Y89.281 E8.28362
G1 X61.090 Y89.032 E8.31541
G1 X60.535 Y88.738 E8.34719
G1 X60.006 Y88.400 E8.37897
G1 X59.505 Y88.020 E8.41076
G1 X59.037 Y87.602 E8.44254
G1 X58.605 Y87.152 E8.47407
G1 X58.483 Y86.990 E8.48433
G1 X57.152 Y84.684 E8.61906
G1 X57.072 Y84.498 E8.62931
G1 X56.899 Y83.899 E8.66085
G1 X56.771 Y83.284 E8.69264
G1 X56.687 Y82.594 E8.72782
G1 X56.664 Y81.966 E8.75961
G1 X56.687 Y81.406 E8.78799
G1 X56.756 Y80.814 E8.81814
G1 X56.898 Y80.102 E8.85486
G1 X57.072 Y79.502 E8.88649
G1 X57.152 Y79.316 E8.89674
G1 X58.483 Y77.010 E9.03148
G1 X58.605 Y76.848 E9.04173
G1 X59.037 Y76.398 E9.07327
G1 X59.505 Y75.980 E9.10505
G1 X60.000 Y75.604 E9.13651
G1 X60.530 Y75.255 E9.16861
G1 X60.527 Y74.733 E9.19505
G1 X60.006 Y74.400 E9.22633
G1 X59.505 Y74.020 E9.25811
G1 X59.037 Y73.602 E9.28989
G1 X58.605 Y73.152 E9.32143
G1 X58.483 Y72.990 E9.33168
G1 X57.152 Y70.684 E9.46642
G1 X57.072 Y70.498 E9.47667
G1 X56.899 Y69.899 E9.50820
G1 X56.771 Y69.284 E9.53999
G1 X56.687 Y68.594 E9.57518
G1 X56.664 Y67.966 E9.60697
G1 X56.687 Y67.406 E9.63534
G1 X56.756 Y66.814 E9.66549
G1 X56.898 Y66.102 E9.70221
G1 X57.072 Y65.502 E9.73385
G1 X57.152 Y65.316 E9.74410
G1 X58.483 Y63.010 E9.87883
G1 X58.605 Y62.848 E9.88909
G1 X59.037 Y62.398 E9.92062
G1 X59.505 Y61.980 E9.95240
G1 X60.000 Y61.604 E9.98387
G1 X60.449 Y61.308 E10.01107
G1 X61.151 Y60.939 E10.05118
G1 X61.730 Y60.695 E10.08296
G1 X62.326 Y60.499 E10.11475
G1 X62.932 Y60.350 E10.14628
G1 X63.133 Y60.325 E10.15653
G1 X65.796 Y60.325 E10.29127
G1 X65.997 Y60.350 E10.30152
G1 X66.602 Y60.499 E10.33305
G1 X67.261 Y60.719 E10.36825
G1 X67.838 Y60.968 E10.40003
G1 X68.335 Y61.228 E10.42841
