; generated by Slic3r 1.1.6 on 2014-08-29 at 17:54:10

; perimeters extrusion width = 0.40mm
; infill extrusion width = 0.53mm
; solid infill extrusion width = 0.53mm
; top infill extrusion width = 0.53mm

G21 ; set units to millimeters
M107
M190 S65 ; wait for bed temperature to be reached
M104 S200 ; set temperature
G28 ; home all axes
G1 Z5 F5000 ; lift nozzle
M92 Z4000 ;set 4000 steps_per_mm for prusa i3!
M203 Z1.0 ;set max z speed to 1 mm/s
M203 X300 Y300 ;set X and Y max speeds
M208 X170 Y300 Z110 ;set max travel!
M211 X170 Y300 Z110 ;set max travel!
M109 S200 ; wait for temperature to be reached
G90 ; use absolute coordinates
G92 E0
M82 ; use absolute distances for extrusion
G1 F2100.000 E-0.90000
G92 E0
G1 Z0.750 F7800.000
G1 X55.233 Y127.502 F7800.000
G1 E0.90000 F2100.000
G1 X56.199 Y127.114 E0.94072 F450.000
G1 X57.193 Y126.805 E0.98143
G1 X57.667 Y126.689 E1.00053
G1 X59.294 Y126.491 E1.06467
G1 X80.212 Y126.492 E1.88303
G1 X99.914 Y126.790 E2.65389
G1 X101.438 Y126.987 E2.71402
G1 X102.438 Y127.256 E2.75454
G1 X103.417 Y127.607 E2.79524
G1 X104.366 Y128.035 E2.83597
G1 X105.277 Y128.538 E2.87668
G1 X106.145 Y129.112 E2.91738
G1 X106.964 Y129.755 E2.95812
G1 X107.727 Y130.461 E2.99878
G1 X108.066 Y130.814 E3.01794
G1 X109.047 Y132.118 E3.08178
G1 X110.281 Y134.255 E3.17831
G1 X110.923 Y135.763 E3.24242
G1 X111.190 Y136.764 E3.28296
G1 X111.377 Y137.788 E3.32368
G1 X111.449 Y138.393 E3.34754
G1 X113.157 Y154.975 E3.99967
G1 X113.175 Y155.946 E4.03768
G1 X113.159 Y156.403 E4.05557
G1 X113.124 Y156.917 E4.07571
G1 X113.006 Y157.881 E4.11373
G1 X112.821 Y158.835 E4.15175
G1 X112.570 Y159.774 E4.18977
G1 X112.441 Y160.171 E4.20607
G1 X111.863 Y161.469 E4.26169
G1 X110.547 Y163.749 E4.36468
G1 X109.711 Y164.899 E4.42028
G1 X109.103 Y165.550 E4.45515
G1 X108.392 Y166.213 E4.49316
G1 X107.637 Y166.825 E4.53118
G1 X106.842 Y167.383 E4.56920
G1 X106.009 Y167.883 E4.60723
G1 X105.143 Y168.325 E4.64524
G1 X104.249 Y168.705 E4.68326
G1 X103.330 Y169.022 E4.72128
G1 X102.890 Y169.148 E4.73917
G1 X101.984 Y169.360 E4.77560
G1 X100.570 Y169.509 E4.83122
G1 X97.835 Y169.508 E4.93822
G1 X59.322 Y168.911 E6.44510
G1 X58.016 Y168.763 E6.49651
G1 X57.148 Y168.562 E6.53138
G1 X56.219 Y168.278 E6.56941
G1 X55.311 Y167.930 E6.60742
G1 X54.431 Y167.520 E6.64544
G1 X53.580 Y167.049 E6.68346
G1 X52.765 Y166.520 E6.72148
G1 X51.989 Y165.936 E6.75950
G1 X51.255 Y165.298 E6.79751
G1 X50.568 Y164.611 E6.83554
G1 X50.289 Y164.302 E6.85184
G1 X49.453 Y163.152 E6.90745
G1 X48.137 Y160.872 E7.01045
G1 X47.559 Y159.574 E7.06604
G1 X47.299 Y158.721 E7.10091
G1 X47.189 Y158.277 E7.11880
G1 X47.001 Y157.324 E7.15681
G1 X46.928 Y156.814 E7.17696
G1 X46.843 Y155.846 E7.21498
G1 X46.825 Y154.875 E7.25299
G1 X47.668 Y137.979 E7.91481
G1 X47.816 Y136.949 E7.95553
G1 X47.910 Y136.484 E7.97408
G1 X48.184 Y135.457 E8.01567
G1 X48.824 Y133.956 E8.07949
G1 X50.054 Y131.825 E8.17576
G1 X51.038 Y130.516 E8.23985
G1 X51.772 Y129.784 E8.28037
G1 X52.123 Y129.473 E8.29872
G1 X52.565 Y129.111 E8.32110
G1 X53.410 Y128.503 E8.36180
G1 X54.301 Y127.966 E8.40253
G1 X55.179 Y127.527 E8.44089
G1 X55.390 Y127.870 F7800.000
G1 X56.325 Y127.493 E8.48036 F450.000
G1 X57.288 Y127.194 E8.51981
G1 X57.762 Y127.077 E8.53890
G1 X59.294 Y126.891 E8.59927
G1 X80.206 Y126.892 E9.41740
G1 X99.908 Y127.190 E10.18826
G1 X101.342 Y127.376 E10.24485
G1 X102.311 Y127.636 E10.28410
G1 X103.261 Y127.975 E10.32354
G1 X104.181 Y128.389 E10.36302
G1 X105.064 Y128.876 E10.40246
G1 X105.904 Y129.432 E10.44191
G1 X106.698 Y130.055 E10.48138
G1 X107.438 Y130.738 E10.52079
G1 X107.778 Y131.091 E10.53995
G1 X108.701 Y132.319 E10.60003
G1 X109.934 Y134.455 E10.69654
G1 X110.539 Y135.874 E10.75688
G1 X110.798 Y136.844 E10.79616
G1 X110.980 Y137.836 E10.83562
G1 X111.051 Y138.435 E10.85921
G1 X112.757 Y154.989 E11.51026
G1 X112.775 Y155.932 E11.54719
G1 X112.759 Y156.389 E11.56507
G1 X112.726 Y156.875 E11.58412
G1 X112.612 Y157.812 E11.62105
G1 X112.433 Y158.739 E11.65798
G1 X112.189 Y159.651 E11.69491
G1 X112.061 Y160.047 E11.71121
G1 X111.517 Y161.269 E11.76355
G1 X110.200 Y163.549 E11.86654
G1 X109.414 Y164.631 E11.91888
G1 X108.825 Y165.262 E11.95265
G1 X108.135 Y165.907 E11.98957
G1 X107.402 Y166.501 E12.02650
G1 X106.630 Y167.043 E12.06342
G1 X105.821 Y167.530 E12.10036
G1 X104.980 Y167.960 E12.13728
G1 X104.112 Y168.329 E12.17421
G1 X103.220 Y168.637 E12.21114
G1 X102.780 Y168.763 E12.22902
G1 X101.900 Y168.969 E12.26437
G1 X100.570 Y169.109 E12.31671
G1 X97.841 Y169.108 E12.42348
G1 X59.329 Y168.511 E13.93035
G1 X58.100 Y168.372 E13.97874
G1 X57.259 Y168.177 E14.01251
G1 X56.356 Y167.902 E14.04944
G1 X55.474 Y167.565 E14.08637
G1 X54.618 Y167.167 E14.12329
G1 X53.792 Y166.710 E14.16022
G1 X53.000 Y166.197 E14.19715
G1 X52.246 Y165.629 E14.23408
G1 X51.533 Y165.011 E14.27100
G1 X50.865 Y164.344 E14.30793
G1 X50.586 Y164.034 E14.32423
G1 X49.800 Y162.952 E14.37657
G1 X48.483 Y160.672 E14.47957
G1 X47.939 Y159.450 E14.53189
G1 X47.687 Y158.624 E14.56567
G1 X47.577 Y158.181 E14.58355
G1 X47.395 Y157.255 E14.62047
G1 X47.326 Y156.773 E14.63953
G1 X47.243 Y155.832 E14.67646
G1 X47.225 Y154.889 E14.71338
G1 X48.066 Y138.027 E15.37386
G1 X48.208 Y137.029 E15.41331
G1 X48.302 Y136.565 E15.43185
G1 X48.568 Y135.568 E15.47218
G1 X49.170 Y134.156 E15.53224
G1 X50.401 Y132.025 E15.62851
G1 X51.327 Y130.793 E15.68883
G1 X52.037 Y130.083 E15.72809
G1 X52.388 Y129.772 E15.74644
G1 X52.805 Y129.430 E15.76755
G1 X53.624 Y128.841 E15.80700
G1 X54.487 Y128.320 E15.84647
G1 X55.335 Y127.895 E15.88357
G1 F2100.000 E14.98357
G92 E0
G1 X82.815 Y161.061 F7800.000
G1 E0.90000 F2100.000
G1 X82.412 Y161.275 E0.91782 F540.000
G1 X81.996 Y161.460 E0.93563
G1 X81.568 Y161.616 E0.95345
G1 X81.131 Y161.741 E0.97127
G1 X80.805 Y161.810 E0.98428
G1 X78.299 Y161.810 E1.08233
G1 X77.974 Y161.741 E1.09534
G1 X77.536 Y161.616 E1.11316
G1 X77.108 Y161.460 E1.13098
G1 X76.692 Y161.275 E1.14879
G1 X76.290 Y161.061 E1.16661
G1 X75.904 Y160.820 E1.18443
G1 X75.535 Y160.552 E1.20224
G1 X75.186 Y160.259 E1.22006
G1 X74.859 Y159.943 E1.23788
G1 X74.636 Y159.696 E1.25089
G1 X73.872 Y158.371 E1.31072
G1 X73.383 Y157.525 E1.34893
G1 X73.280 Y157.209 E1.36195
G1 X73.170 Y156.767 E1.37977
G1 X73.091 Y156.319 E1.39758
G1 X73.043 Y155.866 E1.41540
G1 X73.028 Y155.410 E1.43322
G1 X73.043 Y154.955 E1.45104
G1 X73.091 Y154.502 E1.46885
G1 X73.170 Y154.054 E1.48667
G1 X73.280 Y153.612 E1.50449
G1 X73.383 Y153.296 E1.51750
G1 X74.636 Y151.125 E1.61554
G1 X74.859 Y150.878 E1.62856
G1 X75.186 Y150.562 E1.64638
G1 X75.535 Y150.269 E1.66419
G1 X75.904 Y150.001 E1.68201
G1 X76.290 Y149.760 E1.69983
G1 X76.692 Y149.546 E1.71764
G1 X77.108 Y149.361 E1.73546
G1 X77.536 Y149.205 E1.75328
G1 X77.974 Y149.080 E1.77109
G1 X78.299 Y149.010 E1.78411
G1 X80.805 Y149.010 E1.88215
G1 X81.131 Y149.080 E1.89517
G1 X81.568 Y149.205 E1.91299
G1 X81.996 Y149.361 E1.93080
G1 X82.412 Y149.546 E1.94862
G1 X82.815 Y149.760 E1.96644
G1 X83.201 Y150.001 E1.98425
G1 X83.569 Y150.269 E2.00207
G1 X83.918 Y150.562 E2.01989
G1 X84.246 Y150.878 E2.03770
G1 X84.468 Y151.125 E2.05072
G1 X85.721 Y153.296 E2.14876
G1 X85.824 Y153.612 E2.16178
G1 X85.934 Y154.054 E2.17960
G1 X85.986 Y154.347 E2.19126
G1 X86.061 Y154.955 E2.21522
G1 X86.076 Y155.422 E2.23349
G1 X86.061 Y155.866 E2.25085
G1 X86.013 Y156.319 E2.26867
G1 X85.934 Y156.767 E2.28648
G1 X85.824 Y157.209 E2.30430
G1 X85.721 Y157.525 E2.31732
G1 X84.468 Y159.696 E2.41536
G1 X84.246 Y159.943 E2.42838
G1 X83.918 Y160.259 E2.44619
G1 X83.569 Y160.552 E2.46401
G1 X83.201 Y160.820 E2.48183
G1 X82.865 Y161.029 E2.49730
G1 X82.992 Y161.420 F7800.000
G1 X82.588 Y161.634 E2.51520 F378.000
G1 X82.146 Y161.831 E2.53411
G1 X81.692 Y161.996 E2.55302
G1 X81.228 Y162.130 E2.57193
G1 X80.847 Y162.210 E2.58714
G1 X78.257 Y162.210 E2.68847
G1 X77.877 Y162.130 E2.70368
G1 X77.412 Y161.996 E2.72259
G1 X76.958 Y161.831 E2.74150
G1 X76.517 Y161.634 E2.76041
G1 X76.119 Y161.423 E2.77801
G1 X75.680 Y161.151 E2.79822
G1 X75.289 Y160.867 E2.81713
G1 X74.919 Y160.557 E2.83604
G1 X74.571 Y160.221 E2.85495
G1 X74.311 Y159.932 E2.87016
G1 X73.016 Y157.689 E2.97149
G1 X72.896 Y157.319 E2.98670
G1 X72.779 Y156.850 E3.00561
G1 X72.695 Y156.374 E3.02452
G1 X72.644 Y155.894 E3.04343
G1 X72.627 Y155.410 E3.06234
G1 X72.644 Y154.927 E3.08125
G1 X72.695 Y154.447 E3.10016
G1 X72.779 Y153.971 E3.11907
G1 X72.896 Y153.502 E3.13798
G1 X73.016 Y153.132 E3.15318
G1 X74.311 Y150.889 E3.25452
G1 X74.571 Y150.600 E3.26972
G1 X74.919 Y150.264 E3.28863
G1 X75.289 Y149.954 E3.30754
G1 X75.680 Y149.669 E3.32645
G1 X76.090 Y149.413 E3.34536
G1 X76.517 Y149.186 E3.36427
G1 X76.958 Y148.990 E3.38318
G1 X77.412 Y148.824 E3.40209
G1 X77.877 Y148.691 E3.42100
G1 X78.257 Y148.610 E3.43621
G1 X80.847 Y148.610 E3.53754
G1 X81.228 Y148.691 E3.55275
G1 X81.692 Y148.824 E3.57166
G1 X82.146 Y148.990 E3.59057
G1 X82.588 Y149.186 E3.60948
G1 X83.015 Y149.413 E3.62839
G1 X83.425 Y149.669 E3.64730
G1 X83.816 Y149.954 E3.66621
G1 X84.186 Y150.264 E3.68512
G1 X84.534 Y150.600 E3.70403
G1 X84.794 Y150.889 E3.71923
G1 X86.089 Y153.132 E3.82056
G1 X86.209 Y153.502 E3.83577
G1 X86.326 Y153.971 E3.85468
G1 X86.380 Y154.278 E3.86689
G1 X86.460 Y154.927 E3.89249
G1 X86.477 Y155.410 E3.91140
G1 X86.460 Y155.894 E3.93031
G1 X86.410 Y156.374 E3.94922
G1 X86.326 Y156.850 E3.96813
G1 X86.209 Y157.319 E3.98704
G1 X86.089 Y157.689 E4.00225
G1 X84.794 Y159.932 E4.10358
G1 X84.534 Y160.221 E4.11879
G1 X84.186 Y160.557 E4.13769
G1 X83.816 Y160.867 E4.15660
G1 X83.425 Y161.151 E4.17551
G1 X83.044 Y161.389 E4.19308
G1 X82.648 Y161.215 F7800.000
G1 X75.492 Y160.133 F7800.000
G1 X74.865 Y159.506 E4.23663 F630.000
G1 X73.866 Y157.775 F7800.000
G1 X77.314 Y161.223 E4.47637 F630.000
G1 X78.340 Y161.517 E4.52886
G1 X73.442 Y156.619 E4.86943
G1 X73.334 Y155.779 E4.91106
G1 X79.072 Y161.517 E5.31002
G1 X79.804 Y161.517 E5.34600
G1 X73.334 Y155.047 E5.79587
G1 X73.409 Y154.390 E5.82837
G1 X80.536 Y161.517 E6.32391
G1 X81.174 Y161.424 E6.35563
G1 X73.538 Y153.788 E6.88652
G1 X73.742 Y153.260 E6.91435
G1 X81.728 Y161.246 E7.46958
G1 X82.243 Y161.029 E7.49706
G1 X74.010 Y152.796 E8.06949
G1 X74.278 Y152.332 E8.09583
G1 X82.720 Y160.774 E8.68280
G1 X83.163 Y160.485 E8.70879
G1 X74.546 Y151.868 E9.30790
G1 X74.814 Y151.404 E9.33424
G1 X83.575 Y160.165 E9.94336
G1 X83.944 Y159.802 E9.96880
G1 X75.161 Y151.019 E10.57944
G1 X75.530 Y150.656 E10.60489
G1 X84.291 Y159.417 E11.21400
G1 X84.559 Y158.953 E11.24034
G1 X75.942 Y150.336 E11.83945
G1 X76.384 Y150.047 E11.86545
G1 X84.827 Y158.489 E12.45241
G1 X85.094 Y158.025 E12.47875
G1 X76.861 Y149.792 E13.05119
G1 X77.376 Y149.575 E13.07867
G1 X85.362 Y157.561 E13.63390
G1 X85.561 Y157.028 E13.66186
G1 X77.930 Y149.397 E14.19242
G1 X78.569 Y149.304 E14.22414
G1 X85.693 Y156.428 E14.71947
G1 X85.771 Y155.774 E14.75184
G1 X79.301 Y149.304 E15.20170
G1 X80.032 Y149.304 E15.23768
G1 X85.771 Y155.042 E15.63664
G1 X85.663 Y154.202 E15.67827
G1 X80.764 Y149.304 E16.01884
G1 X81.791 Y149.598 E16.07133
G1 X85.239 Y153.046 E16.31108
G1 X84.239 Y151.314 F7800.000
G1 X83.613 Y150.688 E16.35462 F630.000
G1 F2100.000 E15.45462
G92 E0
G1 X63.998 Y160.768 F7800.000
G1 E0.90000 F2100.000
G1 X63.606 Y160.976 E0.91736 F540.000
G1 X63.190 Y161.161 E0.93518
G1 X62.763 Y161.317 E0.95299
G1 X62.325 Y161.443 E0.97081
G1 X61.999 Y161.512 E0.98383
G1 X59.493 Y161.512 E1.08187
G1 X59.168 Y161.443 E1.09488
G1 X58.730 Y161.317 E1.11270
G1 X58.302 Y161.161 E1.13052
G1 X57.886 Y160.976 E1.14833
G1 X57.501 Y160.772 E1.16539
G1 X57.098 Y160.521 E1.18397
G1 X56.729 Y160.253 E1.20178
G1 X56.380 Y159.961 E1.21960
G1 X56.053 Y159.644 E1.23742
G1 X55.830 Y159.397 E1.25043
G1 X54.577 Y157.227 E1.34847
G1 X54.474 Y156.910 E1.36149
G1 X54.364 Y156.469 E1.37931
G1 X54.285 Y156.020 E1.39712
G1 X54.238 Y155.567 E1.41494
G1 X54.222 Y155.112 E1.43276
G1 X54.238 Y154.657 E1.45058
G1 X54.285 Y154.204 E1.46839
G1 X54.364 Y153.755 E1.48621
G1 X54.474 Y153.314 E1.50403
G1 X54.577 Y152.997 E1.51704
G1 X55.830 Y150.827 E1.61508
G1 X56.053 Y150.580 E1.62810
G1 X56.380 Y150.263 E1.64592
G1 X56.729 Y149.970 E1.66373
G1 X57.098 Y149.703 E1.68155
G1 X57.484 Y149.461 E1.69937
G1 X57.886 Y149.248 E1.71718
G1 X58.302 Y149.062 E1.73500
G1 X58.730 Y148.907 E1.75282
G1 X59.168 Y148.781 E1.77063
G1 X59.493 Y148.712 E1.78365
G1 X61.999 Y148.712 E1.88169
G1 X62.325 Y148.781 E1.89471
G1 X62.763 Y148.907 E1.91253
G1 X63.190 Y149.062 E1.93034
G1 X63.606 Y149.248 E1.94816
G1 X64.009 Y149.461 E1.96598
G1 X64.395 Y149.703 E1.98379
G1 X64.763 Y149.970 E2.00161
G1 X65.112 Y150.263 E2.01943
G1 X65.440 Y150.580 E2.03724
G1 X65.662 Y150.827 E2.05026
G1 X66.915 Y152.997 E2.14830
G1 X67.018 Y153.314 E2.16132
G1 X67.128 Y153.755 E2.17914
G1 X67.180 Y154.049 E2.19080
G1 X67.255 Y154.657 E2.21476
G1 X67.270 Y155.124 E2.23303
G1 X67.255 Y155.567 E2.25039
G1 X67.207 Y156.020 E2.26821
G1 X67.128 Y156.469 E2.28602
G1 X67.018 Y156.910 E2.30384
G1 X66.915 Y157.227 E2.31686
G1 X65.662 Y159.397 E2.41490
G1 X65.440 Y159.644 E2.42792
G1 X65.112 Y159.961 E2.44573
G1 X64.763 Y160.253 E2.46355
G1 X64.395 Y160.521 E2.48137
G1 X64.050 Y160.737 E2.49729
G1 X64.186 Y161.121 F7800.000
G1 X63.782 Y161.336 E2.51520 F378.000
G1 X63.340 Y161.533 E2.53411
G1 X62.886 Y161.698 E2.55302
G1 X62.422 Y161.831 E2.57193
G1 X62.041 Y161.912 E2.58714
G1 X59.451 Y161.912 E2.68847
G1 X59.071 Y161.831 E2.70367
G1 X58.606 Y161.698 E2.72258
G1 X58.152 Y161.533 E2.74149
G1 X57.711 Y161.336 E2.76040
G1 X57.313 Y161.125 E2.77800
G1 X56.874 Y160.853 E2.79822
G1 X56.483 Y160.569 E2.81713
G1 X56.113 Y160.258 E2.83604
G1 X55.765 Y159.922 E2.85495
G1 X55.505 Y159.633 E2.87016
G1 X54.210 Y157.390 E2.97149
G1 X54.090 Y157.021 E2.98670
G1 X53.973 Y156.552 E3.00561
G1 X53.889 Y156.076 E3.02452
G1 X53.838 Y155.595 E3.04343
G1 X53.821 Y155.112 E3.06234
G1 X53.838 Y154.629 E3.08125
G1 X53.889 Y154.148 E3.10015
G1 X53.973 Y153.672 E3.11907
G1 X54.090 Y153.203 E3.13797
G1 X54.210 Y152.833 E3.15318
G1 X55.505 Y150.590 E3.25451
G1 X55.765 Y150.302 E3.26972
G1 X56.113 Y149.966 E3.28863
G1 X56.483 Y149.655 E3.30754
G1 X56.874 Y149.371 E3.32645
G1 X57.284 Y149.115 E3.34536
G1 X57.711 Y148.888 E3.36427
G1 X58.152 Y148.691 E3.38318
G1 X58.606 Y148.526 E3.40209
G1 X59.071 Y148.393 E3.42100
G1 X59.451 Y148.312 E3.43621
G1 X62.041 Y148.312 E3.53754
G1 X62.422 Y148.393 E3.55275
G1 X62.886 Y148.526 E3.57166
G1 X63.340 Y148.691 E3.59057
G1 X63.782 Y148.888 E3.60948
G1 X64.209 Y149.115 E3.62838
G1 X64.619 Y149.371 E3.64729
G1 X65.010 Y149.655 E3.66621
G1 X65.380 Y149.966 E3.68511
G1 X65.728 Y150.302 E3.70402
G1 X65.988 Y150.590 E3.71923
G1 X67.283 Y152.833 E3.82056
G1 X67.403 Y153.203 E3.83577
G1 X67.520 Y153.672 E3.85468
G1 X67.574 Y153.980 E3.86689
G1 X67.654 Y154.629 E3.89249
G1 X67.671 Y155.112 E3.91140
G1 X67.654 Y155.595 E3.93031
G1 X67.604 Y156.076 E3.94922
G1 X67.520 Y156.552 E3.96813
G1 X67.403 Y157.021 E3.98704
G1 X67.283 Y157.390 E4.00224
G1 X65.988 Y159.633 E4.10358
G1 X65.728 Y159.922 E4.11878
G1 X65.380 Y160.258 E4.13769
G1 X65.010 Y160.569 E4.15660
G1 X64.619 Y160.853 E4.17551
G1 X64.238 Y161.091 E4.19308
G1 X63.842 Y160.917 F7800.000
G1 X56.686 Y159.834 F7800.000
G1 X56.059 Y159.208 E4.23663 F630.000
G1 X55.060 Y157.476 F7800.000
G1 X58.508 Y160.924 E4.47637 F630.000
G1 X59.534 Y161.219 E4.52886
G1 X54.636 Y156.320 E4.86943
G1 X54.528 Y155.481 E4.91106
G1 X60.266 Y161.219 E5.31002
G1 X60.998 Y161.219 E5.34600
G1 X54.528 Y154.749 E5.79586
G1 X54.603 Y154.092 E5.82837
G1 X61.730 Y161.219 E6.32391
G1 X62.368 Y161.125 E6.35563
G1 X54.733 Y153.490 E6.88652
G1 X54.936 Y152.961 E6.91435
G1 X62.922 Y160.947 E7.46958
G1 X63.437 Y160.731 E7.49706
G1 X55.204 Y152.497 E8.06949
G1 X55.472 Y152.033 E8.09583
G1 X63.914 Y160.476 E8.68280
G1 X64.357 Y160.186 E8.70879
G1 X55.740 Y151.569 E9.30790
G1 X56.008 Y151.105 E9.33424
G1 X64.769 Y159.866 E9.94336
G1 X65.138 Y159.503 E9.96880
G1 X56.355 Y150.721 E10.57944
G1 X56.724 Y150.358 E10.60489
G1 X65.485 Y159.119 E11.21400
G1 X65.753 Y158.655 E11.24034
G1 X57.136 Y150.038 E11.83945
G1 X57.578 Y149.748 E11.86544
G1 X66.021 Y158.191 E12.45241
