; generated by Slic3r 1.0.0RC3 on 2014-04-25 at 19:40:56

; layer_height = 0.25
; perimeters = 2
; top_solid_layers = 2
; bottom_solid_layers = 2
; fill_density = .4
; perimeter_speed = 30
; infill_speed = 60
; travel_speed = 110
; nozzle_diameter = 0.4
; filament_diameter = 1.7
; extrusion_multiplier = .91
; perimeters extrusion width = 0.40mm
; infill extrusion width = 0.53mm
; solid infill extrusion width = 0.53mm
; top infill extrusion width = 0.53mm
; first layer extrusion width = 0.50mm

G21 ; set units to millimeters
M107
M190 S65 ; wait for bed temperature to be reached
M104 S220 ; set temperature
G28 ; home all axes
G1 Z5 F5000 ; lift nozzle
M109 S220 ; wait for temperature to be reached
G90 ; use absolute coordinates
G92 E0
M82 ; use absolute distances for extrusion
G1 F2100.000 E-0.90000
G92 E0
G1 Z0.250 F6600.000
G1 X19.080 Y35.250 F6600.000
G1 E0.90000 F2100.000
G1 X19.650 Y34.960 E0.93067 F540.000
G1 X20.870 Y34.420 E0.99467
G1 X21.550 Y34.170 E1.02942
G1 X22.780 Y33.800 E1.09102
G1 X23.400 Y33.650 E1.12162
G1 X24.700 Y33.420 E1.18494
G1 X25.940 Y33.300 E1.24469
G1 X26.990 Y33.260 E1.29509
G1 X122.990 Y33.260 E5.89959
G1 X123.920 Y33.290 E5.94422
G1 X124.630 Y33.340 E5.97836
G1 X125.360 Y33.430 E6.01364
G1 X126.590 Y33.650 E6.07357
G1 X127.210 Y33.800 E6.10417
G1 X127.910 Y34.000 E6.13909
G1 X128.440 Y34.170 E6.16578
G1 X129.120 Y34.420 E6.20053
G1 X129.670 Y34.650 E6.22913
G1 X130.340 Y34.960 E6.26453
G1 X130.910 Y35.250 E6.29521
G1 X131.930 Y35.850 E6.35197
G1 X132.540 Y36.250 E6.38696
G1 X133.070 Y36.630 E6.41823
G1 X133.640 Y37.080 E6.45307
G1 X134.620 Y37.960 E6.51624
G1 X135.030 Y38.370 E6.54405
G1 X135.910 Y39.350 E6.60722
G1 X136.360 Y39.920 E6.64206
G1 X137.100 Y40.990 E6.70446
G1 X137.430 Y41.530 E6.73481
G1 X138.030 Y42.650 E6.79575
G1 X138.340 Y43.320 E6.83116
G1 X138.570 Y43.870 E6.85975
G1 X138.820 Y44.550 E6.89450
G1 X138.990 Y45.080 E6.92120
G1 X139.190 Y45.780 E6.95612
G1 X139.340 Y46.400 E6.98671
G1 X139.480 Y47.120 E7.02189
G1 X139.650 Y48.360 E7.08193
G1 X139.700 Y48.960 E7.11080
G1 X139.740 Y49.990 E7.16024
G1 X139.740 Y99.990 E9.55842
G1 X139.700 Y101.030 E9.60834
G1 X139.650 Y101.630 E9.63722
G1 X139.560 Y102.360 E9.67250
G1 X139.340 Y103.590 E9.73243
G1 X139.190 Y104.210 E9.76303
G1 X138.820 Y105.440 E9.82463
G1 X138.570 Y106.120 E9.85938
G1 X138.030 Y107.340 E9.92337
G1 X137.430 Y108.460 E9.98432
G1 X137.100 Y109.000 E10.01467
G1 X136.360 Y110.070 E10.07707
G1 X135.910 Y110.640 E10.11190
G1 X135.030 Y111.620 E10.17507
G1 X134.620 Y112.030 E10.20288
G1 X133.640 Y112.910 E10.26606
G1 X133.070 Y113.360 E10.30089
G1 X132.540 Y113.740 E10.33217
G1 X131.540 Y114.380 E10.38912
G1 X130.910 Y114.740 E10.42392
G1 X130.340 Y115.030 E10.45459
G1 X129.670 Y115.340 E10.49000
G1 X129.120 Y115.570 E10.51859
G1 X128.440 Y115.820 E10.55334
G1 X127.910 Y115.990 E10.58004
G1 X127.210 Y116.190 E10.61496
G1 X126.590 Y116.340 E10.64555
G1 X125.870 Y116.480 E10.68073
G1 X124.630 Y116.650 E10.74077
G1 X124.030 Y116.700 E10.76964
G1 X123.000 Y116.740 E10.81908
G1 X26.990 Y116.740 E15.42407
G1 X25.960 Y116.700 E15.47351
G1 X25.360 Y116.650 E15.50239
G1 X24.630 Y116.560 E15.53766
G1 X23.400 Y116.340 E15.59760
G1 X22.780 Y116.190 E15.62819
G1 X22.080 Y115.990 E15.66311
G1 X21.550 Y115.820 E15.68981
G1 X20.870 Y115.570 E15.72456
G1 X20.320 Y115.340 E15.75315
G1 X19.650 Y115.030 E15.78856
G1 X19.080 Y114.740 E15.81923
G1 X18.060 Y114.140 E15.87599
G1 X17.450 Y113.740 E15.91098
G1 X16.920 Y113.360 E15.94226
G1 X16.350 Y112.910 E15.97709
G1 X15.370 Y112.030 E16.04026
G1 X14.960 Y111.620 E16.06807
G1 X14.080 Y110.640 E16.13125
G1 X13.630 Y110.070 E16.16608
G1 X13.250 Y109.540 E16.19736
G1 X12.850 Y108.930 E16.23235
G1 X12.250 Y107.910 E16.28911
G1 X11.960 Y107.340 E16.31978
G1 X11.650 Y106.670 E16.35519
G1 X11.170 Y105.440 E16.41852
G1 X10.980 Y104.850 E16.44825
G1 X10.650 Y103.590 E16.51072
G1 X10.510 Y102.870 E16.54590
G1 X10.340 Y101.630 E16.60593
G1 X10.290 Y100.920 E16.64007
G1 X10.260 Y99.990 E16.68470
G1 X10.260 Y49.990 E19.08288
G1 X10.290 Y49.060 E19.12751
G1 X10.340 Y48.360 E19.16117
G1 X10.430 Y47.630 E19.19645
G1 X10.650 Y46.400 E19.25638
G1 X10.790 Y45.820 E19.28500
G1 X10.980 Y45.140 E19.31886
G1 X11.170 Y44.550 E19.34859
G1 X11.650 Y43.320 E19.41192
G1 X11.960 Y42.650 E19.44733
G1 X12.250 Y42.080 E19.47800
G1 X12.610 Y41.450 E19.51280
G1 X13.250 Y40.450 E19.56975
G1 X13.630 Y39.920 E19.60103
G1 X14.080 Y39.350 E19.63586
G1 X14.960 Y38.370 E19.69904
G1 X15.380 Y37.960 E19.72719
G1 X16.310 Y37.120 E19.78730
G1 X16.900 Y36.650 E19.82348
G1 X17.450 Y36.250 E19.85609
G1 X18.060 Y35.850 E19.89108
G1 X19.018 Y35.286 E19.94440
G1 X19.320 Y35.670 F6600.000
G1 X19.850 Y35.400 E19.97293 F540.000
G1 X21.040 Y34.870 E20.03541
G1 X22.210 Y34.460 E20.09487
G1 X22.910 Y34.260 E20.12979
G1 X23.490 Y34.120 E20.15841
G1 X24.210 Y33.980 E20.19359
G1 X24.750 Y33.900 E20.21977
G1 X25.960 Y33.780 E20.27809
G1 X26.990 Y33.740 E20.32753
G1 X122.990 Y33.740 E24.93204
G1 X123.910 Y33.770 E24.97619
G1 X124.570 Y33.820 E25.00793
G1 X125.780 Y33.980 E25.06648
G1 X126.500 Y34.120 E25.10166
G1 X127.080 Y34.260 E25.13027
G1 X127.780 Y34.460 E25.16519
G1 X128.950 Y34.870 E25.22465
G1 X129.470 Y35.090 E25.25174
G1 X130.670 Y35.670 E25.31566
G1 X131.660 Y36.250 E25.37070
G1 X132.270 Y36.650 E25.40568
G1 X132.770 Y37.010 E25.43523
G1 X133.340 Y37.460 E25.47007
G1 X133.760 Y37.820 E25.49660
G1 X134.670 Y38.690 E25.55698
G1 X135.530 Y39.650 E25.61880
G1 X135.980 Y40.220 E25.65363
G1 X136.700 Y41.260 E25.71430
G1 X137.010 Y41.760 E25.74252
G1 X137.360 Y42.390 E25.77709
G1 X137.900 Y43.520 E25.83716
G1 X138.120 Y44.040 E25.86424
G1 X138.530 Y45.210 E25.92370
G1 X138.730 Y45.910 E25.95862
G1 X138.870 Y46.490 E25.98724
G1 X139.010 Y47.210 E26.02242
G1 X139.170 Y48.420 E26.08096
G1 X139.220 Y48.980 E26.10793
G1 X139.260 Y49.990 E26.15641
G1 X139.250 Y100.280 E28.56850
G1 X139.220 Y101.010 E28.60354
G1 X139.080 Y102.300 E28.66578
G1 X139.010 Y102.780 E28.68904
G1 X138.870 Y103.500 E28.72422
G1 X138.730 Y104.080 E28.75284
G1 X138.530 Y104.780 E28.78776
G1 X138.120 Y105.950 E28.84722
G1 X137.590 Y107.140 E28.90970
G1 X137.360 Y107.600 E28.93437
G1 X137.010 Y108.230 E28.96894
G1 X136.700 Y108.730 E28.99716
G1 X135.980 Y109.770 E29.05783
G1 X135.530 Y110.340 E29.09266
G1 X134.670 Y111.300 E29.15448
G1 X133.760 Y112.170 E29.21486
G1 X133.340 Y112.530 E29.24139
G1 X132.770 Y112.980 E29.27623
G1 X132.270 Y113.340 E29.30578
G1 X131.660 Y113.740 E29.34076
G1 X130.670 Y114.320 E29.39580
G1 X129.470 Y114.900 E29.45972
G1 X128.950 Y115.120 E29.48680
G1 X127.780 Y115.530 E29.54627
G1 X127.080 Y115.730 E29.58119
G1 X126.500 Y115.870 E29.60980
G1 X125.780 Y116.010 E29.64498
G1 X124.570 Y116.170 E29.70353
G1 X124.010 Y116.220 E29.73049
G1 X123.000 Y116.260 E29.77897
G1 X26.990 Y116.260 E34.38396
G1 X25.980 Y116.220 E34.43244
G1 X25.420 Y116.170 E34.45941
G1 X24.210 Y116.010 E34.51795
G1 X23.490 Y115.870 E34.55313
G1 X22.910 Y115.730 E34.58175
G1 X22.210 Y115.530 E34.61666
G1 X21.040 Y115.120 E34.67613
G1 X20.520 Y114.900 E34.70321
G1 X19.320 Y114.320 E34.76714
G1 X18.330 Y113.740 E34.82217
G1 X17.720 Y113.340 E34.85716
G1 X17.220 Y112.980 E34.88671
G1 X16.650 Y112.530 E34.92154
G1 X15.690 Y111.670 E34.98336
G1 X14.820 Y110.760 E35.04374
G1 X14.460 Y110.340 E35.07027
G1 X14.010 Y109.770 E35.10511
G1 X13.650 Y109.270 E35.13466
G1 X13.250 Y108.660 E35.16964
G1 X12.670 Y107.670 E35.22468
G1 X12.400 Y107.140 E35.25321
G1 X11.880 Y105.970 E35.31462
G1 X11.620 Y105.270 E35.35043
G1 X11.440 Y104.720 E35.37819
G1 X11.120 Y103.500 E35.43868
G1 X10.980 Y102.780 E35.47387
G1 X10.820 Y101.570 E35.53241
G1 X10.770 Y100.910 E35.56415
G1 X10.740 Y99.990 E35.60830
G1 X10.740 Y49.990 E38.00648
G1 X10.770 Y49.080 E38.05015
G1 X10.820 Y48.420 E38.08190
G1 X10.910 Y47.690 E38.11718
G1 X10.980 Y47.210 E38.14044
G1 X11.120 Y46.490 E38.17563
G1 X11.250 Y45.950 E38.20227
G1 X11.440 Y45.270 E38.23613
G1 X11.620 Y44.720 E38.26389
G1 X11.880 Y44.020 E38.29970
G1 X12.400 Y42.850 E38.36111
G1 X12.670 Y42.320 E38.38964
G1 X13.030 Y41.690 E38.42444
G1 X13.650 Y40.720 E38.47966
G1 X14.010 Y40.220 E38.50921
G1 X14.460 Y39.650 E38.54404
G1 X14.820 Y39.230 E38.57058
G1 X15.700 Y38.310 E38.63164
G1 X16.220 Y37.830 E38.66558
G1 X17.200 Y37.030 E38.72626
G1 X17.720 Y36.650 E38.75715
G1 X18.330 Y36.250 E38.79214
G1 X19.258 Y35.706 E38.84373
G1 X19.560 Y36.090 F6600.000
G1 X20.050 Y35.830 E38.87033 F540.000
G1 X21.200 Y35.320 E38.93067
G1 X21.880 Y35.070 E38.96542
G1 X23.040 Y34.720 E39.02354
G1 X23.580 Y34.590 E39.05018
G1 X24.800 Y34.370 E39.10964
G1 X25.500 Y34.290 E39.14343
G1 X26.990 Y34.220 E39.21497
G1 X123.170 Y34.220 E43.82811
G1 X123.900 Y34.240 E43.86314
G1 X124.510 Y34.290 E43.89250
G1 X125.690 Y34.450 E43.94961
G1 X126.410 Y34.590 E43.98479
G1 X126.950 Y34.720 E44.01143
G1 X127.650 Y34.920 E44.04635
G1 X128.790 Y35.320 E44.10430
G1 X129.270 Y35.520 E44.12924
G1 X129.940 Y35.830 E44.16465
G1 X130.430 Y36.090 E44.19125
G1 X131.400 Y36.650 E44.24497
G1 X132.010 Y37.050 E44.27996
G1 X133.040 Y37.840 E44.34222
G1 X133.430 Y38.170 E44.36672
G1 X134.320 Y39.020 E44.42575
G1 X134.820 Y39.560 E44.46105
G1 X135.600 Y40.520 E44.52038
G1 X135.900 Y40.920 E44.54436
G1 X136.310 Y41.530 E44.57961
G1 X136.590 Y41.990 E44.60544
G1 X137.160 Y43.050 E44.66317
G1 X137.470 Y43.720 E44.69858
G1 X137.670 Y44.200 E44.72352
G1 X138.070 Y45.340 E44.78146
G1 X138.270 Y46.040 E44.81638
G1 X138.400 Y46.580 E44.84302
G1 X138.540 Y47.300 E44.87820
G1 X138.700 Y48.480 E44.93532
G1 X138.740 Y49.000 E44.96033
G1 X138.780 Y49.990 E45.00786
G1 X138.770 Y100.260 E47.41899
G1 X138.700 Y101.510 E47.47903
G1 X138.540 Y102.690 E47.53615
G1 X138.400 Y103.410 E47.57133
G1 X138.270 Y103.950 E47.59797
G1 X138.070 Y104.650 E47.63289
G1 X137.670 Y105.790 E47.69084
G1 X137.470 Y106.270 E47.71578
G1 X136.940 Y107.370 E47.77434
G1 X136.310 Y108.460 E47.83473
G1 X135.900 Y109.070 E47.86998
G1 X135.600 Y109.470 E47.89396
G1 X134.820 Y110.430 E47.95329
G1 X134.320 Y110.970 E47.98859
G1 X133.430 Y111.820 E48.04761
G1 X132.470 Y112.600 E48.10694
G1 X132.010 Y112.940 E48.13438
G1 X131.400 Y113.340 E48.16936
G1 X130.430 Y113.900 E48.22309
G1 X129.940 Y114.160 E48.24969
G1 X128.790 Y114.670 E48.31003
G1 X128.110 Y114.920 E48.34478
G1 X126.950 Y115.270 E48.40290
G1 X126.410 Y115.400 E48.42954
G1 X125.240 Y115.610 E48.48655
G1 X124.510 Y115.700 E48.52183
G1 X123.270 Y115.770 E48.58140
G1 X26.990 Y115.780 E53.19933
G1 X26.000 Y115.740 E53.24686
G1 X25.480 Y115.700 E53.27187
G1 X24.750 Y115.610 E53.30715
G1 X23.580 Y115.400 E53.36416
G1 X23.040 Y115.270 E53.39080
G1 X22.340 Y115.070 E53.42572
G1 X21.200 Y114.670 E53.48367
G1 X20.720 Y114.470 E53.50861
G1 X20.050 Y114.160 E53.54402
G1 X19.560 Y113.900 E53.57062
G1 X18.590 Y113.340 E53.62435
G1 X17.980 Y112.940 E53.65933
G1 X17.520 Y112.600 E53.68677
G1 X16.560 Y111.820 E53.74610
G1 X16.020 Y111.320 E53.78139
G1 X15.170 Y110.430 E53.84042
G1 X14.840 Y110.040 E53.86493
G1 X14.050 Y109.010 E53.92719
G1 X13.650 Y108.400 E53.96217
G1 X13.090 Y107.430 E54.01589
G1 X12.830 Y106.940 E54.04250
G1 X12.520 Y106.270 E54.07791
G1 X12.070 Y105.110 E54.13759
G1 X11.900 Y104.590 E54.16383
G1 X11.590 Y103.410 E54.22234
G1 X11.450 Y102.690 E54.25753
G1 X11.290 Y101.510 E54.31464
G1 X11.240 Y100.900 E54.34400
G1 X11.220 Y100.170 E54.37902
G1 X11.220 Y49.810 E56.79447
G1 X11.240 Y49.090 E56.82902
G1 X11.290 Y48.480 E56.85837
G1 X11.380 Y47.750 E56.89365
G1 X11.590 Y46.580 E56.95067
G1 X11.900 Y45.400 E57.00918
G1 X12.070 Y44.880 E57.03542
G1 X12.520 Y43.720 E57.09510
G1 X12.830 Y43.050 E57.13051
G1 X13.090 Y42.560 E57.15711
G1 X13.650 Y41.590 E57.21084
G1 X14.050 Y40.980 E57.24582
G1 X14.840 Y39.950 E57.30808
G1 X15.170 Y39.560 E57.33259
G1 X16.030 Y38.660 E57.39229
G1 X16.900 Y37.870 E57.44866
G1 X17.490 Y37.400 E57.48484
G1 X17.980 Y37.050 E57.51372
G1 X18.590 Y36.650 E57.54871
G1 X19.498 Y36.126 E57.59899
G1 F2100.000 E56.69899
G92 E0
G1 X92.871 Y71.877 F6600.000
G1 E0.90000 F2100.000
G1 X93.135 Y71.406 E0.92590 F540.000
G1 X93.435 Y70.957 E0.95181
G1 X93.769 Y70.532 E0.97772
G1 X94.106 Y70.168 E1.00153
G1 X94.532 Y69.769 E1.02953
G1 X94.957 Y69.435 E1.05543
G1 X95.406 Y69.135 E1.08134
G1 X95.877 Y68.871 E1.10725
G1 X96.367 Y68.645 E1.13316
G1 X96.874 Y68.458 E1.15906
G1 X97.394 Y68.311 E1.18497
G1 X97.924 Y68.206 E1.21088
G1 X98.460 Y68.142 E1.23679
G1 X98.956 Y68.123 E1.26060
G1 X99.540 Y68.142 E1.28859
G1 X100.076 Y68.206 E1.31450
G1 X100.606 Y68.311 E1.34041
G1 X101.126 Y68.458 E1.36632
G1 X101.633 Y68.645 E1.39222
G1 X102.123 Y68.871 E1.41813
G1 X102.594 Y69.135 E1.44404
G1 X103.043 Y69.435 E1.46995
G1 X103.468 Y69.769 E1.49585
G1 X103.864 Y70.136 E1.52176
G1 X104.231 Y70.532 E1.54767
G1 X104.565 Y70.957 E1.57358
G1 X104.865 Y71.406 E1.59948
G1 X105.129 Y71.877 E1.62539
G1 X105.355 Y72.367 E1.65130
G1 X105.542 Y72.874 E1.67720
G1 X105.689 Y73.394 E1.70311
G1 X105.794 Y73.924 E1.72902
G1 X105.858 Y74.460 E1.75492
G1 X105.879 Y75.000 E1.78083
G1 X105.858 Y75.540 E1.80674
G1 X105.794 Y76.076 E1.83264
G1 X105.689 Y76.606 E1.85856
G1 X105.542 Y77.126 E1.88446
G1 X105.356 Y77.633 E1.91037
G1 X105.129 Y78.123 E1.93628
G1 X104.865 Y78.594 E1.96219
G1 X104.565 Y79.043 E1.98809
G1 X104.231 Y79.468 E2.01400
G1 X103.864 Y79.864 E2.03991
G1 X103.468 Y80.231 E2.06581
G1 X103.043 Y80.565 E2.09172
G1 X102.594 Y80.865 E2.11763
G1 X102.123 Y81.129 E2.14354
G1 X101.633 Y81.355 E2.16944
G1 X101.126 Y81.542 E2.19535
G1 X100.606 Y81.689 E2.22126
G1 X100.076 Y81.794 E2.24717
G1 X99.540 Y81.858 E2.27307
G1 X99.000 Y81.879 E2.29898
G1 X98.460 Y81.858 E2.32488
G1 X97.924 Y81.794 E2.35080
G1 X97.394 Y81.689 E2.37670
G1 X96.874 Y81.542 E2.40261
G1 X96.367 Y81.355 E2.42852
G1 X95.877 Y81.129 E2.45442
G1 X95.406 Y80.865 E2.48033
G1 X94.957 Y80.565 E2.50624
G1 X94.532 Y80.231 E2.53214
G1 X94.136 Y79.864 E2.55805
G1 X93.769 Y79.468 E2.58396
G1 X93.435 Y79.043 E2.60987
G1 X93.135 Y78.594 E2.63577
G1 X92.871 Y78.123 E2.66168
G1 X92.644 Y77.633 E2.68759
G1 X92.458 Y77.126 E2.71350
G1 X92.311 Y76.606 E2.73940
G1 X92.206 Y76.076 E2.76531
G1 X92.142 Y75.540 E2.79122
G1 X92.121 Y75.000 E2.81712
G1 X92.142 Y74.460 E2.84303
G1 X92.206 Y73.924 E2.86894
G1 X92.311 Y73.394 E2.89485
G1 X92.458 Y72.874 E2.92075
G1 X92.644 Y72.367 E2.94666
G1 X92.841 Y71.942 E2.96913
G1 X93.287 Y72.117 F6600.000
G1 X93.543 Y71.656 E2.99442 F360.000
G1 X93.822 Y71.238 E3.01852
G1 X94.133 Y70.843 E3.04263
G1 X94.457 Y70.493 E3.06554
G1 X94.843 Y70.133 E3.09083
G1 X95.238 Y69.822 E3.11494
G1 X95.656 Y69.543 E3.13904
G1 X96.094 Y69.297 E3.16315
G1 X96.551 Y69.087 E3.18725
G1 X97.022 Y68.913 E3.21135
G1 X97.506 Y68.777 E3.23546
G1 X97.999 Y68.679 E3.25956
G1 X98.498 Y68.620 E3.28367
G1 X98.975 Y68.601 E3.30657
G1 X99.502 Y68.620 E3.33187
G1 X100.001 Y68.679 E3.35597
G1 X100.494 Y68.777 E3.38008
G1 X100.978 Y68.913 E3.40418
G1 X101.449 Y69.087 E3.42828
G1 X101.906 Y69.297 E3.45238
G1 X102.344 Y69.543 E3.47649
G1 X102.762 Y69.822 E3.50059
G1 X103.157 Y70.133 E3.52470
G1 X103.526 Y70.474 E3.54880
G1 X103.867 Y70.843 E3.57290
G1 X104.178 Y71.238 E3.59701
G1 X104.457 Y71.656 E3.62111
G1 X104.703 Y72.094 E3.64521
G1 X104.913 Y72.551 E3.66932
G1 X105.087 Y73.022 E3.69342
G1 X105.223 Y73.506 E3.71753
G1 X105.321 Y73.999 E3.74163
G1 X105.380 Y74.498 E3.76573
G1 X105.400 Y75.000 E3.78984
G1 X105.380 Y75.502 E3.81394
G1 X105.321 Y76.001 E3.83804
G1 X105.223 Y76.494 E3.86215
G1 X105.087 Y76.978 E3.88625
G1 X104.913 Y77.449 E3.91035
G1 X104.703 Y77.906 E3.93446
G1 X104.457 Y78.344 E3.95856
G1 X104.178 Y78.762 E3.98267
G1 X103.867 Y79.157 E4.00677
G1 X103.526 Y79.526 E4.03087
G1 X103.157 Y79.867 E4.05498
G1 X102.762 Y80.178 E4.07908
G1 X102.344 Y80.457 E4.10318
G1 X101.906 Y80.703 E4.12729
G1 X101.449 Y80.913 E4.15139
G1 X100.978 Y81.087 E4.17549
G1 X100.494 Y81.223 E4.19960
G1 X100.001 Y81.321 E4.22370
G1 X99.502 Y81.380 E4.24781
G1 X99.000 Y81.400 E4.27191
G1 X98.498 Y81.380 E4.29601
G1 X97.999 Y81.321 E4.32012
G1 X97.506 Y81.223 E4.34422
G1 X97.022 Y81.087 E4.36833
G1 X96.551 Y80.913 E4.39243
G1 X96.094 Y80.703 E4.41653
G1 X95.656 Y80.457 E4.44064
