; generated by Slic3r 1.1.6 on 2014-08-30 at 19:51:05

; perimeters extrusion width = 0.40mm
; infill extrusion width = 0.53mm
; solid infill extrusion width = 0.53mm
; top infill extrusion width = 0.53mm

G21 ; set units to millimeters
M107
M190 S65 ; wait for bed temperature to be reached
M104 S200 ; set temperature
G28 ; home all axes
G1 Z5 F5000 ; lift nozzle
M92 Z4000 ;set 4000 steps_per_mm for prusa i3!
M203 Z1.0 ;set max z speed to 1 mm/s
M203 X300 Y300 ;set X and Y max speeds
M208 X170 Y300 Z110 ;set max travel!
M211 X170 Y300 Z110 ;set max travel!
M109 S200 ; wait for temperature to be reached
G90 ; use absolute coordinates
G92 E0
M82 ; use absolute distances for extrusion
G1 F2100.000 E-0.90000
G92 E0
G1 Z1.750 F7800.000
G1 X38.253 Y119.829 F7800.000
G1 E0.90000 F2100.000
G1 X39.470 Y119.508 E0.94973 F450.000
G1 X40.709 Y119.283 E0.99947
G1 X41.962 Y119.156 E1.04920
G1 X42.954 Y119.122 E1.08840
G1 X115.343 Y119.127 E3.94750
G1 X116.600 Y119.197 E3.99724
G1 X117.848 Y119.366 E4.04697
G1 X119.078 Y119.632 E4.09670
G1 X120.285 Y119.994 E4.14644
G1 X121.459 Y120.450 E4.19617
G1 X122.593 Y120.996 E4.24591
G1 X123.682 Y121.629 E4.29564
G1 X124.717 Y122.346 E4.34537
G1 X125.269 Y122.781 E4.37313
G1 X125.692 Y123.142 E4.39511
G1 X126.603 Y124.012 E4.44485
G1 X127.442 Y124.951 E4.49461
G1 X128.205 Y125.953 E4.54431
G1 X128.887 Y127.011 E4.59406
G1 X129.484 Y128.120 E4.64381
G1 X129.992 Y129.271 E4.69349
G1 X130.408 Y130.461 E4.74327
G1 X130.599 Y131.137 E4.77103
G1 X130.730 Y131.678 E4.79302
G1 X130.955 Y132.917 E4.84273
G1 X131.057 Y133.793 E4.87756
G1 X133.410 Y158.650 E5.86372
G1 X133.439 Y159.908 E5.91342
G1 X133.369 Y161.166 E5.96317
G1 X133.200 Y162.414 E6.01291
G1 X132.934 Y163.645 E6.06265
G1 X132.572 Y164.850 E6.11238
G1 X132.116 Y166.025 E6.16212
G1 X131.570 Y167.159 E6.21186
G1 X130.937 Y168.247 E6.26158
G1 X130.220 Y169.283 E6.31132
G1 X129.424 Y170.258 E6.36105
G1 X128.554 Y171.169 E6.41080
G1 X127.615 Y172.008 E6.46052
G1 X126.613 Y172.771 E6.51027
G1 X125.555 Y173.453 E6.55999
G1 X124.446 Y174.050 E6.60973
G1 X123.273 Y174.566 E6.66036
G1 X122.106 Y174.974 E6.70918
G1 X120.888 Y175.296 E6.75894
G1 X119.649 Y175.521 E6.80867
G1 X118.442 Y175.646 E6.85659
G1 X92.426 Y176.844 E7.88522
G1 X91.268 Y176.876 E7.93100
G1 X42.329 Y175.677 E9.86447
G1 X41.072 Y175.606 E9.91420
G1 X39.742 Y175.421 E9.96724
G1 X38.593 Y175.171 E10.01368
G1 X37.387 Y174.809 E10.06340
G1 X36.213 Y174.354 E10.11315
G1 X35.078 Y173.808 E10.16288
G1 X33.990 Y173.174 E10.21260
G1 X32.937 Y172.443 E10.26325
G1 X31.979 Y171.661 E10.31208
G1 X31.069 Y170.791 E10.36182
G1 X30.230 Y169.853 E10.41155
G1 X29.454 Y168.832 E10.46218
G1 X28.784 Y167.792 E10.51102
G1 X28.188 Y166.684 E10.56075
G1 X27.679 Y165.531 E10.61049
G1 X27.263 Y164.343 E10.66022
G1 X26.942 Y163.125 E10.70996
G1 X26.717 Y161.887 E10.75969
G1 X26.590 Y160.634 E10.80943
G1 X26.557 Y159.542 E10.85255
G1 X26.919 Y134.895 E11.82615
G1 X26.990 Y133.638 E11.87588
G1 X27.158 Y132.390 E11.92561
G1 X27.425 Y131.159 E11.97535
G1 X27.787 Y129.953 E12.02508
G1 X28.242 Y128.779 E12.07482
G1 X28.788 Y127.644 E12.12455
G1 X29.422 Y126.556 E12.17429
G1 X30.139 Y125.521 E12.22403
G1 X30.934 Y124.545 E12.27376
G1 X31.805 Y123.635 E12.32349
G1 X32.743 Y122.796 E12.37322
G1 X33.745 Y122.032 E12.42297
G1 X34.803 Y121.350 E12.47269
G1 X35.912 Y120.753 E12.52243
G1 X37.064 Y120.245 E12.57216
G1 X38.196 Y119.849 E12.61953
G1 X38.362 Y120.214 F7800.000
G1 X39.548 Y119.900 E12.66803 F450.000
G1 X40.756 Y119.680 E12.71652
G1 X41.978 Y119.555 E12.76501
G1 X42.954 Y119.522 E12.80359
G1 X115.327 Y119.527 E15.66207
G1 X116.553 Y119.595 E15.71057
G1 X117.770 Y119.759 E15.75906
G1 X118.970 Y120.017 E15.80755
G1 X120.146 Y120.370 E15.85605
G1 X121.291 Y120.813 E15.90454
G1 X122.398 Y121.345 E15.95304
G1 X123.459 Y121.962 E16.00153
G1 X124.469 Y122.660 E16.05002
G1 X125.021 Y123.096 E16.07778
G1 X125.421 Y123.436 E16.09852
G1 X126.309 Y124.284 E16.14702
G1 X127.128 Y125.199 E16.19553
G1 X127.872 Y126.175 E16.24400
G1 X128.538 Y127.207 E16.29251
G1 X129.121 Y128.288 E16.34102
G1 X129.617 Y129.410 E16.38947
G1 X130.023 Y130.569 E16.43800
G1 X130.214 Y131.246 E16.46576
G1 X130.338 Y131.757 E16.48651
G1 X130.558 Y132.964 E16.53498
G1 X130.659 Y133.831 E16.56945
G1 X133.011 Y158.666 E17.55472
G1 X133.039 Y159.892 E17.60319
G1 X132.971 Y161.119 E17.65170
G1 X132.807 Y162.336 E17.70020
G1 X132.549 Y163.536 E17.74870
G1 X132.196 Y164.712 E17.79719
G1 X131.753 Y165.857 E17.84569
G1 X131.221 Y166.964 E17.89418
G1 X130.604 Y168.025 E17.94267
G1 X129.906 Y169.035 E17.99117
G1 X129.130 Y169.987 E18.03966
G1 X128.282 Y170.875 E18.08816
G1 X127.367 Y171.694 E18.13665
G1 X126.391 Y172.439 E18.18515
G1 X125.359 Y173.104 E18.23363
G1 X124.279 Y173.687 E18.28214
G1 X123.134 Y174.191 E18.33153
G1 X121.997 Y174.589 E18.37911
G1 X120.810 Y174.904 E18.42762
G1 X119.602 Y175.124 E18.47611
G1 X118.424 Y175.247 E18.52290
G1 X92.410 Y176.445 E19.55143
G1 X91.277 Y176.476 E19.59619
G1 X42.345 Y175.277 E21.52943
G1 X41.119 Y175.209 E21.57793
G1 X39.820 Y175.029 E21.62972
G1 X38.702 Y174.786 E21.67492
G1 X37.526 Y174.434 E21.72340
G1 X36.380 Y173.991 E21.77191
G1 X35.274 Y173.459 E21.82040
G1 X34.213 Y172.842 E21.86889
G1 X33.185 Y172.129 E21.91829
G1 X32.251 Y171.368 E21.96588
G1 X31.362 Y170.520 E22.01438
G1 X30.544 Y169.605 E22.06287
G1 X29.786 Y168.610 E22.11226
G1 X29.133 Y167.597 E22.15986
G1 X28.551 Y166.516 E22.20835
G1 X28.055 Y165.393 E22.25685
G1 X27.648 Y164.234 E22.30534
G1 X27.334 Y163.047 E22.35384
G1 X27.114 Y161.840 E22.40233
G1 X26.989 Y160.618 E22.45083
G1 X26.956 Y159.548 E22.49310
G1 X27.319 Y134.911 E23.46631
G1 X27.387 Y133.685 E23.51480
G1 X27.551 Y132.468 E23.56329
G1 X27.810 Y131.267 E23.61179
G1 X28.162 Y130.091 E23.66028
G1 X28.605 Y128.946 E23.70878
G1 X29.137 Y127.840 E23.75727
G1 X29.754 Y126.778 E23.80577
G1 X30.453 Y125.768 E23.85426
G1 X31.228 Y124.817 E23.90275
G1 X32.076 Y123.928 E23.95125
G1 X32.991 Y123.110 E23.99974
G1 X33.967 Y122.365 E24.04825
G1 X34.999 Y121.699 E24.09673
G1 X36.080 Y121.117 E24.14523
G1 X37.203 Y120.621 E24.19372
G1 X38.305 Y120.234 E24.23985
G1 F2100.000 E23.33985
G92 E0
G1 X68.673 Y166.033 F7800.000
G1 E0.90000 F2100.000
G1 X68.165 Y166.177 E0.92084 F540.000
G1 X67.647 Y166.279 E0.94168
G1 X67.123 Y166.342 E0.96252
G1 X66.596 Y166.362 E0.98337
G1 X66.069 Y166.342 E1.00421
G1 X65.507 Y166.272 E1.02657
G1 X65.027 Y166.177 E1.04589
G1 X64.519 Y166.033 E1.06673
G1 X64.024 Y165.851 E1.08757
G1 X63.545 Y165.630 E1.10841
G1 X63.084 Y165.372 E1.12926
G1 X62.646 Y165.079 E1.15010
G1 X62.231 Y164.752 E1.17094
G1 X61.844 Y164.394 E1.19178
G1 X61.486 Y164.006 E1.21262
G1 X61.159 Y163.592 E1.23347
G1 X60.866 Y163.153 E1.25431
G1 X60.608 Y162.693 E1.27515
G1 X60.387 Y162.214 E1.29599
G1 X60.204 Y161.719 E1.31683
G1 X60.061 Y161.211 E1.33767
G1 X59.958 Y160.693 E1.35852
G1 X59.896 Y160.169 E1.37936
G1 X59.875 Y159.642 E1.40020
G1 X59.896 Y159.115 E1.42104
G1 X59.958 Y158.591 E1.44188
G1 X60.061 Y158.073 E1.46273
G1 X60.204 Y157.565 E1.48357
G1 X60.387 Y157.070 E1.50441
G1 X60.608 Y156.591 E1.52525
G1 X60.866 Y156.130 E1.54609
G1 X61.159 Y155.692 E1.56693
G1 X61.486 Y155.277 E1.58778
G1 X61.844 Y154.890 E1.60862
G1 X62.231 Y154.531 E1.62946
G1 X62.646 Y154.205 E1.65030
G1 X63.084 Y153.912 E1.67114
G1 X63.545 Y153.654 E1.69198
G1 X64.024 Y153.433 E1.71283
G1 X64.519 Y153.250 E1.73367
G1 X65.027 Y153.107 E1.75451
G1 X65.544 Y153.004 E1.77535
G1 X66.068 Y152.942 E1.79619
G1 X66.596 Y152.921 E1.81704
G1 X67.123 Y152.942 E1.83788
G1 X67.647 Y153.004 E1.85872
G1 X68.165 Y153.107 E1.87956
G1 X68.635 Y153.240 E1.89888
G1 X69.168 Y153.433 E1.92124
G1 X69.647 Y153.654 E1.94208
G1 X70.107 Y153.912 E1.96292
G1 X70.546 Y154.205 E1.98376
G1 X70.930 Y154.508 E2.00308
G1 X71.348 Y154.890 E2.02544
G1 X71.706 Y155.277 E2.04629
G1 X72.033 Y155.692 E2.06713
G1 X72.326 Y156.130 E2.08797
G1 X72.584 Y156.591 E2.10882
G1 X72.805 Y157.070 E2.12965
G1 X72.987 Y157.565 E2.15050
G1 X73.131 Y158.073 E2.17134
G1 X73.234 Y158.590 E2.19218
G1 X73.296 Y159.115 E2.21302
G1 X73.316 Y159.642 E2.23386
G1 X73.296 Y160.169 E2.25470
G1 X73.234 Y160.693 E2.27555
G1 X73.131 Y161.211 E2.29639
G1 X72.987 Y161.719 E2.31723
G1 X72.805 Y162.214 E2.33807
G1 X72.584 Y162.693 E2.35891
G1 X72.305 Y163.185 E2.38127
G1 X72.033 Y163.592 E2.40059
G1 X71.706 Y164.006 E2.42143
G1 X71.348 Y164.394 E2.44228
G1 X70.960 Y164.752 E2.46312
G1 X70.546 Y165.079 E2.48396
G1 X70.107 Y165.372 E2.50480
G1 X69.647 Y165.630 E2.52564
G1 X69.168 Y165.851 E2.54649
G1 X68.729 Y166.013 E2.56496
G1 X68.549 Y165.653 F7800.000
G1 X68.071 Y165.787 E2.58456 F378.000
G1 X67.585 Y165.884 E2.60416
G1 X67.092 Y165.942 E2.62376
G1 X66.596 Y165.962 E2.64336
G1 X66.100 Y165.942 E2.66296
G1 X65.585 Y165.880 E2.68346
G1 X65.120 Y165.787 E2.70216
G1 X64.643 Y165.653 E2.72176
G1 X64.177 Y165.481 E2.74136
G1 X63.727 Y165.273 E2.76096
G1 X63.294 Y165.031 E2.78056
G1 X62.881 Y164.755 E2.80016
G1 X62.491 Y164.448 E2.81976
G1 X62.127 Y164.111 E2.83936
G1 X61.790 Y163.746 E2.85896
G1 X61.483 Y163.357 E2.87856
G1 X61.207 Y162.944 E2.89816
G1 X60.964 Y162.511 E2.91776
G1 X60.757 Y162.060 E2.93736
G1 X60.585 Y161.595 E2.95696
G1 X60.450 Y161.117 E2.97656
G1 X60.353 Y160.630 E2.99616
G1 X60.295 Y160.138 E3.01576
G1 X60.276 Y159.642 E3.03536
G1 X60.295 Y159.146 E3.05496
G1 X60.353 Y158.653 E3.07456
G1 X60.450 Y158.166 E3.09416
G1 X60.585 Y157.689 E3.11376
G1 X60.757 Y157.223 E3.13337
G1 X60.964 Y156.773 E3.15296
G1 X61.207 Y156.340 E3.17256
G1 X61.483 Y155.927 E3.19217
G1 X61.790 Y155.537 E3.21177
G1 X62.127 Y155.173 E3.23137
G1 X62.491 Y154.836 E3.25097
G1 X62.881 Y154.529 E3.27057
G1 X63.294 Y154.253 E3.29017
G1 X63.727 Y154.010 E3.30977
G1 X64.177 Y153.803 E3.32937
G1 X64.643 Y153.631 E3.34897
G1 X65.120 Y153.496 E3.36857
G1 X65.607 Y153.399 E3.38817
G1 X66.100 Y153.341 E3.40777
G1 X66.596 Y153.322 E3.42737
G1 X67.092 Y153.341 E3.44697
G1 X67.585 Y153.399 E3.46657
G1 X68.071 Y153.496 E3.48617
G1 X68.549 Y153.631 E3.50577
G1 X69.014 Y153.803 E3.52537
G1 X69.465 Y154.010 E3.54497
G1 X69.898 Y154.253 E3.56457
G1 X70.311 Y154.529 E3.58417
G1 X70.682 Y154.822 E3.60287
G1 X71.065 Y155.173 E3.62337
G1 X71.402 Y155.537 E3.64297
G1 X71.709 Y155.927 E3.66257
G1 X71.985 Y156.340 E3.68217
G1 X72.227 Y156.773 E3.70177
G1 X72.435 Y157.223 E3.72137
G1 X72.607 Y157.689 E3.74097
G1 X72.741 Y158.166 E3.76057
G1 X72.838 Y158.653 E3.78017
G1 X72.896 Y159.146 E3.79977
G1 X72.916 Y159.642 E3.81937
G1 X72.896 Y160.138 E3.83897
G1 X72.838 Y160.630 E3.85857
G1 X72.741 Y161.117 E3.87818
G1 X72.607 Y161.595 E3.89778
G1 X72.435 Y162.060 E3.91738
G1 X72.227 Y162.511 E3.93697
G1 X71.972 Y162.963 E3.95748
G1 X71.709 Y163.357 E3.97617
G1 X71.402 Y163.746 E3.99577
G1 X71.065 Y164.111 E4.01537
G1 X70.700 Y164.448 E4.03498
G1 X70.311 Y164.755 E4.05458
G1 X69.898 Y165.031 E4.07418
G1 X69.465 Y165.273 E4.09378
G1 X69.014 Y165.481 E4.11338
G1 X68.605 Y165.632 E4.13061
G1 X68.461 Y166.043 F7800.000
G1 X40.911 Y166.153 F7800.000
G1 X40.911 Y166.260 E4.13480 F540.000
G1 X39.545 Y165.630 E4.19421
G1 X39.084 Y165.372 E4.21506
G1 X38.646 Y165.079 E4.23590
G1 X38.231 Y164.752 E4.25674
G1 X37.844 Y164.394 E4.27758
G1 X37.486 Y164.006 E4.29842
G1 X37.159 Y163.592 E4.31926
G1 X36.866 Y163.153 E4.34011
G1 X36.608 Y162.693 E4.36095
G1 X36.387 Y162.214 E4.38179
G1 X36.204 Y161.719 E4.40263
G1 X36.061 Y161.211 E4.42347
G1 X35.958 Y160.693 E4.44432
G1 X35.896 Y160.169 E4.46516
G1 X35.875 Y159.642 E4.48600
G1 X35.896 Y159.115 E4.50684
G1 X35.958 Y158.590 E4.52768
G1 X36.061 Y158.073 E4.54852
G1 X36.204 Y157.565 E4.56937
G1 X36.387 Y157.070 E4.59021
G1 X36.608 Y156.591 E4.61105
G1 X36.866 Y156.130 E4.63189
G1 X37.159 Y155.692 E4.65273
G1 X37.486 Y155.277 E4.67358
G1 X37.844 Y154.890 E4.69442
G1 X38.231 Y154.532 E4.71526
G1 X38.646 Y154.205 E4.73610
G1 X39.084 Y153.912 E4.75694
G1 X39.545 Y153.654 E4.77778
G1 X40.024 Y153.433 E4.79862
G1 X40.519 Y153.250 E4.81947
G1 X41.027 Y153.107 E4.84031
G1 X41.545 Y153.004 E4.86115
G1 X42.068 Y152.942 E4.88199
G1 X42.596 Y152.921 E4.90283
G1 X43.123 Y152.942 E4.92368
G1 X43.647 Y153.004 E4.94452
G1 X44.127 Y153.099 E4.96384
G1 X44.673 Y153.250 E4.98620
G1 X45.168 Y153.433 E5.00704
G1 X45.647 Y153.654 E5.02788
G1 X46.107 Y153.912 E5.04872
G1 X46.546 Y154.205 E5.06956
G1 X46.960 Y154.532 E5.09041
G1 X47.348 Y154.890 E5.11125
G1 X47.706 Y155.277 E5.13209
G1 X48.033 Y155.692 E5.15293
G1 X48.326 Y156.130 E5.17377
G1 X48.584 Y156.591 E5.19462
G1 X48.805 Y157.070 E5.21546
G1 X48.974 Y157.529 E5.23478
G1 X49.131 Y158.073 E5.25714
G1 X49.234 Y158.590 E5.27798
G1 X49.296 Y159.115 E5.29882
G1 X49.315 Y159.680 E5.32118
G1 X49.296 Y160.169 E5.34050
G1 X49.234 Y160.693 E5.36134
G1 X49.131 Y161.211 E5.38218
G1 X48.987 Y161.719 E5.40302
G1 X48.805 Y162.214 E5.42387
G1 X48.584 Y162.693 E5.44471
G1 X48.326 Y163.153 E5.46555
G1 X48.033 Y163.592 E5.48639
G1 X47.706 Y164.006 E5.50723
G1 X47.348 Y164.394 E5.52807
G1 X46.960 Y164.752 E5.54892
G1 X46.546 Y165.079 E5.56976
G1 X46.107 Y165.372 E5.59060
G1 X45.647 Y165.630 E5.61144
G1 X45.131 Y165.864 E5.63380
G1 X44.673 Y166.033 E5.65312
G1 X44.165 Y166.177 E5.67396
G1 X43.647 Y166.279 E5.69480
G1 X43.085 Y166.343 E5.71717
G1 X42.596 Y166.362 E5.73648
G1 X42.069 Y166.342 E5.75733
G1 X41.545 Y166.280 E5.77817
G1 X40.970 Y166.165 E5.80131
G1 X40.511 Y165.615 F7800.000
G1 X40.511 Y165.635 E5.80207 F378.000
G1 X39.727 Y165.273 E5.83619
G1 X39.294 Y165.031 E5.85579
G1 X38.881 Y164.755 E5.87539
G1 X38.491 Y164.448 E5.89499
G1 X38.127 Y164.111 E5.91459
G1 X37.790 Y163.746 E5.93419
G1 X37.483 Y163.357 E5.95379
G1 X37.207 Y162.944 E5.97339
G1 X36.965 Y162.511 E5.99299
G1 X36.757 Y162.060 E6.01259
G1 X36.585 Y161.595 E6.03219
G1 X36.450 Y161.117 E6.05179
G1 X36.353 Y160.630 E6.07139
G1 X36.295 Y160.138 E6.09099
G1 X36.276 Y159.642 E6.11059
G1 X36.295 Y159.146 E6.13019
G1 X36.353 Y158.653 E6.14979
G1 X36.450 Y158.166 E6.16940
G1 X36.585 Y157.689 E6.18899
G1 X36.757 Y157.223 E6.20860
G1 X36.965 Y156.772 E6.22820
G1 X37.207 Y156.340 E6.24780
G1 X37.483 Y155.927 E6.26740
G1 X37.790 Y155.537 E6.28700
G1 X38.127 Y155.173 E6.30660
G1 X38.491 Y154.836 E6.32620
G1 X38.881 Y154.529 E6.34580
G1 X39.294 Y154.253 E6.36540
G1 X39.727 Y154.010 E6.38500
G1 X40.177 Y153.803 E6.40460
G1 X40.643 Y153.631 E6.42420
G1 X41.120 Y153.496 E6.44380
G1 X41.607 Y153.399 E6.46340
G1 X42.100 Y153.341 E6.48300
G1 X42.596 Y153.322 E6.50260
G1 X43.092 Y153.341 E6.52220
G1 X43.585 Y153.399 E6.54180
G1 X44.071 Y153.496 E6.56140
G1 X44.549 Y153.631 E6.58100
G1 X45.014 Y153.803 E6.60060
G1 X45.465 Y154.010 E6.62020
G1 X45.898 Y154.253 E6.63980
G1 X46.311 Y154.529 E6.65940
G1 X46.700 Y154.836 E6.67900
G1 X47.065 Y155.173 E6.69860
G1 X47.402 Y155.537 E6.71820
G1 X47.709 Y155.927 E6.73780
G1 X47.985 Y156.340 E6.75740
G1 X48.216 Y156.753 E6.77610
G1 X48.435 Y157.223 E6.79660
G1 X48.607 Y157.689 E6.81620
G1 X48.741 Y158.166 E6.83580
G1 X48.834 Y158.631 E6.85450
G1 X48.896 Y159.146 E6.87500
G1 X48.915 Y159.665 E6.89550
G1 X48.896 Y160.138 E6.91420
G1 X48.838 Y160.630 E6.93380
G1 X48.741 Y161.117 E6.95340
G1 X48.607 Y161.595 E6.97300
G1 X48.435 Y162.060 E6.99260
G1 X48.216 Y162.531 E7.01310
G1 X47.985 Y162.944 E7.03180
G1 X47.709 Y163.357 E7.05140
G1 X47.402 Y163.746 E7.07100
G1 X47.065 Y164.111 E7.09060
G1 X46.700 Y164.448 E7.11020
G1 X46.311 Y164.755 E7.12980
G1 X45.898 Y165.031 E7.14940
G1 X45.465 Y165.273 E7.16900
G1 X45.014 Y165.481 E7.18860
G1 X44.527 Y165.659 E7.20910
G1 X44.071 Y165.787 E7.22780
G1 X43.585 Y165.884 E7.24740
G1 X43.092 Y165.942 E7.26700
G1 X42.596 Y165.962 E7.28660
G1 X42.100 Y165.942 E7.30620
G1 X41.607 Y165.884 E7.32580
G1 X41.120 Y165.787 E7.34540
G1 X40.569 Y165.632 E7.36804
G1 X40.519 Y165.633 F7800.000
G1 X39.926 Y167.858 F7800.000
G1 X39.290 Y167.624 E7.39483 F540.000
G1 X38.674 Y167.340 E7.42163
G1 X38.082 Y167.008 E7.44842
G1 X37.518 Y166.631 E7.47521
G1 X36.985 Y166.211 E7.50201
G1 X36.487 Y165.751 E7.52880
G1 X36.026 Y165.253 E7.55559
G1 X35.606 Y164.720 E7.58239
G1 X35.229 Y164.156 E7.60918
G1 X34.898 Y163.564 E7.63597
G1 X34.614 Y162.948 E7.66277
