; generated by Slic3r 1.0.0RC3 on 2014-04-14 at 18:33:27

; layer_height = 0.25
; perimeters = 2
; top_solid_layers = 2
; bottom_solid_layers = 2
; fill_density = .4
; perimeter_speed = 30
; infill_speed = 60
; travel_speed = 110
; nozzle_diameter = 0.4
; filament_diameter = 1.7
; extrusion_multiplier = .96
; perimeters extrusion width = 0.40mm
; infill extrusion width = 0.53mm
; solid infill extrusion width = 0.53mm
; top infill extrusion width = 0.53mm
; first layer extrusion width = 0.50mm

G21 ; set units to millimeters
M107
M190 S65 ; wait for bed temperature to be reached
M104 S220 ; set temperature
G28 ; home all axes
G1 Z5 F5000 ; lift nozzle
M109 S220 ; wait for temperature to be reached
G90 ; use absolute coordinates
G92 E0
M82 ; use absolute distances for extrusion
G1 F2100.000 E-0.90000
G92 E0
G1 Z0.250 F6600.000
G1 X45.716 Y52.510 F6600.000
G1 E0.90000 F2100.000
G1 X46.156 Y52.130 E0.92942 F540.000
G1 X46.726 Y51.680 E0.96616
G1 X47.256 Y51.300 E0.99916
G1 X48.246 Y50.670 E1.05854
G1 X48.856 Y50.320 E1.09412
G1 X49.476 Y50.000 E1.12943
G1 X50.156 Y49.690 E1.16724
G1 X51.346 Y49.230 E1.23179
G1 X52.576 Y48.860 E1.29679
G1 X53.176 Y48.710 E1.32808
G1 X53.886 Y48.570 E1.36470
G1 X54.406 Y48.490 E1.39132
G1 X55.126 Y48.400 E1.42803
G1 X55.836 Y48.350 E1.46405
G1 X56.746 Y48.320 E1.51012
G1 X57.706 Y48.350 E1.55872
G1 X58.416 Y48.400 E1.59473
G1 X59.306 Y48.510 E1.64011
G1 X99.516 Y54.450 E3.69677
G1 X100.816 Y54.770 E3.76451
G1 X102.036 Y55.310 E3.83202
G1 X103.136 Y56.060 E3.89938
G1 X104.096 Y57.000 E3.96737
G1 X104.866 Y58.090 E4.03489
G1 X108.836 Y64.960 E4.43638
G1 X109.426 Y66.250 E4.50815
G1 X109.756 Y67.620 E4.57946
G1 X109.826 Y69.040 E4.65139
G1 X109.616 Y70.440 E4.72302
G1 X109.156 Y71.780 E4.79471
G1 X99.776 Y92.270 E5.93496
G1 X99.466 Y92.880 E5.96958
G1 X98.866 Y93.900 E6.02946
G1 X98.466 Y94.510 E6.06637
G1 X98.086 Y95.040 E6.09936
G1 X97.636 Y95.610 E6.13611
G1 X96.766 Y96.580 E6.20204
G1 X96.356 Y96.990 E6.23138
G1 X95.386 Y97.860 E6.29731
G1 X94.816 Y98.310 E6.33406
G1 X94.286 Y98.690 E6.36705
G1 X93.286 Y99.330 E6.42713
G1 X92.656 Y99.690 E6.46384
G1 X92.046 Y100.000 E6.49847
G1 X90.876 Y100.510 E6.56305
G1 X90.196 Y100.760 E6.59971
G1 X88.966 Y101.130 E6.66470
G1 X88.366 Y101.280 E6.69599
G1 X87.656 Y101.420 E6.73261
G1 X86.416 Y101.590 E6.79594
G1 X85.806 Y101.640 E6.82691
G1 X84.766 Y101.680 E6.87957
G1 X60.766 Y101.680 E8.09394
G1 X59.736 Y101.640 E8.14610
G1 X59.126 Y101.590 E8.17707
G1 X57.886 Y101.420 E8.24040
G1 X57.176 Y101.280 E8.27701
G1 X56.576 Y101.130 E8.30831
G1 X55.346 Y100.760 E8.37330
G1 X54.156 Y100.300 E8.43786
G1 X53.496 Y100.000 E8.47454
G1 X52.886 Y99.690 E8.50916
G1 X52.256 Y99.330 E8.54588
G1 X51.256 Y98.690 E8.60595
G1 X50.726 Y98.310 E8.63895
G1 X50.156 Y97.860 E8.67569
G1 X49.186 Y96.990 E8.74162
G1 X48.776 Y96.580 E8.77096
G1 X48.286 Y96.050 E8.80749
G1 X47.906 Y95.610 E8.83690
G1 X47.456 Y95.040 E8.87365
G1 X47.076 Y94.510 E8.90665
G1 X46.436 Y93.510 E8.96672
G1 X46.076 Y92.880 E9.00344
G1 X45.766 Y92.270 E9.03806
G1 X45.256 Y91.100 E9.10264
G1 X45.006 Y90.420 E9.13930
G1 X44.836 Y89.890 E9.16746
G1 X44.636 Y89.190 E9.20430
G1 X44.496 Y88.610 E9.23449
G1 X40.346 Y67.880 E10.30422
G1 X40.176 Y66.640 E10.36755
G1 X40.126 Y65.930 E10.40356
G1 X40.106 Y64.800 E10.46075
G1 X40.126 Y64.070 E10.49770
G1 X40.176 Y63.350 E10.53422
G1 X40.266 Y62.630 E10.57093
G1 X40.346 Y62.110 E10.59755
G1 X40.486 Y61.400 E10.63417
G1 X40.636 Y60.800 E10.66546
G1 X41.006 Y59.570 E10.73045
G1 X41.256 Y58.890 E10.76711
G1 X41.766 Y57.720 E10.83169
G1 X42.076 Y57.110 E10.86632
G1 X42.436 Y56.480 E10.90303
G1 X43.076 Y55.480 E10.96311
G1 X43.456 Y54.950 E10.99610
G1 X43.906 Y54.380 E11.03285
G1 X44.286 Y53.940 E11.06227
G1 X44.776 Y53.410 E11.09879
G1 X45.663 Y52.559 E11.16101
G1 X46.046 Y52.860 F6600.000
G1 X47.026 Y52.060 E11.22502 F540.000
G1 X47.526 Y51.700 E11.25619
G1 X48.486 Y51.090 E11.31374
G1 X49.666 Y50.440 E11.38191
G1 X50.346 Y50.130 E11.41973
G1 X51.516 Y49.680 E11.48315
G1 X52.006 Y49.520 E11.50924
G1 X53.266 Y49.180 E11.57527
G1 X53.976 Y49.040 E11.61189
G1 X54.466 Y48.970 E11.63693
G1 X55.186 Y48.880 E11.67365
G1 X55.846 Y48.830 E11.70714
G1 X56.746 Y48.800 E11.75270
G1 X57.686 Y48.830 E11.80029
G1 X58.356 Y48.880 E11.83429
G1 X59.236 Y48.990 E11.87916
G1 X99.446 Y54.930 E13.93582
G1 X100.956 Y55.330 E14.01486
G1 X102.336 Y56.060 E14.09386
G1 X103.526 Y57.070 E14.17283
G1 X104.446 Y58.330 E14.25177
G1 X108.416 Y65.200 E14.65326
G1 X108.966 Y66.400 E14.72005
G1 X109.286 Y67.690 E14.78730
G1 X109.346 Y69.010 E14.85416
G1 X109.156 Y70.330 E14.92164
G1 X108.726 Y71.580 E14.98853
G1 X99.636 Y91.430 E16.09322
G1 X99.046 Y92.640 E16.16133
G1 X98.466 Y93.630 E16.21939
G1 X98.066 Y94.240 E16.25630
G1 X97.706 Y94.740 E16.28748
G1 X97.256 Y95.310 E16.32422
G1 X96.416 Y96.250 E16.38801
G1 X96.026 Y96.640 E16.41592
G1 X95.086 Y97.480 E16.47970
G1 X94.516 Y97.930 E16.51645
G1 X94.016 Y98.290 E16.54762
G1 X93.406 Y98.690 E16.58453
G1 X92.416 Y99.270 E16.64259
G1 X91.846 Y99.560 E16.67495
G1 X90.706 Y100.060 E16.73794
G1 X89.536 Y100.470 E16.80067
G1 X88.836 Y100.670 E16.83750
G1 X88.276 Y100.810 E16.86671
G1 X87.566 Y100.950 E16.90333
G1 X86.356 Y101.110 E16.96509
G1 X85.786 Y101.160 E16.99404
G1 X84.766 Y101.200 E17.04569
G1 X60.766 Y101.200 E18.26006
G1 X59.756 Y101.160 E18.31121
G1 X59.186 Y101.110 E18.34016
G1 X57.976 Y100.950 E18.40192
G1 X57.266 Y100.810 E18.43854
G1 X56.006 Y100.470 E18.50457
G1 X54.836 Y100.060 E18.56730
G1 X53.696 Y99.560 E18.63029
G1 X53.126 Y99.270 E18.66265
G1 X52.496 Y98.910 E18.69936
G1 X51.526 Y98.290 E18.75761
G1 X51.026 Y97.930 E18.78879
G1 X50.456 Y97.480 E18.82553
G1 X49.516 Y96.640 E18.88932
G1 X48.636 Y95.720 E18.95374
G1 X47.836 Y94.740 E19.01775
G1 X47.476 Y94.240 E19.04892
G1 X46.856 Y93.270 E19.10717
G1 X46.496 Y92.640 E19.14389
G1 X46.206 Y92.070 E19.17625
G1 X45.706 Y90.930 E19.23924
G1 X45.296 Y89.760 E19.30197
G1 X45.096 Y89.060 E19.33880
G1 X44.966 Y88.510 E19.36740
G1 X40.956 Y68.500 E20.40002
G1 X40.816 Y67.790 E20.43663
G1 X40.656 Y66.580 E20.49839
G1 X40.606 Y65.910 E20.53239
G1 X40.586 Y64.810 E20.58805
G1 X40.606 Y64.080 E20.62500
G1 X40.656 Y63.410 E20.65900
G1 X40.746 Y62.690 E20.69571
G1 X40.816 Y62.200 E20.72076
G1 X40.956 Y61.490 E20.75738
G1 X41.096 Y60.930 E20.78658
G1 X41.296 Y60.230 E20.82342
G1 X41.706 Y59.060 E20.88615
G1 X42.206 Y57.920 E20.94914
G1 X42.496 Y57.350 E20.98150
G1 X43.076 Y56.360 E21.03956
G1 X43.476 Y55.750 E21.07646
G1 X43.836 Y55.250 E21.10764
G1 X44.636 Y54.270 E21.17165
G1 X45.126 Y53.740 E21.20817
G1 X45.993 Y52.909 E21.26896
G1 X46.366 Y53.210 F6600.000
G1 X47.326 Y52.440 E21.33123 F540.000
G1 X47.786 Y52.100 E21.36017
G1 X48.726 Y51.500 E21.41660
G1 X49.336 Y51.150 E21.45218
G1 X49.866 Y50.880 E21.48228
G1 X50.996 Y50.380 E21.54480
G1 X51.676 Y50.130 E21.58146
G1 X52.836 Y49.780 E21.64277
G1 X53.366 Y49.650 E21.67038
G1 X54.526 Y49.440 E21.73003
G1 X55.246 Y49.350 E21.76675
G1 X55.856 Y49.300 E21.79772
G1 X56.556 Y49.280 E21.83315
G1 X57.676 Y49.300 E21.88983
G1 X58.296 Y49.350 E21.92130
G1 X59.166 Y49.460 E21.96568
G1 X99.376 Y55.400 E24.02234
G1 X100.776 Y55.770 E24.09561
G1 X102.066 Y56.450 E24.16940
G1 X103.166 Y57.400 E24.24294
G1 X104.036 Y58.570 E24.31671
G1 X108.006 Y65.440 E24.71820
G1 X108.616 Y66.850 E24.79593
G1 X108.866 Y68.370 E24.87387
G1 X108.756 Y69.910 E24.95199
G1 X108.286 Y71.380 E25.03008
G1 X98.906 Y91.870 E26.17033
G1 X98.266 Y93.030 E26.23737
G1 X97.666 Y93.980 E26.29422
G1 X97.326 Y94.440 E26.32316
G1 X96.556 Y95.400 E26.38543
G1 X96.066 Y95.930 E26.42195
G1 X95.176 Y96.780 E26.48423
G1 X94.216 Y97.550 E26.54650
G1 X93.756 Y97.890 E26.57544
G1 X93.146 Y98.290 E26.61235
G1 X92.176 Y98.850 E26.66902
G1 X91.646 Y99.130 E26.69935
G1 X90.986 Y99.430 E26.73604
G1 X89.866 Y99.860 E26.79674
G1 X89.406 Y100.010 E26.82122
G1 X88.176 Y100.340 E26.88566
G1 X87.466 Y100.480 E26.92228
G1 X86.296 Y100.640 E26.98203
G1 X84.766 Y100.720 E27.05955
G1 X60.766 Y100.720 E28.27392
G1 X59.246 Y100.640 E28.35094
G1 X58.076 Y100.480 E28.41069
G1 X57.366 Y100.340 E28.44731
G1 X56.836 Y100.210 E28.47492
G1 X55.676 Y99.860 E28.53623
G1 X54.556 Y99.430 E28.59694
G1 X53.896 Y99.130 E28.63362
G1 X53.366 Y98.850 E28.66395
G1 X52.396 Y98.290 E28.72062
G1 X51.786 Y97.890 E28.75753
G1 X51.326 Y97.550 E28.78647
G1 X50.366 Y96.780 E28.84874
G1 X49.836 Y96.290 E28.88527
G1 X48.986 Y95.400 E28.94754
G1 X48.216 Y94.440 E29.00981
G1 X47.876 Y93.980 E29.03875
G1 X47.476 Y93.370 E29.07566
G1 X46.916 Y92.400 E29.13233
G1 X46.636 Y91.870 E29.16266
G1 X46.156 Y90.770 E29.22339
G1 X45.756 Y89.630 E29.28452
G1 X45.556 Y88.930 E29.32136
G1 X45.436 Y88.420 E29.34787
G1 X41.286 Y67.690 E30.41760
G1 X41.126 Y66.520 E30.47735
G1 X41.076 Y65.900 E30.50882
G1 X41.056 Y64.820 E30.56348
G1 X41.076 Y64.090 E30.60043
G1 X41.126 Y63.470 E30.63190
G1 X41.216 Y62.750 E30.66862
G1 X41.426 Y61.590 E30.72827
G1 X41.556 Y61.060 E30.75588
G1 X41.756 Y60.360 E30.79271
G1 X42.156 Y59.220 E30.85385
G1 X42.636 Y58.120 E30.91457
G1 X42.916 Y57.590 E30.94490
G1 X43.476 Y56.620 E31.00158
G1 X43.876 Y56.010 E31.03849
G1 X44.216 Y55.550 E31.06743
G1 X44.986 Y54.590 E31.12970
G1 X45.476 Y54.060 E31.16622
G1 X46.313 Y53.259 E31.22486
G1 F2100.000 E30.32486
G92 E0
G1 X49.026 Y56.006 F6600.000
G1 E0.90000 F2100.000
G1 X49.840 Y55.365 E0.95239 F540.000
G1 X50.617 Y54.850 E0.99956
G1 X51.408 Y54.412 E1.04534
G1 X52.181 Y54.053 E1.08843
G1 X53.058 Y53.725 E1.13583
G1 X54.055 Y53.444 E1.18823
G1 X54.970 Y53.266 E1.23540
G1 X55.896 Y53.161 E1.28256
G1 X56.724 Y53.128 E1.32451
G1 X57.656 Y53.161 E1.37167
G1 X58.582 Y53.266 E1.41884
G1 X59.497 Y53.444 E1.46601
G1 X60.494 Y53.725 E1.51840
G1 X61.367 Y54.052 E1.56557
G1 X62.120 Y54.399 E1.60751
G1 X63.023 Y54.904 E1.65991
G1 X63.796 Y55.426 E1.70707
G1 X64.447 Y55.939 E1.74902
G1 X65.207 Y56.642 E1.80141
G1 X65.837 Y57.329 E1.84858
G1 X66.350 Y57.980 E1.89052
G1 X66.925 Y58.841 E1.94291
G1 X67.377 Y59.656 E1.99008
G1 X67.724 Y60.409 E2.03202
G1 X68.051 Y61.282 E2.07919
G1 X68.233 Y61.913 E2.11240
G1 X68.726 Y62.068 E2.13855
G1 X69.438 Y61.517 E2.18411
G1 X69.945 Y61.183 E2.21484
G1 X70.758 Y60.754 E2.26135
G1 X71.309 Y60.519 E2.29168
G1 X71.977 Y60.292 E2.32736
G1 X72.759 Y60.095 E2.36816
G1 X73.075 Y60.056 E2.38427
G1 X75.853 Y60.056 E2.52486
G1 X76.169 Y60.095 E2.54098
G1 X76.951 Y60.292 E2.58177
G1 X77.619 Y60.519 E2.61745
G1 X78.266 Y60.799 E2.65315
G1 X78.889 Y61.131 E2.68883
G1 X79.482 Y61.511 E2.72451
G1 X80.044 Y61.939 E2.76020
G1 X80.568 Y62.409 E2.79588
G1 X81.054 Y62.914 E2.83131
G1 X81.245 Y63.169 E2.84743
G1 X82.634 Y65.575 E2.98802
G1 X82.759 Y65.868 E3.00413
G1 X82.979 Y66.644 E3.04494
G1 X83.099 Y67.231 E3.07526
G1 X83.186 Y67.907 E3.10975
G1 X83.861 Y68.045 E3.14464
G1 X88.570 Y59.889 E3.62115
G1 X89.791 Y59.184 E3.69252
G1 X99.137 Y59.184 E4.16539
G1 X100.358 Y59.889 E4.23676
G1 X105.031 Y67.983 E4.70963
G1 X105.031 Y69.393 E4.78100
G1 X100.358 Y77.487 E5.25388
G1 X99.137 Y78.192 E5.32524
G1 X95.104 Y78.192 E5.52929
G1 X94.827 Y78.665 E5.55704
G1 X95.330 Y79.564 E5.60917
G1 X95.724 Y80.409 E5.65634
G1 X96.051 Y81.282 E5.70349
G1 X96.308 Y82.178 E5.75068
G1 X96.494 Y83.092 E5.79784
G1 X96.607 Y84.017 E5.84500
G1 X96.648 Y84.948 E5.89217
G1 X96.615 Y85.880 E5.93935
G1 X96.510 Y86.806 E5.98651
G1 X96.332 Y87.721 E6.03367
G1 X96.083 Y88.619 E6.08084
G1 X95.764 Y89.496 E6.12802
G1 X95.377 Y90.344 E6.17517
G1 X94.925 Y91.159 E6.22235
G1 X94.411 Y91.936 E6.26952
G1 X93.837 Y92.671 E6.31668
G1 X93.207 Y93.358 E6.36385
G1 X92.447 Y94.061 E6.41625
G1 X91.796 Y94.574 E6.45819
G1 X91.023 Y95.095 E6.50535
G1 X90.120 Y95.601 E6.55775
G1 X89.271 Y95.988 E6.60492
G1 X88.494 Y96.275 E6.64686
G1 X87.598 Y96.532 E6.69403
G1 X86.582 Y96.734 E6.74642
G1 X85.759 Y96.831 E6.78836
G1 X84.853 Y96.871 E6.83422
G1 X60.750 Y96.872 E8.05383
G1 X59.793 Y96.831 E8.10230
G1 X58.868 Y96.718 E8.14947
G1 X57.954 Y96.532 E8.19664
G1 X57.058 Y96.275 E8.24380
G1 X56.185 Y95.948 E8.29097
G1 X55.340 Y95.555 E8.33814
G1 X54.617 Y95.150 E8.38008
G1 X53.840 Y94.635 E8.42725
G1 X53.105 Y94.061 E8.47442
G1 X52.345 Y93.358 E8.52681
G1 X51.715 Y92.671 E8.57398
G1 X51.202 Y92.020 E8.61592
G1 X50.680 Y91.247 E8.66309
G1 X50.174 Y90.344 E8.71548
G1 X49.788 Y89.495 E8.76265
G1 X49.469 Y88.620 E8.80982
G1 X49.244 Y87.822 E8.85176
G1 X49.042 Y86.806 E8.90415
G1 X48.936 Y85.880 E8.95132
G1 X48.904 Y85.052 E8.99326
G1 X48.936 Y84.120 E9.04043
G1 X49.042 Y83.194 E9.08760
G1 X49.220 Y82.279 E9.13477
G1 X49.501 Y81.282 E9.18716
G1 X49.788 Y80.505 E9.22910
G1 X50.174 Y79.656 E9.27627
G1 X50.680 Y78.753 E9.32866
G1 X51.202 Y77.980 E9.37583
G1 X51.715 Y77.329 E9.41777
G1 X52.465 Y76.512 E9.47389
G1 X52.370 Y76.034 E9.49857
G1 X51.340 Y75.555 E9.55602
G1 X50.529 Y75.096 E9.60319
G1 X49.756 Y74.574 E9.65036
G1 X49.026 Y73.994 E9.69752
G1 X48.345 Y73.358 E9.74469
G1 X47.782 Y72.750 E9.78663
G1 X47.202 Y72.020 E9.83380
G1 X46.680 Y71.247 E9.88097
G1 X46.221 Y70.436 E9.92814
G1 X45.788 Y69.495 E9.98053
G1 X45.469 Y68.619 E10.02770
G1 X45.244 Y67.822 E10.06964
G1 X45.058 Y66.908 E10.11681
G1 X44.945 Y65.983 E10.16397
G1 X44.904 Y64.948 E10.21637
G1 X44.936 Y64.120 E10.25831
G1 X45.042 Y63.194 E10.30548
G1 X45.244 Y62.178 E10.35787
G1 X45.469 Y61.381 E10.39981
G1 X45.788 Y60.505 E10.44698
G1 X46.221 Y59.564 E10.49937
G1 X46.680 Y58.753 E10.54654
G1 X47.141 Y58.064 E10.58848
G1 X47.782 Y57.250 E10.64088
G1 X48.345 Y56.642 E10.68282
G1 X48.974 Y56.055 E10.72635
G1 F2100.000 E9.82635
G92 E0
G1 X83.186 Y69.469 F6600.000
G1 E0.90000 F2100.000
G1 X83.861 Y69.331 E0.93489 F540.000
G1 X85.789 Y72.671 E1.13000
G1 X85.497 Y73.154 E1.15859
G1 X84.802 Y73.128 E1.19380
G1 X82.421 Y73.128 E1.31428
G1 X82.144 Y72.649 E1.34224
G1 X82.634 Y71.801 E1.39181
G1 X82.759 Y71.508 E1.40792
G1 X82.979 Y70.732 E1.44872
G1 X83.099 Y70.145 E1.47905
G1 X83.177 Y69.540 E1.50990
G1 X82.712 Y69.398 F6600.000
G1 X82.628 Y70.059 E1.54363 F540.000
G1 X82.512 Y70.627 E1.57298
G1 X82.307 Y71.347 E1.61086
G1 X82.205 Y71.587 E1.62404
G1 X81.316 Y73.128 E1.71409
G1 X81.592 Y73.607 E1.74205
G1 X84.839 Y73.607 E1.90637
G1 X85.628 Y73.638 E1.94629
G1 X86.337 Y73.719 E1.98242
G1 X86.662 Y73.226 E2.01231
G1 X84.376 Y69.265 E2.24371
G1 X84.376 Y68.111 E2.30210
G1 X88.920 Y60.240 E2.76200
G1 X89.920 Y59.663 E2.82039
G1 X99.009 Y59.663 E3.28029
G1 X100.008 Y60.240 E3.33868
G1 X104.553 Y68.111 E3.79858
G1 X104.553 Y69.265 E3.85697
G1 X100.008 Y77.137 E4.31687
G1 X99.009 Y77.714 E4.37526
G1 X94.210 Y77.714 E4.61807
G1 X93.940 Y78.220 E4.64710
G1 X94.512 Y79.083 E4.69953
G1 X94.947 Y79.865 E4.74480
G1 X95.318 Y80.679 E4.79006
G1 X95.599 Y81.439 E4.83105
G1 X95.845 Y82.299 E4.87633
G1 X96.036 Y83.259 E4.92586
G1 X96.138 Y84.148 E4.97113
G1 X96.169 Y85.042 E5.01640
G1 X96.138 Y85.852 E5.05739
G1 X96.036 Y86.741 E5.10265
G1 X95.845 Y87.701 E5.15219
G1 X95.599 Y88.561 E5.19747
G1 X95.318 Y89.321 E5.23846
G1 X94.947 Y90.135 E5.28371
G1 X94.512 Y90.917 E5.32899
G1 X94.018 Y91.663 E5.37425
G1 X93.412 Y92.432 E5.42379
G1 X92.862 Y93.026 E5.46479
G1 X92.207 Y93.636 E5.51005
G1 X91.439 Y94.242 E5.55959
G1 X90.693 Y94.737 E5.60486
G1 X89.986 Y95.132 E5.64585
G1 X89.175 Y95.510 E5.69112
G1 X88.337 Y95.823 E5.73639
G1 X87.477 Y96.069 E5.78165
G1 X86.600 Y96.247 E5.82691
G1 X85.628 Y96.362 E5.87646
G1 X84.797 Y96.393 E5.91852
G1 X60.755 Y96.393 E7.13503
G1 X59.924 Y96.362 E7.17709
G1 X59.035 Y96.260 E7.22236
G1 X58.075 Y96.069 E7.27190
G1 X57.215 Y95.823 E7.31717
G1 X56.455 Y95.542 E7.35816
G1 X55.566 Y95.132 E7.40770
G1 X54.787 Y94.692 E7.45297
G1 X54.113 Y94.242 E7.49396
G1 X53.344 Y93.636 E7.54350
G1 X52.690 Y93.026 E7.58877
G1 X52.140 Y92.432 E7.62976
G1 X51.534 Y91.663 E7.67930
G1 X51.039 Y90.917 E7.72456
G1 X50.643 Y90.210 E7.76555
G1 X50.266 Y89.399 E7.81082
G1 X49.953 Y88.561 E7.85609
G1 X49.707 Y87.701 E7.90135
G1 X49.529 Y86.824 E7.94662
G1 X49.414 Y85.852 E7.99616
G1 X49.382 Y84.958 E8.04143
G1 X49.421 Y84.064 E8.08670
G1 X49.529 Y83.176 E8.13196
G1 X49.707 Y82.299 E8.17723
G1 X49.953 Y81.439 E8.22250
G1 X50.234 Y80.679 E8.26349
G1 X50.605 Y79.865 E8.30875
G1 X51.083 Y79.011 E8.35829
